JensOHI/Master_Thesis/record_trajectory/physical_traj_1.csv
pos_x, pos_y, pos_z, ori_x, ori_y, ori_z, f_x, f_y, f_z, q_base, q_shoulder, q_elbow, q_wrist1, q_wrist2, q_wrist3
0.6225396335145046, 0.018301611785250135, 0.4047748503997014, 0.07191897543450618, -3.105505368410776, -0.047898555202504495, 1.7228671436873773, 1.7404640447096467, 2.566129181957278, 0.13368557393550873, -1.8021074533462524, -1.8450428247451782, -1.0249971151351929, 1.576659917831421, 1.5833367109298706
0.6225673788004904, 0.018279471950800555, 0.40478058777257, 0.07192181727777751, -3.105580371966822, -0.047863710444154245, 1.7886504832213506, 1.906798016783301, 2.5194974504347534, 0.13368557393550873, -1.8021074533462524, -1.8450428247451782, -1.0249971151351929, 1.576659917831421, 1.5833367109298706
0.6225356823150295, 0.01828526817246778, 0.4047631582310954, 0.07188261119651727, -3.1055224986567094, -0.04784100370465804, 1.2721929319576009, 1.595424737828933, 2.2557833114109815, 0.3051373362541199, -1.5354276895523071, -2.096342086791992, -1.1056784391403198, 1.605794906616211, 1.827318787574768
0.6225462296881175, 0.018283798434374447, 0.4047423078277609, 0.07189290109398369, -3.1054733644025396, -0.04778591001517218, 1.1677422680937026, 1.7935948556728503, 2.5447753898665404, 0.3051414489746094, -1.5353553295135498, -2.09635853767395, -1.105690360069275, 1.605755090713501, 1.8272830247879028
0.6225519240082631, 0.018298933141563688, 0.40477630117208, 0.07195900274581876, -3.105566025843685, -0.04784306296035733, 1.7010806147670392, 1.8621615898355652, 2.029641851893873, 0.30516934394836426, -1.5353713035583496, -2.096362590789795, -1.1056263446807861, 1.6057748794555664, 1.827294945716858
0.6225495242191167, 0.018270033982745234, 0.4047785971109767, 0.07185849105428542, -3.1055428709729336, -0.04789065340151009, 1.2593079978704464, 1.6274231536050965, 2.1634738463070007, 0.3051777780056, -1.5353678464889526, -2.096346139907837, -1.105670690536499, 1.605818748474121, 1.8273108005523682
0.6225682109550474, 0.018265624600036785, 0.4047852044349617, 0.07177234744642964, -3.1055630845721094, -0.04789871167800764, 1.536731183034902, 1.9091489750040918, 1.9356943572995102, 0.305101215839386, -1.5353916883468628, -2.0963265895843506, -1.1056386232376099, 1.6058108806610107, 1.8273465633392334
0.6225572461704725, 0.018276494186586337, 0.4047867062911093, 0.07182929925290797, -3.1055705227741575, -0.04792207648621981, 1.5204434042353658, 1.7347193813680264, 2.22492000405287, 0.30510130524635315, -1.535404086112976, -2.0963306427001953, -1.105690360069275, 1.6057589054107666, 1.827355146408081
0.6225505014105186, 0.01831621286923546, 0.40475017785158346, 0.07203058727031737, -3.1055115421973714, -0.04791605979976892, 1.889493696579094, 1.8069681494366185, 2.1851821740259934, 0.30509287118911743, -1.535351276397705, -2.096379041671753, -1.1056263446807861, 1.605794906616211, 1.8272790908813477
0.6225610942895857, 0.018279637190017618, 0.40474336341616596, 0.07190044696302085, -3.1055236977063503, -0.04782989836958823, 1.1794000769658122, 1.6372339012132837, 1.8856629054873526, 0.3051655888557434, -1.5353590250015259, -2.096379041671753, -1.1056584119796753, 1.6058030128479004, 1.8273227214813232
0.6225528830338599, 0.018300780160981408, 0.4047638300342091, 0.07197410171923117, -3.105499162850525, -0.04786450784157987, 1.1975932757673076, 1.4914802117710122, 1.7886920715531343, 0.30513736605644226, -1.5353916883468628, -2.0963709354400635, -1.1056382656097412, 1.6057868003845215, 1.8273465633392334
0.6225441084327124, 0.01829223073989809, 0.4047258072103123, 0.07196060068864729, -3.1054673433259885, -0.04777115544484906, 1.1566398803080737, 1.6434418542799814, 2.114282820969256, 0.3050892949104309, -1.5354160070419312, -2.0963666439056396, -1.1056748628616333, 1.6057629585266113, 1.827355146408081
0.6225480661498904, 0.018301789313909432, 0.4047595967600204, 0.07194922240815303, -3.105489517644769, -0.04782648963080054, 1.5275091800751186, 1.995912395464323, 2.149506688578757, 0.30517345666885376, -1.5353875160217285, -2.096362590789795, -1.1056866645812988, 1.6057868003845215, 1.8273028135299683
0.6225648594863178, 0.018312171524316006, 0.4048174423555819, 0.07195088792133834, -3.1056351118793626, -0.04789449370075925, 1.1041792219874706, 2.1985150325898593, 2.071170722801829, 0.3051815927028656, -1.535351276397705, -2.096318006515503, -1.105614423751831, 1.6057870388031006, 1.8273147344589233
0.6225508775816659, 0.018296039677946713, 0.40476088380090547, 0.07189675384373499, -3.1055584747210987, -0.047838133139791995, 1.0416092005175561, 1.4340440171810018, 2.2666812467943176, 0.30520200729370117, -1.535326361656189, -2.09635853767395, -1.1056584119796753, 1.6057666540145874, 1.8272593021392822
0.6225427980517488, 0.018280674462997196, 0.404758753702891, 0.07189370172526459, -3.105518996453509, -0.04785332563095264, 1.118408732632671, 1.5220724185231775, 2.155108627911287, 0.30514097213745117, -1.5353755950927734, -2.0963830947875977, -1.1056464910507202, 1.605794906616211, 1.827306866645813
0.6225433212038537, 0.018269418817559287, 0.40477139748493424, 0.07192117967486915, -3.1055675658739097, -0.04782447796994558, 1.2094854199486256, 1.9986166431230528, 2.0642680911428086, 0.3051496148109436, -1.5353630781173706, -2.0963501930236816, -1.105642318725586, 1.6058269739151, 1.8273147344589233
0.6225562754259427, 0.018332522602359812, 0.4047825971915244, 0.07200404668800457, -3.105560595830833, -0.04785908637559894, 1.4207422304308865, 1.5669318956892386, 2.154806489762234, 0.3051450550556183, -1.5353797674179077, -2.0963823795318604, -1.1056222915649414, 1.6057908535003662, 1.827294945716858
0.6225587581777832, 0.018259524997661224, 0.4047493488394209, 0.07183214721776379, -3.1055059213481995, -0.047827569722935365, 1.1611536310576762, 1.4889290094202972, 2.4118452585764714, 0.3051414489746094, -1.5354000329971313, -2.096379041671753, -1.105674386024475, 1.6057789325714111, 1.8273189067840576
0.6225451934371897, 0.01830218841337055, 0.4047653701197902, 0.07191364962698535, -3.105509133488022, -0.04781518508357893, 1.044666650603246, 1.6191139236419976, 2.0930252874266513, 0.30517783761024475, -1.5353752374649048, -2.0963666439056396, -1.1056784391403198, 1.6057748794555664, 1.8273308277130127
0.6225684741538646, 0.01830108584476736, 0.40476447261420334, 0.07188376275793014, -3.1055489160060232, -0.04782665866623951, 1.1849541500385121, 1.9405465028593278, 2.1939997940617926, 0.30508533120155334, -1.5353957414627075, -2.096379041671753, -1.1056303977966309, 1.6058269739151, 1.8273108005523682
0.6225471677478521, 0.018243098434751772, 0.40479497518697316, 0.07177975285522566, -3.105585960019084, -0.04789729202218393, 1.021864868835648, 1.5201407955660222, 2.3498711262437175, 0.30514928698539734, -1.5354479551315308, -2.096386432647705, -1.1056543588638306, 1.605806827545166, 1.8273029327392578
0.622534603811512, 0.018292893951699918, 0.40477731796017546, 0.07195790958335835, -3.105541882284686, -0.04785799318222877, 1.4444762582851844, 2.2665488709017123, 2.355556416189054, 0.3051176071166992, -1.5353630781173706, -2.096362590789795, -1.1056418418884277, 1.6057708263397217, 1.8273186683654785
0.6225514471763344, 0.01829078237509413, 0.40479390282219796, 0.07187876649496268, -3.1055686570313865, -0.04790208940138876, 1.400789898591849, 1.6136198048712556, 2.2304420356650656, 0.30517345666885376, -1.5354036092758179, -2.09635853767395, -1.1056545972824097, 1.6058108806610107, 1.827270746231079
0.6225500018021279, 0.018285724086354472, 0.40480642135236544, 0.07187949767993278, -3.1055839183857663, -0.04785048964932538, 1.0850585921117328, 1.530708290765805, 2.395968924093594, 0.30514922738075256, -1.5353388786315918, -2.0963377952575684, -1.1056665182113647, 1.6057748794555664, 1.827326774597168
0.6225235745523732, 0.018293922618868395, 0.4047978929370061, 0.07195966303996797, -3.105576129265958, -0.047899866714417205, 1.3705055361854759, 1.5356787875071993, 2.232803835483572, 0.30516937375068665, -1.535302758216858, -2.09639048576355, -1.1056464910507202, 1.605806827545166, 1.8272948265075684
0.6225496686093389, 0.018278139736298403, 0.4047723729280532, 0.07189027111808034, -3.105552672481181, -0.04783650595605808, 1.1550210720168872, 1.758270575866913, 2.2217140954673633, 0.30513736605644226, -1.5353714227676392, -2.0963666439056396, -1.1056382656097412, 1.6057748794555664, 1.8273067474365234
0.6225444122184252, 0.018290128045862705, 0.4047679538360544, 0.07187784550388882, -3.1055556088075904, -0.047882267898461596, 0.8895746049087458, 1.7840708677131019, 2.309656361153557, 0.30512169003486633, -1.535431981086731, -2.0963709354400635, -1.1056703329086304, 1.605815052986145, 1.8272709846496582
0.6225615189094981, 0.018242577902710118, 0.40474281911447113, 0.07184304132646324, -3.1054838073706037, -0.047818699501325286, 2.039041294440499, 2.265190623394885, 1.993355411225805, 0.3051290512084961, -1.5354117155075073, -2.096362590789795, -1.105614423751831, 1.6058109998703003, 1.827314853668213
0.6225478736596499, 0.018263759790922464, 0.4047362022067139, 0.07186943861772638, -3.105506611405813, -0.04779580476704142, 1.872679906224579, 1.8369035658081423, 2.0120265293362616, 0.305149644613266, -1.5353957414627075, -2.0963947772979736, -1.10570228099823, 1.6057748794555664, 1.827278733253479
0.6225581078664926, 0.018300905984079286, 0.40478802687313675, 0.07198412950668777, -3.105580169623581, -0.04792127491292034, 0.9688123368178287, 1.2677106084473415, 1.996547541760364, 0.30513328313827515, -1.5353797674179077, -2.0963823795318604, -1.1056863069534302, 1.605818748474121, 1.8273108005523682
0.6225592076716305, 0.01830626788495808, 0.40476066636749564, 0.0719629772503879, -3.105519102575012, -0.04788669330852723, 0.7617370179411189, 1.0785718688579367, 2.291114341529355, 0.30516961216926575, -1.5354039669036865, -2.0963542461395264, -1.1056386232376099, 1.605815052986145, 1.8272907733917236
0.6225397205649892, 0.018303312536059654, 0.4047790777973598, 0.07187843842653077, -3.1055769227421277, -0.04785228951106976, 0.9000108942513118, 1.4208902274889557, 2.1206126865710213, 0.30510130524635315, -1.5353471040725708, -2.0963501930236816, -1.1056584119796753, 1.6057908535003662, 1.8273108005523682
0.6225484193475956, 0.018269726020175472, 0.4047424656222833, 0.07185520885167043, -3.1054769850261486, -0.047859785866854535, 1.2980766372111467, 1.7076462267873327, 2.169286978633127, 0.30510130524635315, -1.5354076623916626, -2.0963542461395264, -1.1056464910507202, 1.6057908535003662, 1.8273067474365234
0.6225421209905473, 0.01828270720170764, 0.4047674330596641, 0.07190044292971944, -3.105518377416805, -0.047879241020090786, 0.7742092954623137, 1.5641214944804025, 2.1979699407741182, 0.3051450252532959, -1.535351276397705, -2.0964112281799316, -1.105674386024475, 1.6058228015899658, 1.8273025751113892
0.622567305205795, 0.018306880388797193, 0.404775613180504, 0.07190334300741004, -3.1055637674886065, -0.04787950312470806, 0.9286932789164193, 2.6947102049825378, 2.3531326639040175, 0.3051409423351288, -1.5353549718856812, -2.0963666439056396, -1.1056382656097412, 1.6058026552200317, 1.827326774597168
0.6225590749449276, 0.018279994665517163, 0.4047978751345108, 0.07197813322986543, -3.105574977547928, -0.04786870109555772, 0.556250175104954, 2.5187482263736722, 2.414332835605961, 0.3051450550556183, -1.535431981086731, -2.0964226722717285, -1.105650544166565, 1.6057629585266113, 1.827298879623413
0.6225699415769596, 0.01825179230242669, 0.4047591024748504, 0.071826215569418, -3.1055235952989038, -0.04782356682571273, 0.7839984077784218, 3.0874135225354333, 2.3929198980243847, 0.30515334010124207, -1.5353957414627075, -2.0963306427001953, -1.1056182384490967, 1.6057666540145874, 1.8273108005523682
0.6225510758634714, 0.01830734245463542, 0.4047446574142057, 0.07193220984089552, -3.1054991941814096, -0.04775159462664779, 1.1533099719759556, 2.033910779204724, 2.799865293978875, 0.30519792437553406, -1.5353634357452393, -2.09639048576355, -1.105642318725586, 1.6057428121566772, 1.8273634910583496
0.6225515757054071, 0.0182736922495953, 0.40472615498075426, 0.07188638726752937, -3.1054838287417, -0.04786963231419675, 2.035661025062171, 0.8832598654015212, 3.1271457447202264, 0.30513328313827515, -1.5353875160217285, -2.096402883529663, -1.1056222915649414, 1.605806827545166, 1.8273227214813232
0.6225144274296663, 0.01825486925489491, 0.4047393242353868, 0.07179096392816542, -3.1054386277844603, -0.04785354170034654, 2.764466936402407, 1.3277575078646233, 3.1724126282021454, 0.305109441280365, -1.535351276397705, -2.0964267253875732, -1.1057063341140747, 1.605818748474121, 1.827338695526123
0.622522126882037, 0.018270077058801532, 0.4047181050037658, 0.07186913452600299, -3.105405122117052, -0.04784554288199944, 3.518442529487715, 2.243164322700536, 3.3125368961265997, 0.3051414489746094, -1.5353591442108154, -2.0963823795318604, -1.105654239654541, 1.605818748474121, 1.827326774597168
0.622564532161068, 0.018279998245325155, 0.4047543329347335, 0.07181167084958039, -3.1054907034835835, -0.047838168779078274, 3.1332871687407953, 3.344695615705573, 3.18625235483053, 0.30514928698539734, -1.5353797674179077, -2.0963947772979736, -1.1056621074676514, 1.6058146953582764, 1.827330470085144
0.6225466600469236, 0.01831830557481907, 0.40472878620113006, 0.07202933385532508, -3.10546364732121, -0.047802223048223985, 4.011914796965514, 3.610185363588695, 3.9473245608442684, 0.30520200729370117, -1.535415530204773, -2.09639048576355, -1.1056584119796753, 1.6057789325714111, 1.8272788524627686
0.6225606605097938, 0.018305120404309358, 0.4047504589996817, 0.07191069082041866, -3.1054704650687155, -0.04784286356205437, 3.3262156137462267, 1.6849887172018831, 3.857307702084916, 0.30516937375068665, -1.5354200601577759, -2.096346139907837, -1.1056863069534302, 1.6058027744293213, 1.8273227214813232
0.6225329901437205, 0.01828299960805019, 0.4047313965491509, 0.0718901975138039, -3.105426087688964, -0.04777688155440357, 2.691243387046993, -1.7237979897524836, 3.780942184291248, 0.30515336990356445, -1.5353916883468628, -2.096397876739502, -1.105718970298767, 1.6057748794555664, 1.8273186683654785
0.6225460043691861, 0.018236279530273965, 0.4047206347418818, 0.07172306120940025, -3.1054493479943077, -0.047813037766742214, 2.896157491495726, -2.7019800347354552, 3.9129616698133898, 0.3050694763660431, -1.5354200601577759, -2.096397876739502, -1.1056662797927856, 1.6057908535003662, 1.8273427486419678
0.6225150926981327, 0.018249851483115014, 0.4047408569703426, 0.07182818929204134, -3.105425724893449, -0.04780981406187731, 3.4500052220726256, -3.978921979172463, 3.9153775869356635, 0.30510154366493225, -1.5353347063064575, -2.0964341163635254, -1.105718970298767, 1.6058109998703003, 1.8273026943206787
0.6225046482019703, 0.018240849718210404, 0.4047142543509491, 0.07187467491945687, -3.105363728743765, -0.047808690201070606, 3.7554308099199654, -4.0483030587375035, 3.706708724696127, 0.3051298260688782, -1.5353549718856812, -2.0964505672454834, -1.1056822538375854, 1.6057908535003662, 1.8273067474365234
0.622509663778301, 0.01826337015566366, 0.40471064133360896, 0.07176246918334067, -3.105376253027793, -0.04784980696262586, 3.40595920543795, -3.6009346701556644, 3.390375246599192, 0.30507776141166687, -1.5353999137878418, -2.0964341163635254, -1.1057149171829224, 1.6057789325714111, 1.827298879623413
0.6225032201680352, 0.018276921318957494, 0.40473695253360004, 0.07192214256929895, -3.105428665384823, -0.04778524420527987, 3.0714804639326103, -4.077090563805268, 3.1786684806438634, 0.3050529360771179, -1.5353963375091553, -2.0964629650115967, -1.1056898832321167, 1.6057547330856323, 1.8273634910583496
0.6225186115394764, 0.018251513186229418, 0.40471939470604146, 0.07180982098851665, -3.105431891887667, -0.04778592122409421, 2.880328892231408, -4.223032744370315, 3.0415581324999024, 0.3051097095012665, -1.5353755950927734, -2.09643816947937, -1.1056898832321167, 1.6057789325714111, 1.827326774597168
0.6225177768326385, 0.01824417338875112, 0.40470461217628145, 0.07183393046387224, -3.1054164377088362, -0.04775298139800431, 1.8643084659282854, -5.219042744165738, 2.8023997185744696, 0.305101603269577, -1.5353879928588867, -2.0964505672454834, -1.1056863069534302, 1.6057626008987427, 1.8273026943206787
0.6225232819584264, 0.018222120320415692, 0.40471404927638077, 0.07173477550101336, -3.105433369449179, -0.04781291455761276, 1.9538788756410543, -6.06260358032939, 2.216739987690078, 0.3050575256347656, -1.5353875160217285, -2.096438407897949, -1.105673909187317, 1.605794906616211, 1.8273227214813232
0.6225274532489232, 0.018232066881629632, 0.40470040628623427, 0.07177664760798928, -3.105385626128548, -0.04777165144564508, 1.471561475488321, -6.641908431809977, 1.4234501511861157, 0.3050735294818878, -1.5354117155075073, -2.0964300632476807, -1.105710744857788, 1.6057829856872559, 1.82731032371521
0.6225252678965267, 0.018202291680121403, 0.4047262941874161, 0.07170029560077702, -3.1054555952307976, -0.047745436270351264, 1.857869325496425, -8.069846012581012, 0.8165788283226313, 0.3050774335861206, -1.5354039669036865, -2.0963988304138184, -1.1056621074676514, 1.6057748794555664, 1.827330470085144
0.6225496753463261, 0.018227946329455742, 0.4047448714572165, 0.07173098486403776, -3.1054530627930945, -0.0478163316480181, 1.3532828697281485, -8.98666471765211, 0.42016551858846407, 0.305054247379303, -1.535404086112976, -2.0963659286499023, -1.105710506439209, 1.6057912111282349, 1.8273227214813232
0.6225204396836135, 0.01820020729275551, 0.4047349473799937, 0.07164397935647256, -3.1054657249392275, -0.04780775322210131, 2.1234202551745067, -9.486507324292292, 0.8313273413719637, 0.3050263226032257, -1.5353714227676392, -2.096386432647705, -1.1056501865386963, 1.6057871580123901, 1.8273754119873047
0.6225140616500587, 0.01817644829250716, 0.4047581451646459, 0.07161032535672336, -3.1055029214388057, -0.04779962582939891, 1.9007035805527237, -10.355009716626855, 1.2041137018382764, 0.30500248074531555, -1.5353714227676392, -2.0964341163635254, -1.1056982278823853, 1.6057469844818115, 1.8273264169692993
0.6225230629694993, 0.018134198757051165, 0.4047138627630903, 0.07148194074807851, -3.1054663975528953, -0.047788902006165715, 1.669174951793629, -11.754953505730441, 1.3661240343338703, 0.30490219593048096, -1.535343050956726, -2.0964465141296387, -1.1056822538375854, 1.605727195739746, 1.8273512125015259
0.6225433594368693, 0.018110050810833292, 0.404755766764787, 0.07138173538535893, -3.1055534886251372, -0.04779017797442087, 0.7670124386106306, -12.875699887729631, 1.7538517426470515, 0.3048585057258606, -1.5353223085403442, -2.096425771713257, -1.105673909187317, 1.605823278427124, 1.827326774597168
0.6225217800109196, 0.017950533243500322, 0.4047507729760561, 0.0710323147217686, -3.105518540798664, -0.04774278372075529, 0.2551809862875689, -14.125420292632363, 2.4551270866673214, 0.30468669533729553, -1.5353590250015259, -2.0964465141296387, -1.105673909187317, 1.6057231426239014, 1.8273183107376099
0.6225514541520927, 0.017843937106997197, 0.4047449098315369, 0.07080530293552435, -3.105552152159738, -0.04778660794339157, -0.9051138206481761, -14.534488836199005, 3.665669227818416, 0.3044467270374298, -1.5353755950927734, -2.0964465141296387, -1.10570228099823, 1.6057592630386353, 1.8273346424102783
0.6225293069918422, 0.01764620984996137, 0.4046535671051804, 0.07035195958400697, -3.1054043106338187, -0.047680221059036035, -2.5726718068591286, -14.697870878285904, 4.052981976929223, 0.30420002341270447, -1.5353957414627075, -2.0964713096618652, -1.1056982278823853, 1.6057312488555908, 1.8273673057556152
0.6225478316054217, 0.01743353236157899, 0.4047184062763073, 0.06977876883811894, -3.105517162857891, -0.04776653136397979, -3.8144699031974296, -14.710366482040783, 3.9910587844515355, 0.3039010167121887, -1.5353994369506836, -2.0964102745056152, -1.105685830116272, 1.6057192087173462, 1.8273143768310547
0.6225572018854942, 0.017129677430728456, 0.40470255468091026, 0.06907933658045141, -3.105485607715428, -0.04769634116457645, -5.73400823803323, -15.953067711427087, 3.759771919173383, 0.3034108579158783, -1.5353999137878418, -2.0964465141296387, -1.1057149171829224, 1.6057233810424805, 1.8273470401763916
0.6225803032705421, 0.016785240736369982, 0.40472094619597604, 0.0681019125157557, -3.1055944761041125, -0.047773512807590374, -6.445677848306621, -17.460794121548147, 3.6431411197980252, 0.30278709530830383, -1.5353834629058838, -2.0964019298553467, -1.1056342124938965, 1.6056795120239258, 1.8273513317108154
0.6225839124003008, 0.016438967404840625, 0.4047100491309113, 0.06732447952410417, -3.1056387585116556, -0.04767309360379382, -8.332679957712186, -18.53664522558408, 4.648246647433312, 0.30211710929870605, -1.535391092300415, -2.096421718597412, -1.1056621074676514, 1.6056597232818604, 1.8273143768310547
0.6225992068055279, 0.015945216397854057, 0.4046685498665283, 0.06610704247979358, -3.105605427468443, -0.04745902814549996, -9.667137381400254, -19.490716331832477, 5.1793045592616425, 0.30144673585891724, -1.5354440212249756, -2.0964505672454834, -1.1056982278823853, 1.6055189371109009, 1.827338695526123
0.6226280988920008, 0.015359596326310142, 0.4046911226666192, 0.06467466286127078, -3.105727399284266, -0.047235149405718976, -11.07788095818643, -20.589636442843766, 4.7956975441134535, 0.30053290724754333, -1.535435676574707, -2.096418619155884, -1.105710744857788, 1.6053438186645508, 1.8273513317108154
0.6226754447898454, 0.014657978073553641, 0.4046504372826013, 0.06290534759734917, -3.1057887862793985, -0.047055568689621734, -12.836201515927089, -20.724326587499576, 4.582533777348072, 0.2995796799659729, -1.5354756116867065, -2.0963947772979736, -1.105654239654541, 1.6052364110946655, 1.82737135887146
0.6227020143268907, 0.013872106938198948, 0.4046473604602093, 0.06110593145577054, -3.1058620436998177, -0.04689243407529421, -13.440663449226337, -20.44767400985173, 4.448722671744011, 0.29838329553604126, -1.5355600118637085, -2.0964348316192627, -1.1056464910507202, 1.6051011085510254, 1.827338695526123
0.6227600970632028, 0.012625277206004546, 0.40460691062512866, 0.05788823413160685, -3.105919332966318, -0.04683940112766361, -14.277209407011256, -20.5730020218603, 4.694939324168733, 0.29644346237182617, -1.5356076955795288, -2.0964183807373047, -1.1056703329086304, 1.6050333976745605, 1.827391505241394
0.6228363202269523, 0.011383378344532354, 0.4045343481992407, 0.054787734960509656, -3.105902812952998, -0.04680201853269741, -15.408882766938538, -21.575467531336958, 4.193965382462395, 0.29441726207733154, -1.5357205867767334, -2.096362829208374, -1.1056382656097412, 1.6050012111663818, 1.8272943496704102
0.622872125798664, 0.010111751005087183, 0.404427521721733, 0.051607624709440435, -3.1058052537011664, -0.046794907350930164, -17.27355462691157, -22.459875254708894, 3.1677080076263158, 0.29238635301589966, -1.5358928442001343, -2.0963387489318848, -1.1056584119796753, 1.6049892902374268, 1.82731032371521
0.6229439551352017, 0.00885863396316103, 0.40441948324883803, 0.048417530641078024, -3.1058997658289167, -0.04676514012621579, -18.174982691722096, -22.083984129102635, 3.3087196968706922, 0.29049694538116455, -1.5359768867492676, -2.0963263511657715, -1.1056303977966309, 1.6049613952636719, 1.8272943496704102
0.6230373741506846, 0.007743411627173196, 0.4043875662207911, 0.0456068882094026, -3.105966252341859, -0.0468069457684217, -18.51011808989974, -21.95475998392867, 3.009695165037365, 0.28825074434280396, -1.5361860990524292, -2.096203088760376, -1.1055896282196045, 1.6049531698226929, 1.8273427486419678
0.6231329064126311, 0.0060504575247898994, 0.40432866607701723, 0.04141660127758805, -3.105933722570916, -0.046738991352416506, -18.851676820747542, -21.707500532909165, 2.5333217010085844, 0.28550752997398376, -1.536382794380188, -2.096095323562622, -1.1056545972824097, 1.60490083694458, 1.8272948265075684
0.623279621748697, 0.0042446477124953785, 0.4043017825704822, 0.03673605848108149, -3.1059928074939784, -0.04684606730023464, -19.324765582869777, -20.342899256292416, 2.965167681497993, 0.28254297375679016, -1.53663969039917, -2.0958943367004395, -1.1056345701217651, 1.6049292087554932, 1.8273428678512573
0.6234442332484653, 0.0025863150279482037, 0.4042981024020029, 0.03260070300758823, -3.106078463448158, -0.04697558490864184, -19.60768459918915, -18.68433927028167, 2.3935407509255104, 0.2798045575618744, -1.5369131565093994, -2.095641613006592, -1.105605959892273, 1.60496187210083, 1.8272669315338135
0.6236356160654364, 0.00021199365342407196, 0.40439948392296876, 0.02653019295513171, -3.106348654524641, -0.04711785948891132, -20.182697867889193, -17.631915696930086, 1.9183653849791285, 0.2759156823158264, -1.5371286869049072, -2.0952696800231934, -1.105605959892273, 1.6049416065216064, 1.8272910118103027
0.6238763372358451, -0.002300970800399495, 0.4044665636227515, 0.020201530884000358, -3.106549674926759, -0.047259661453124636, -20.2630738268992, -17.48340140504941, 1.893737781313379, 0.27177825570106506, -1.5374832153320312, -2.094817876815796, -1.1056102514266968, 1.604933500289917, 1.827230453491211
0.6240574088993351, -0.004216497974403127, 0.40463669333094426, 0.015242807390758851, -3.1068926070367326, -0.04745481677979446, -21.289074750164996, -17.852877962948735, 1.995497534453233, 0.26862430572509766, -1.5376356840133667, -2.0943984985351562, -1.1055983304977417, 1.6049292087554932, 1.827275037765503
0.6242767505050708, -0.006519023133258601, 0.4048604815379204, 0.009399172279748146, -3.1072826772433926, -0.047719047698020954, -20.62354406072156, -17.044568057154773, 2.3264330657484784, 0.2653422951698303, -1.537807583808899, -2.0939342975616455, -1.1055822372436523, 1.6049617528915405, 1.8272228240966797
0.624540743865063, -0.009185818378765245, 0.4050822244756407, 0.0026321156277049535, -3.1076992703961515, -0.04800247103959214, -21.45528751797541, -16.927638919155566, 1.6091889162444346, 0.2604256868362427, -1.5381046533584595, -2.0932226181030273, -1.10562264919281, 1.6049575805664062, 1.8272068500518799
0.6248205980297967, -0.011897133833364007, 0.40542928192468697, -0.0042069090891965035, -3.1083199386167477, -0.04833305751869525, -20.970435720218312, -16.082315748070748, 2.491114082675365, 0.25595030188560486, -1.5383046865463257, -2.0924746990203857, -1.1055983304977417, 1.6049416065216064, 1.8271429538726807
0.6252167749057643, -0.015060997847188692, 0.40583635073685254, -0.012125103700086348, -3.1090268986968463, -0.04869320326467618, -20.475645213281894, -17.21961481283107, 2.5746540270675067, 0.25129663944244385, -1.5386096239089966, -2.091630220413208, -1.1055983304977417, 1.6049575805664062, 1.827019214630127
0.6256207924047772, -0.01786680425598232, 0.4062522654710884, -0.019132700383649656, -3.10964556285165, -0.04908542658428334, -20.30149326846096, -17.430665947152363, 3.5344007144722718, 0.24661220610141754, -1.538979411125183, -2.090562105178833, -1.1055899858474731, 1.6049208641052246, 1.82683527469635
0.6261200636636278, -0.02061419329313854, 0.4068249934536154, -0.02588844629826169, -3.110585103261313, -0.04959982695150142, -20.03284636993061, -17.52403221798239, 4.23678432508032, 0.24139225482940674, -1.539496660232544, -2.0890777111053467, -1.1055822372436523, 1.604933261871338, 1.826563835144043
0.6267018411735974, -0.023702816703767525, 0.40750751167012905, -0.03320021253912779, -3.111637177060251, -0.050122248263977126, -21.078045665794814, -17.379949353208026, 4.375093447285321, 0.23619557917118073, -1.5399866104125977, -2.0875017642974854, -1.1056023836135864, 1.6049089431762695, 1.8260806798934937
0.6270895934004131, -0.02573920917138366, 0.40793417685706085, -0.03769055511156828, -3.1122985391043465, -0.050479681254320764, -20.422658345164308, -17.405488608661063, 4.6320608666115435, 0.23276732861995697, -1.5403558015823364, -2.086458444595337, -1.1056019067764282, 1.6049089431762695, 1.8255454301834106
0.6275634832222527, -0.028157394318159643, 0.4084339649664689, -0.04231313641377165, -3.113074122285913, -0.050960985033772374, -21.05702710826232, -17.210036493778333, 5.311123281633336, 0.2292863130569458, -1.5407127141952515, -2.085357427597046, -1.1056143045425415, 1.6049292087554932, 1.8246259689331055
0.6279520377943003, -0.030213467486437513, 0.40880765252458906, -0.046010725368823224, -3.113655982793607, -0.051311631077408354, -20.405569895992876, -17.283507874588214, 5.406583336484682, 0.2257959097623825, -1.5412061214447021, -2.0843420028686523, -1.10562264919281, 1.6049048900604248, 1.8235522508621216
0.6285645183530091, -0.03298357361661951, 0.40934766280620694, -0.05019227483147117, -3.1144918246508975, -0.05177453532071738, -20.638764151541896, -18.32004653171229, 5.407704727155055, 0.22106309235095978, -1.5419362783432007, -2.0827133655548096, -1.1056268215179443, 1.6049292087554932, 1.8216391801834106
0.6292121781349412, -0.03573117381045136, 0.40980113571047927, -0.05217088069278458, -3.1152799466748613, -0.05211856083399001, -21.170920890954434, -19.287230181742604, 5.420300167987527, 0.21648450195789337, -1.5427430868148804, -2.0811655521392822, -1.1055983304977417, 1.604949951171875, 1.8184996843338013
0.6296475984877552, -0.037819327091592594, 0.41009989120304985, -0.05264331649850587, -3.1158257498971076, -0.052483602724255785, -21.511046292731596, -19.942921005325783, 5.426696002780552, 0.21238316595554352, -1.5436060428619385, -2.079821825027466, -1.10562264919281, 1.6049457788467407, 1.81479012966156
0.6301793203184879, -0.04022135755750137, 0.410353664785018, -0.05132754444291569, -3.1163389800839676, -0.05280251045874578, -22.285950208140267, -21.277695478605715, 6.747258909618839, 0.20891712605953217, -1.5443769693374634, -2.078674077987671, -1.1056545972824097, 1.6049132347106934, 1.8106881380081177
0.6306218591570679, -0.042305010372149676, 0.41056579714924674, -0.048804769530474815, -3.1168636313396854, -0.05297798422783411, -22.540639428925303, -22.203043368208306, 7.062438754931372, 0.20484855771064758, -1.5452955961227417, -2.077425718307495, -1.1056386232376099, 1.6048815250396729, 1.8047940731048584
0.6311635276060971, -0.04480389305758192, 0.41081355791423624, -0.04417757878069458, -3.11750303500645, -0.05322756188051681, -22.989578804817576, -22.789873056209974, 5.98958600761414, 0.20124535262584686, -1.546129822731018, -2.0762579441070557, -1.105594277381897, 1.6048297882080078, 1.7987521886825562
0.6318439503666554, -0.047755294251688285, 0.4110124205588921, -0.03681120839433596, -3.1181707284624367, -0.05344555645438249, -22.540659475970198, -21.739868713671576, 6.1711722480900235, 0.19635045528411865, -1.5474225282669067, -2.0746500492095947, -1.1056386232376099, 1.6046701669692993, 1.789211392402649
0.6325037471378706, -0.05076389086901847, 0.4111132452784882, -0.02697333365126707, -3.1186660045316965, -0.05349835441710595, -23.086922363455123, -21.075130627930836, 6.901926987098431, 0.19132491946220398, -1.5487990379333496, -2.0730533599853516, -1.10562264919281, 1.6045740842819214, 1.7781338691711426
0.633121734312958, -0.05343794787579754, 0.41118618382533173, -0.016865100324231014, -3.119142334248921, -0.05369659545420391, -22.356492185709598, -22.06450522762383, 6.70192531727172, 0.186247318983078, -1.5503722429275513, -2.0714704990386963, -1.105614423751831, 1.6044628620147705, 1.7657086849212646
0.6340277077632344, -0.05700436954531774, 0.41128895268613747, -0.003029884326401228, -3.119685938573071, -0.053988263902609926, -23.262531930907866, -21.919467393872786, 6.831852998021407, 0.18027080595493317, -1.5523426532745361, -2.069373846054077, -1.105606198310852, 1.6043909788131714, 1.7508622407913208
0.634829233042745, -0.060212203431439945, 0.41132829150090705, 0.010719967685370077, -3.120044101900099, -0.05424973679218415, -22.984038435289257, -23.241426787791788, 5.551797692434655, 0.17490918934345245, -1.5541722774505615, -2.067512035369873, -1.105605959892273, 1.6043391227722168, 1.736686110496521
0.635545550656806, -0.06313607665948585, 0.41122265175868533, 0.023019477969726965, -3.120070279794356, -0.05446258309195245, -22.523057869589827, -23.160661495744982, 6.381333728658807, 0.17003053426742554, -1.5559825897216797, -2.0658936500549316, -1.1056303977966309, 1.6043237447738647, 1.7239184379577637
0.6365058949078813, -0.06659562234234151, 0.4111957046374012, 0.03716458070525776, -3.1202505319538543, -0.05452883211067726, -21.339457166656224, -22.691141074359837, 7.115014515842429, 0.16426913440227509, -1.5582314729690552, -2.0637173652648926, -1.1056263446807861, 1.6041557788848877, 1.7090903520584106
0.6372131552258056, -0.06927266197068807, 0.4110992327919409, 0.047545876691825986, -3.1202015789999304, -0.05469074957679473, -22.641007870928448, -22.08368526432864, 6.2851301059144316, 0.16053321957588196, -1.5596880912780762, -2.06233286857605, -1.1055817604064941, 1.6041440963745117, 1.6998083591461182
0.6381133651052144, -0.07244470140745654, 0.41099405286202606, 0.05966989652476101, -3.1201514964980896, -0.05487145366270667, -22.36395856661964, -22.49066919256576, 5.474686369096654, 0.1545320600271225, -1.562233328819275, -2.0600807666778564, -1.105614423751831, 1.604072093963623, 1.6849212646484375
0.6392955174106095, -0.07673161967357707, 0.4108219311437669, 0.07432141318089897, -3.12000286252653, -0.05499987247133276, -22.36508544373777, -23.2427089659773, 7.127970406351245, 0.1482219696044922, -1.5648688077926636, -2.057680606842041, -1.10562264919281, 1.6039280891418457, 1.6702425479888916
0.6404297867229807, -0.08059976605235485, 0.4106585400750129, 0.08668874385713199, -3.1197661382551063, -0.05492579859635639, -23.053697844922336, -23.227061786866376, 5.921081514012737, 0.141817107796669, -1.5676754713058472, -2.0551130771636963, -1.1056268215179443, 1.6037733554840088, 1.6559137105941772
0.6416570486944398, -0.08461053977318894, 0.41051614924216817, 0.0983955553751594, -3.1196023678225955, -0.05451493007525367, -21.79665029097498, -22.377454293878753, 5.941022853675607, 0.13535594940185547, -1.5707402229309082, -2.0523128509521484, -1.105650544166565, 1.6033976078033447, 1.6418124437332153
0.6428185535274696, -0.08822932241511738, 0.410442795003862, 0.10764635956788014, -3.119552176721924, -0.054099414449215344, -22.770372062843293, -21.173858576730172, 6.395329290983345, 0.1286081075668335, -1.5739623308181763, -2.04925274848938, -1.1056268215179443, 1.6028313636779785, 1.6282384395599365
0.6442730783149244, -0.0930187213745653, 0.41015362068576233, 0.11894873646770267, -3.119185541656915, -0.05349756347701748, -21.57157838993407, -21.905568241739093, 5.9353487793404165, 0.12172382324934006, -1.577316403388977, -2.0462770462036133, -1.105605959892273, 1.602272868156433, 1.61478590965271
0.6453641855136946, -0.09622798852243494, 0.4100376741152024, 0.12597204078647073, -3.1189689174493718, -0.053406705041838955, -20.20697408396404, -22.45673235798148, 5.868953108747169, 0.11648617684841156, -1.5799652338027954, -2.0436925888061523, -1.10562264919281, 1.6021137237548828, 1.6051485538482666
0.6464354764326216, -0.09944051499599994, 0.40995469487143305, 0.13256219626533636, -3.1188597580197013, -0.0536405053595327, -22.06612787246577, -23.088383057834452, 5.596756758494163, 0.10944703966379166, -1.5836116075515747, -2.0403084754943848, -1.1056385040283203, 1.6021020412445068, 1.5925242900848389
0.6483087683885269, -0.10496374326066042, 0.40976003163382657, 0.14287715229466788, -3.1185952658206686, -0.05408569403083004, -19.856568971783407, -21.34622987393511, 5.7827242872439415, 0.10235711187124252, -1.5874468088150024, -2.036736488342285, -1.1056102514266968, 1.6021099090576172, 1.5800005197525024
0.6498421546236046, -0.10944545754656565, 0.40953524025736143, 0.1504240401181572, -3.1182737803585994, -0.05427532578859022, -20.972711763086767, -21.42071858969849, 6.057077682005572, 0.09506721794605255, -1.5913769006729126, -2.033087968826294, -1.105642557144165, 1.6021058559417725, 1.5677913427352905
0.6514293590544429, -0.1139665674762623, 0.4093843884329961, 0.1580269486631856, -3.1180830398545245, -0.0545381196750711, -19.152673460017713, -22.079389225465405, 5.996419759355152, 0.08684541285037994, -1.5958915948867798, -2.0287067890167236, -1.1056267023086548, 1.6020578145980835, 1.5541523694992065
0.6530469879978369, -0.11853725353674074, 0.40924524510191324, 0.16512324904586478, -3.117948512656443, -0.054900426879354085, -18.52068031326115, -22.220621931568424, 5.455878636645489, 0.07951517403125763, -1.6000105142593384, -2.024704694747925, -1.105605959892273, 1.6021060943603516, 1.5422725677490234
0.6549230668628716, -0.12375491529303581, 0.4091154245610732, 0.17272348240144633, -3.117861148673034, -0.055183878141354024, -17.794531656322803, -20.36260446857086, 6.076174191258554, 0.07121046632528305, -1.6047693490982056, -2.020007610321045, -1.1055943965911865, 1.6020820140838623, 1.5290993452072144
0.6568065315432932, -0.12896921535503783, 0.408855449495478, 0.18071141141919564, -3.1175214673777263, -0.05546571437264988, -18.04802243134615, -19.25796464922467, 6.043480576708471, 0.06389158219099045, -1.6092015504837036, -2.015782356262207, -1.1056267023086548, 1.6020374298095703, 1.5172120332717896
0.6578651476587798, -0.13190069393912937, 0.4087334114084547, 0.18491510611731823, -3.1173950930104257, -0.05566543766410288, -17.63228537865025, -20.803317699280118, 5.548326361293613, 0.059290457516908646, -1.611953854560852, -2.013153553009033, -1.1055704355239868, 1.6021260023117065, 1.5098857879638672
0.6593753377196454, -0.13596660440385339, 0.40852717619644846, 0.19099650255933873, -3.117164694414017, -0.0559337725768248, -17.231703064250574, -22.296346059856763, 4.947690127357151, 0.052824851125478745, -1.6158963441848755, -2.0093584060668945, -1.105586290359497, 1.6020700931549072, 1.499588131904602
0.6611046763830932, -0.14066596788384442, 0.4082528174013762, 0.19848247422760382, -3.116852614315177, -0.05619945425886139, -15.53711022965123, -21.655899853025048, 5.228977283104614, 0.04466450959444046, -1.6210790872573853, -2.0044054985046387, -1.105586290359497, 1.6020820140838623, 1.486021876335144
0.6627958872518104, -0.1454603640393746, 0.4080835879844254, 0.20584508897610673, -3.116647021102962, -0.05647073395921065, -16.09307052113727, -20.421187296830762, 5.446325344348953, 0.03725467994809151, -1.625609040260315, -1.9999033212661743, -1.1056345701217651, 1.602074146270752, 1.4738940000534058
0.6644972338131896, -0.15018910657882545, 0.4078578756335204, 0.21399203601168554, -3.116355090764487, -0.05673589365187538, -15.763096728544555, -19.37860703229422, 4.988436464275553, 0.029992837458848953, -1.630214810371399, -1.9954019784927368, -1.1056267023086548, 1.6020619869232178, 1.461409568786621
0.6663660392272623, -0.15555632526025168, 0.40761088173399257, 0.22332807565123275, -3.1160175254478806, -0.057034217271548636, -14.925081205970764, -21.558062867489316, 4.644884306252621, 0.022724758833646774, -1.6348310708999634, -1.9908560514450073, -1.1056102514266968, 1.6020660400390625, 1.4487169981002808
0.6676526943329208, -0.15901091532480874, 0.4074180809368374, 0.2300741350772834, -3.1157142131802655, -0.05725666610224761, -15.398831659924573, -21.455710184377036, 4.992612885582326, 0.01743633672595024, -1.6382533311843872, -1.9874634742736816, -1.105594277381897, 1.6020053625106812, 1.439247965812683
0.6689080627407497, -0.16251423864886838, 0.407274168243533, 0.23709588850226576, -3.1154992165263513, -0.05743913763498204, -14.284687422314136, -20.924548320316124, 4.9737252248867705, 0.011287861503660679, -1.6423183679580688, -1.983461618423462, -1.1055903434753418, 1.6020457744598389, 1.4279006719589233
0.6705085351429416, -0.1672461537239644, 0.40695704771521424, 0.24633607256104248, -3.1149815867087, -0.05764849910856677, -14.827493138679946, -19.392421613489773, 4.701245954395749, 0.004200652241706848, -1.6469603776931763, -1.9789923429489136, -1.1055824756622314, 1.60199773311615, 1.4148848056793213
0.6723143287795518, -0.1725169067420398, 0.4066643159590734, 0.2571492218593694, -3.1144459652400847, -0.05798688627620092, -14.555596402194142, -20.193985024303856, 4.494727474712751, -0.0036519209388643503, -1.652147889137268, -1.9738705158233643, -1.105594277381897, 1.602017879486084, 1.400100588798523
0.6735009694797127, -0.1760477305580941, 0.4064521709812751, 0.26429127567883, -3.114051232224376, -0.05816633614334627, -14.283739567139847, -21.663142324357267, 4.337106598787486, -0.008875194936990738, -1.6556216478347778, -1.970449447631836, -1.105614185333252, 1.6020021438598633, 1.390297532081604
0.6748560127493513, -0.18009986437629183, 0.4062399059124614, 0.2726645920822281, -3.1136555818231426, -0.0583042975509749, -14.905591045813567, -21.743453031856628, 4.349614898744411, -0.014832321554422379, -1.6595827341079712, -1.9664934873580933, -1.1055983304977417, 1.60194993019104, 1.3789775371551514
0.6764251451230525, -0.18471922096551496, 0.40599934234711, 0.28247099671071846, -3.113185229089104, -0.058483877226971376, -13.80832565157894, -21.493057897057028, 4.279579231620994, -0.02158481255173683, -1.6641603708267212, -1.96189546585083, -1.1055784225463867, 1.6019103527069092, 1.3659456968307495
0.6779597186440041, -0.1894019505103236, 0.4057785329455887, 0.29202891528486963, -3.1127627153557635, -0.05843145577623032, -14.517412942830363, -20.509259412093726, 4.2461866722202375, -0.02836400642991066, -1.6687108278274536, -1.9572786092758179, -1.1055347919464111, 1.6017343997955322, 1.3530523777008057
0.6794358679967963, -0.1940111483442421, 0.40561614957901265, 0.3017338180972939, -3.112307906058637, -0.058473085378390695, -14.789711800146497, -20.636508631450866, 4.161982573526322, -0.03500634804368019, -1.6731220483779907, -1.9526804685592651, -1.1056022644042969, 1.6016267538070679, 1.3402022123336792
0.6805189454868232, -0.197509942394959, 0.40549425402470024, 0.30898751544675956, -3.1120283714280754, -0.058530664301236754, -12.709782490254781, -21.51908121444805, 3.241127348112521, -0.0400274433195591, -1.676425576210022, -1.94923996925354, -1.1055744886398315, 1.6015760898590088, 1.3305469751358032
0.6818237600780519, -0.20148775867841595, 0.4053868394525736, 0.31735659461850085, -3.1116604987601946, -0.05805097762136972, -12.923731519589433, -22.198295064658613, 3.275690308911976, -0.04564458504319191, -1.6802698373794556, -1.945154070854187, -1.1056022644042969, 1.6011760234832764, 1.3195855617523193
0.6833351237457234, -0.20604909185562065, 0.4052464326242969, 0.32691756853226783, -3.1112367762873947, -0.0573637136144221, -14.044857547695376, -22.13998809034722, 3.802361659207137, -0.052032772451639175, -1.6847330331802368, -1.9404276609420776, -1.1055784225463867, 1.600642204284668, 1.3070948123931885
0.6847895325862676, -0.2106157314197642, 0.40520857516018527, 0.33676489400045023, -3.110898242212863, -0.05636156405339899, -14.66651987831144, -20.906391702849874, 4.046201040566709, -0.057632748037576675, -1.6885186433792114, -1.9362951517105103, -1.1055545806884766, 1.6000075340270996, 1.2960578203201294
0.686251812489549, -0.21521075522236677, 0.4051912437306542, 0.34596864627980645, -3.1105675535673645, -0.05544473851710418, -13.495855625136038, -20.6545280807442, 3.4088806861283776, -0.06470329314470291, -1.69336998462677, -1.9308656454086304, -1.105594277381897, 1.5993009805679321, 1.2822914123535156
0.6877141334577715, -0.2197617719931405, 0.40526110154956263, 0.35520619858181307, -3.1104171162900327, -0.054819298788388045, -12.792071673362, -22.6392101124727, 3.6226591963235544, -0.07097751647233963, -1.6976381540298462, -1.9259604215621948, -1.1055983304977417, 1.5988950729370117, 1.270151138305664
0.6887960404040078, -0.22317611864340164, 0.4053259298213868, 0.3618249222002129, -3.1103331989842555, -0.05408287507473065, -11.565372423282142, -22.070908922968172, 3.7653408636571974, -0.07563383132219315, -1.7008134126663208, -1.9222826957702637, -1.1055784225463867, 1.5984362363815308, 1.2612977027893066
0.6900718180631308, -0.22714658789807668, 0.405423060548938, 0.3693079424822672, -3.1102435366554535, -0.052817347572269316, -12.086424955181146, -22.29016247980555, 3.5188809389486186, -0.08017665892839432, -1.7039748430252075, -1.9185580015182495, -1.1055387258529663, 1.5977495908737183, 1.2526518106460571
0.6913263855461322, -0.23112120005439618, 0.40561173124991, 0.3770475419047342, -3.1101796176967254, -0.05114672382936736, -12.708215986851895, -22.54244217849465, 4.24787687750374, -0.0862620547413826, -1.7081166505813599, -1.9135639667510986, -1.1055346727371216, 1.5966532230377197, 1.241034746170044
0.6921910145697902, -0.23404692367574967, 0.4056540782458079, 0.38210331283877097, -3.109987211277167, -0.04984020242907115, -12.394586478846177, -21.887110911259136, 4.059953483983103, -0.09085161238908768, -1.7112981081008911, -1.909762978553772, -1.1055744886398315, 1.5957276821136475, 1.2326123714447021
0.6934566638462366, -0.23805904776643877, 0.40593760074617813, 0.3889690791471972, -3.110068787615143, -0.04765512653954304, -12.144187119793541, -22.504454613404942, 4.314250287206201, -0.09536487609148026, -1.7143479585647583, -1.9059388637542725, -1.1055625677108765, 1.5945508480072021, 1.224400281906128
0.6948911443274323, -0.2427245470936822, 0.4062238873191278, 0.39657590301157386, -3.110010175528311, -0.04486936246786187, -12.473010212398178, -21.702201892435504, 5.1626012713478335, -0.10139495879411697, -1.718504548072815, -1.9007118940353394, -1.10563063621521, 1.5928881168365479, 1.2135710716247559
0.6963043000011762, -0.24731784128140283, 0.406636339898926, 0.40427496216617925, -3.110048314568765, -0.04119215327223809, -13.069123455156273, -21.99682971484027, 5.137035548595456, -0.10640937834978104, -1.7220193147659302, -1.8961323499679565, -1.1055426597595215, 1.591025471687317, 1.2041499614715576
0.6977178559446614, -0.2519611928278442, 0.4069483199188191, 0.411341989830474, -3.1098689655458704, -0.03698068924293297, -13.030222827314367, -21.526359691570818, 4.457255565134545, -0.11225015670061111, -1.7260609865188599, -1.8909257650375366, -1.1055666208267212, 1.588499665260315, 1.193892002105713
0.699123382740975, -0.2566832515024758, 0.40734794556894827, 0.41791566648279627, -3.109726541275712, -0.032072761140133306, -12.987548738480044, -21.260221553911506, 5.102380252256343, -0.11804086714982986, -1.7301822900772095, -1.8855981826782227, -1.105510950088501, 1.585696816444397, 1.184015154838562
0.7005341587250826, -0.2614229815901592, 0.4078312754999825, 0.4239713860001175, -3.109706937913244, -0.026820986893873133, -12.762296400067514, -20.711206727329365, 5.988993938352678, -0.12382061034440994, -1.7340871095657349, -1.8801791667938232, -1.1055387258529663, 1.5824689865112305, 1.1743438243865967
0.7019430819730496, -0.26608039649455073, 0.4083109450182346, 0.4293489577703893, -3.1095631568465834, -0.02089168147196481, -11.798904919401165, -20.954697506194737, 5.4209998740597, -0.12933379411697388, -1.7381521463394165, -1.8747721910476685, -1.105582356452942, 1.5791033506393433, 1.165365219116211
0.7030159276101783, -0.2695138911655821, 0.40866921567263864, 0.4332092990716094, -3.10937211324237, -0.016306122634582785, -11.245744500240743, -20.759228118429814, 5.635076988447987, -0.13338500261306763, -1.7411824464797974, -1.8707640171051025, -1.1055506467819214, 1.5762827396392822, 1.1589305400848389
0.7044282739965111, -0.27408766217039554, 0.4092360586002868, 0.438034918338153, -3.109262235197699, -0.00985377301629484, -11.640131657835871, -20.502879755395682, 6.426562522090926, -0.13866645097732544, -1.7451077699661255, -1.8652729988098145, -1.1055784225463867, 1.5724143981933594, 1.150508165359497
0.7058039161309588, -0.27864573010260313, 0.40973929306170653, 0.4422596993931847, -3.1089682145403867, -0.003028203488973784, -12.064910896837995, -20.520404571721837, 6.395693885675329, -0.14395171403884888, -1.748937726020813, -1.859858512878418, -1.1055506467819214, 1.56833815574646, 1.1425213813781738
0.7069554012577443, -0.28270798735491803, 0.4102862433799705, 0.4451146807507494, -3.108888643057953, 0.0032698867252316795, -12.535381537684682, -19.970666378607266, 6.358244148501819, -0.149189293384552, -1.7527867555618286, -1.8544193506240845, -1.1055426597595215, 1.564079761505127, 1.1351510286331177
0.7080826849474605, -0.28667772042348144, 0.4107740918374185, 0.4476864376577498, -3.108561306743268, 0.009968339423779903, -12.334286964636288, -19.255990704731506, 7.256312772991797, -0.15361052751541138, -1.7560817003250122, -1.8497602939605713, -1.1055864095687866, 1.5600124597549438, 1.1290720701217651
0.709417527647949, -0.29112130410915715, 0.41131364838374496, 0.45000656882635465, -3.108158901898913, 0.018063778527018307, -12.313028476798307, -19.190921829803187, 7.1875107248539605, -0.15790873765945435, -1.7594271898269653, -1.8450394868850708, -1.1055665016174316, 1.5556422472000122, 1.1234298944473267
0.7105622003595287, -0.2950348012883975, 0.4118519235760407, 0.45136753336663854, -3.1078058668246196, 0.025573828657826165, -12.431389371210253, -19.184139786738207, 7.311589374370043, -0.16266709566116333, -1.7631527185440063, -1.8397080898284912, -1.1056064367294312, 1.5505033731460571, 1.1175905466079712
0.7115800383997698, -0.29828931270098397, 0.41221200419520326, 0.4520434556018844, -3.1073856211681474, 0.03218922850496308, -12.021920680449847, -19.646106807514553, 7.616177269425317, -0.1660946011543274, -1.766041874885559, -1.8357257843017578, -1.1055903434753418, 1.5464239120483398, 1.1136761903762817
0.7129049485313708, -0.30253016668135346, 0.41283676429707467, 0.45214073404639427, -3.10704139461638, 0.04127172234800302, -12.081745541928438, -18.753909285974274, 7.531207426354676, -0.16995936632156372, -1.7692419290542603, -1.8310898542404175, -1.1055704355239868, 1.541612148284912, 1.109604835510254
0.7142302169360923, -0.3066293856891777, 0.41337078197937843, 0.45121191373066843, -3.1065821767465764, 0.05045389036518387, -11.864555149818854, -18.315911751685643, 7.5920103812034245, -0.17467385530471802, -1.773335576057434, -1.8252629041671753, -1.1055585145950317, 1.5351966619491577, 1.1054608821868896
0.7157238953518834, -0.3111334143339786, 0.414002300128159, 0.4494883978617992, -3.106016728080851, 0.06129505230764228, -12.438114398019865, -18.30586349041657, 7.969072707642023, -0.17869073152542114, -1.7769943475723267, -1.8201231956481934, -1.1055784225463867, 1.5292036533355713, 1.1023175716400146
0.7170802587124255, -0.3150288340487257, 0.41432573952785756, 0.4468952401870657, -3.1051865827575167, 0.0711994307253978, -12.230966713367762, -17.30112165158635, 8.248402297131541, -0.18247872591018677, -1.7806440591812134, -1.815079927444458, -1.1055465936660767, 1.5230228900909424, 1.0999209880828857
0.718001792403749, -0.31789541764531276, 0.4147487638942587, 0.4447237660553794, -3.104685591624039, 0.07886353282563749, -12.301468163087923, -18.010964492301333, 7.860374444156179, -0.18564444780349731, -1.7836776971817017, -1.8108065128326416, -1.105606198310852, 1.5173805952072144, 1.0982264280319214
0.7191845485483123, -0.3210845556827898, 0.4151539998262715, 0.441782302124932, -3.1041147218062144, 0.08764041265721018, -11.294520041983326, -17.87107620188377, 8.032379929760552, -0.18820077180862427, -1.7864028215408325, -1.8071388006210327, -1.1056022644042969, 1.5126171112060547, 1.0969914197921753
0.7206913987598053, -0.3250426666440849, 0.4155657511148124, 0.4376555001882047, -3.1032271125946784, 0.09882776121197057, -11.091418119633536, -17.659913407682335, 8.315704906273039, -0.1918829083442688, -1.7902132272720337, -1.8017194271087646, -1.105582356452942, 1.505540370941162, 1.0958888530731201
0.7217927343336463, -0.32801369121326984, 0.4159292287189189, 0.43401322128059144, -3.102523579901852, 0.10765776813670011, -11.26444495532443, -17.55591372831767, 8.080016989620262, -0.19489651918411255, -1.7936407327651978, -1.7971036434173584, -1.105594277381897, 1.4991297721862793, 1.0952976942062378
0.722734114424834, -0.3304292913570739, 0.41621964507209025, 0.430723263647012, -3.1018979218378013, 0.11517681878266037, -11.430972926237175, -17.717958012434945, 8.419912859567207, -0.19700747728347778, -1.7960683107376099, -1.7937599420547485, -1.1055983304977417, 1.494329810142517, 1.0951380729675293
0.7236816332416196, -0.3327484951959495, 0.4163680535901018, 0.4276319150687409, -3.100969988023155, 0.12271330640836339, -10.883058229725897, -19.065328127425833, 7.848172598951907, -0.19897156953811646, -1.7985683679580688, -1.7905477285385132, -1.1056221723556519, 1.4894288778305054, 1.0949780941009521
0.72481513760917, -0.3353328902649542, 0.4166903633804242, 0.42431874218352916, -3.1000894194423037, 0.1313781460895576, -10.015015925183727, -16.920775820825003, 7.796888408099674, -0.20111781358718872, -1.8013335466384888, -1.7867521047592163, -1.10562264919281, 1.483877420425415, 1.094758152961731
0.7257820760771455, -0.3373793151983921, 0.416834280397846, 0.4219216032078581, -3.0991952653784267, 0.13824823367648106, -9.941056798938043, -17.66642477692782, 7.815546077911801, -0.20278388261795044, -1.8037153482437134, -1.7836897373199463, -1.105606198310852, 1.4794241189956665, 1.0944585800170898
0.7267353054927014, -0.3394049100145693, 0.41695822058683424, 0.4196394760144585, -3.0983001518133597, 0.14489166809320905, -9.262138876996975, -16.78546400563436, 7.599647897633166, -0.2044423222541809, -1.806089997291565, -1.7806665897369385, -1.1055744886398315, 1.475114107131958, 1.0940937995910645
0.7278302433563539, -0.3415596648419509, 0.4170811672655932, 0.41736855455428024, -3.0973200187875003, 0.15182077095661603, -8.89501782380828, -17.287998314541973, 7.596343045897698, -0.20619088411331177, -1.80874502658844, -1.7772959470748901, -1.1055784225463867, 1.47061288356781, 1.0936189889907837
0.7287562350228596, -0.3433886777232834, 0.4172046765581555, 0.41519506716655186, -3.096692248247986, 0.15722250841292784, -9.368675750412564, -16.748170991319085, 7.676211256575914, -0.2077210545539856, -1.8109914064407349, -1.7744084596633911, -1.1055665016174316, 1.4671374559402466, 1.093342900276184
0.7296915118628707, -0.34488780940243574, 0.4172227694989425, 0.41342336986384914, -3.0960431672099826, 0.16174097748595462, -8.649024259832748, -17.09447588658503, 7.9731737711765165, -0.208909809589386, -1.8131457567214966, -1.77177894115448, -1.1055983304977417, 1.4641884565353394, 1.0931668281555176
0.7306140264160876, -0.3463410682421973, 0.4172015002594541, 0.4113638738600292, -3.0956717876933126, 0.16534974515856976, -8.428333094906774, -16.734453240866475, 7.711068065315813, -0.2101314663887024, -1.8153029680252075, -1.769200086593628, -1.1055943965911865, 1.4618581533432007, 1.0931710004806519
0.7317096528429796, -0.3478213720031904, 0.41718331784288654, 0.40928566583060466, -3.095547186450036, 0.16840330484931698, -8.640415259101772, -16.93980304822843, 7.241930254198598, -0.21130162477493286, -1.8173209428787231, -1.7666765451431274, -1.1056221723556519, 1.4601867198944092, 1.093123435974121
0.732889169489637, -0.3493294956517116, 0.4171500031553441, 0.407000919949667, -3.0959575666886097, 0.16974798263213817, -7.119430839705744, -15.474096280305975, 7.506913057342061, -0.2126792073249817, -1.8199578523635864, -1.7634986639022827, -1.105614185333252, 1.4591615200042725, 1.0931510925292969
0.7338726424467225, -0.35036902184362456, 0.41703273725398493, 0.40537785014103794, -3.0965338233061153, 0.16948904830215328, -6.646060528227522, -16.395135610847476, 7.79711131699885, -0.2137492299079895, -1.8221546411514282, -1.7609914541244507, -1.1056022644042969, 1.4593970775604248, 1.0931273698806763
0.7346187286551684, -0.35101249246834987, 0.41690753919523826, 0.4044278158450039, -3.096877076213758, 0.1691531210938135, -7.028577492804817, -15.111553921302207, 7.8255513174396025, -0.21453887224197388, -1.824010968208313, -1.7589246034622192, -1.1056426763534546, 1.4597920179367065, 1.0931552648544312
0.7355808224182918, -0.3519061279800791, 0.4167476873808129, 0.40312625696510623, -3.0974656184153204, 0.16878988759600147, -7.104350559831754, -15.25410162786599, 7.161537011176684, -0.21534281969070435, -1.8257838487625122, -1.7569736242294312, -1.1055903434753418, 1.460067629814148, 1.0930908918380737
0.7364381978003789, -0.3526251113990253, 0.4164349204794887, 0.4020709652223278, -3.097501357888121, 0.16861467656478632, -7.085513014900181, -12.979773358352041, 8.049411471979527, -0.21609622240066528, -1.8279482126235962, -1.754767656326294, -1.1056307554244995, 1.4602391719818115, 1.0931352376937866
0.7374406835416826, -0.35337862280351967, 0.4160900324677358, 0.4010512897591924, -3.097621702295585, 0.16854398817663377, -6.801442611030423, -11.651982988305368, 6.640657753937523, -0.2167556881904602, -1.8300901651382446, -1.7526447772979736, -1.1056063175201416, 1.4602830410003662, 1.0931313037872314
0.738455807723713, -0.3538838467675801, 0.41563262550377905, 0.40055939016079184, -3.097475350851537, 0.16838378277626204, -6.477912216262306, -10.884432164185595, 6.9397094283834955, -0.21710234880447388, -1.8321806192398071, -1.7507498264312744, -1.1056267023086548, 1.4603028297424316, 1.0930949449539185
0.7390729671164696, -0.35404507547629466, 0.41527877057291995, 0.4004587579516875, -3.0972794059373108, 0.16818300691466925, -5.015321116529556, -9.685049055069525, 5.7089777936993755, -0.2171381115913391, -1.8332635164260864, -1.749857783317566, -1.1056102514266968, 1.4603593349456787, 1.093123435974121
0.7398900701362489, -0.3541688170788803, 0.41465949378709077, 0.40044208251273566, -3.0968485659225435, 0.16768641604626308, -3.44137764347893, -8.40469025973618, 5.63065978890585, -0.21717482805252075, -1.834898591041565, -1.7487149238586426, -1.1055903434753418, 1.4604549407958984, 1.0931313037872314
0.7402982991808641, -0.3542213510014437, 0.41425276545631207, 0.40051894738627697, -3.0965602929152, 0.16724287117818187, -3.6984274000551065, -6.252040312926702, 5.797473448888278, -0.21706277132034302, -1.8360496759414673, -1.7480757236480713, -1.1055903434753418, 1.4606270790100098, 1.0931471586227417
0.7408835665992728, -0.35421389845927564, 0.41358781988077953, 0.40072424314266597, -3.0960443716152577, 0.16632988147724975, -5.576965480376869, -3.568632796142141, 6.006161868414909, -0.21703892946243286, -1.8372389078140259, -1.7474675178527832, -1.1056466102600098, 1.460837483406067, 1.0931036472320557
0.7412607538671032, -0.35424186185237777, 0.41300543822821295, 0.40072587756220507, -3.0955168483756745, 0.16565445282277225, -4.943070556497414, -1.5626651441534987, 4.967756432198613, -0.2169068455696106, -1.8384166955947876, -1.7470479011535645, -1.10562264919281, 1.4611772298812866, 1.093163013458252
0.7415430095695671, -0.3542312296048499, 0.41213870399190133, 0.40074432493692824, -3.094691160581684, 0.16449800652957264, -5.205406642660134, 0.3775524655032556, 3.4931543060860317, -0.21687060594558716, -1.83942711353302, -1.7470002174377441, -1.1056185960769653, 1.461492657661438, 1.093163013458252
0.7416989042263609, -0.354172781414715, 0.4115784593896463, 0.4009821689335833, -3.094108710079426, 0.16375451505389946, -5.194726388598605, 1.7125621373310995, 4.852419834122177, -0.21679097414016724, -1.8401623964309692, -1.747084140777588, -1.1056185960769653, 1.4617805480957031, 1.0930989980697632
0.7417622015616047, -0.3541581641869853, 0.4110931273611096, 0.4009280740226707, -3.0936282111440914, 0.16293531192486224, -3.0545368272432385, 3.7303848414810497, 5.189653965472782, -0.21673136949539185, -1.8407684564590454, -1.7472363710403442, -1.1056623458862305, 1.4621756076812744, 1.0931472778320312
0.7419579885169716, -0.354046523600064, 0.4105530794376586, 0.4010465957281876, -3.0933361124297307, 0.16149692117596995, -1.1591322629241763, 6.9150799938803, 3.212396541000212, -0.21667081117630005, -1.841227650642395, -1.7472397089004517, -1.1056424379348755, 1.4627583026885986, 1.093103051185608
0.7420389922222457, -0.35394183693147935, 0.41034724533832767, 0.4011545331647745, -3.0932897662088616, 0.1607505108982221, -2.1312049088645, 8.55597499811261, 1.4553863908920945, -0.2166793942451477, -1.841495156288147, -1.747223973274231, -1.1056146621704102, 1.4632056951522827, 1.0931153297424316
0.7421313663781999, -0.35389268177535244, 0.41025033725000504, 0.4012521116089045, -3.093315098081376, 0.1602406984419637, -2.8484437061819206, 10.31028612374873, 0.2167374354891618, -0.2165873646736145, -1.8417187929153442, -1.747179627418518, -1.1056185960769653, 1.4635521173477173, 1.0931674242019653
0.7421723204595736, -0.3537261895413445, 0.41015411234359067, 0.4016494511510566, -3.093108870456019, 0.16011451506053076, -1.872105642065126, 11.931787910099375, -0.21771645479523616, -0.21637564897537231, -1.8417502641677856, -1.7472809553146362, -1.1056703329086304, 1.4635677337646484, 1.0931193828582764
0.7422964868926597, -0.35352754801468494, 0.4103411167896092, 0.4020398892857455, -3.0933688425893706, 0.16030463772541614, 0.06034639493454355, 12.12408634723128, -1.9429889512256242, -0.2161000370979309, -1.8416305780410767, -1.7471516132354736, -1.1055983304977417, 1.4635677337646484, 1.093151330947876
0.7423915565503406, -0.35333724051010706, 0.410445151105162, 0.40253607053400436, -3.0934648070922712, 0.16042945866673727, 0.4713054035234473, 13.090512417662955, -3.709301394749798, -0.21591264009475708, -1.8415271043777466, -1.747099757194519, -1.1056348085403442, 1.463547706604004, 1.0931190252304077
0.7424226581882497, -0.3532218065625018, 0.41056373351246034, 0.40271431007250874, -3.093573354314447, 0.16048856999446165, 0.08105946572481287, 13.987276909394227, -4.198912624180961, -0.2156408429145813, -1.8414031267166138, -1.747107982635498, -1.1056185960769653, 1.4635796546936035, 1.0931591987609863
0.7425394151342776, -0.3529098207227722, 0.4105427105656665, 0.4033044445340846, -3.0934743893143692, 0.16042024043892145, -1.161018572205303, 16.469072768416673, -4.355736145805151, -0.2152298092842102, -1.8413678407669067, -1.747084140777588, -1.1056102514266968, 1.463604211807251, 1.0931272506713867
0.7426417697018427, -0.35260727701587785, 0.4106306300571344, 0.4039511482940288, -3.0934955263427133, 0.1605076577180554, -0.3776398137006207, 17.778590973200405, -4.266743841730454, -0.21488648653030396, -1.8412672281265259, -1.7471482753753662, -1.1056268215179443, 1.4635756015777588, 1.0931432247161865
0.7429070523214744, -0.35211036005999585, 0.4106424516503733, 0.4050581132879412, -3.093436531005151, 0.1605310256024037, 0.6062270054926918, 18.312103327529154, -4.552789755789353, -0.2142990231513977, -1.841283917427063, -1.7471203804016113, -1.1056060791015625, 1.4635632038116455, 1.0931551456451416
0.7430714884478983, -0.35171439028138135, 0.4106167035796193, 0.40590027837784426, -3.0932871317985247, 0.16050602229616523, 1.8907337087724223, 18.104654180051035, -4.351048701403945, -0.21368390321731567, -1.8412877321243286, -1.7471442222595215, -1.1056268215179443, 1.46358323097229, 1.0930904150009155
0.7433928562082295, -0.351061970789206, 0.4106298604905203, 0.40718310035037375, -3.0932229203846147, 0.16042578586818332, 2.640688335146413, 18.810306377598938, -3.9145742118938647, -0.21281367540359497, -1.8412963151931763, -1.7471121549606323, -1.10562264919281, 1.4636598825454712, 1.0931391716003418
0.7438951501807402, -0.34993358680964887, 0.4105448712980998, 0.40948593476292094, -3.0928593875134447, 0.16037199546499264, 3.807621247813433, 21.570376088426997, -3.4738636284734876, -0.21147948503494263, -1.8412514925003052, -1.7471680641174316, -1.1056225299835205, 1.4635995626449585, 1.093163013458252
0.7444332109388305, -0.34877784307537846, 0.410544606393905, 0.4118268089257488, -3.0926460784224914, 0.16032568501892863, 4.521310007289806, 23.87578038584545, -3.7408810779766335, -0.20975857973098755, -1.841323971748352, -1.747204303741455, -1.1056544780731201, 1.4637041091918945, 1.093203067779541
0.7448466515864365, -0.3478219378575082, 0.4105204967828152, 0.413854509317754, -3.092401493030425, 0.16026204557052492, 5.982191146447206, 24.45717317291296, -3.6790685957100537, -0.20848876237869263, -1.841300129890442, -1.7472684383392334, -1.1056702136993408, 1.4637397527694702, 1.0931670665740967
0.7453468268417855, -0.34668510122358714, 0.4106010781792442, 0.41611177951648304, -3.092325614281642, 0.16018200918613382, 7.503472765267438, 25.16892378755411, -3.4767628016964705, -0.206987202167511, -1.8411957025527954, -1.7472726106643677, -1.105662226676941, 1.4638547897338867, 1.0932235717773438
0.746024880815478, -0.345134142630024, 0.41057024626139094, 0.41922056283154385, -3.0920703110247323, 0.1597385507710942, 8.726876635463304, 24.832831071827098, -3.389750721355295, -0.2049611210823059, -1.8411751985549927, -1.7473359107971191, -1.1056898832321167, 1.4641553163528442, 1.093259572982788
0.7468427022320144, -0.34316474792127344, 0.41059497921724597, 0.4232194970247323, -3.0919247170974202, 0.15882917287464351, 11.554896052619512, 25.939469599076485, -3.09953679326306, -0.20275288820266724, -1.8411394357681274, -1.7474528551101685, -1.1056941747665405, 1.4646815061569214, 1.0931869745254517
0.7476478909433346, -0.3411691015387755, 0.41050956464634253, 0.42705612231810797, -3.0917571987513885, 0.1574162771340009, 13.548367780614113, 27.61236754448893, -2.8588477279590867, -0.20037204027175903, -1.8410240411758423, -1.7476569414138794, -1.105762243270874, 1.4656078815460205, 1.0932824611663818
0.7484320781395071, -0.3390735607858516, 0.41053424700016733, 0.43108516690462073, -3.0917377809877618, 0.15595543683718294, 15.635837808783888, 27.64438256722489, -3.089861412784748, -0.19731837511062622, -1.840783715248108, -1.7478197813034058, -1.1057785749435425, 1.4667694568634033, 1.0933747291564941
0.7495451220907393, -0.3360367402531185, 0.4104322178240716, 0.43701359418186253, -3.0914932879722667, 0.15390211116125216, 17.897222628746242, 26.991828085789688, -3.185924231839853, -0.19400960206985474, -1.8406168222427368, -1.7482444047927856, -1.1057661771774292, 1.4680020809173584, 1.0933866500854492
0.7503635607286806, -0.3335505870560522, 0.4104265380837002, 0.4417931717297392, -3.091204850625853, 0.15252918872635185, 18.947119423371706, 25.863975328924422, -2.809663390209451, -0.19091254472732544, -1.840208649635315, -1.7486392259597778, -1.1058143377304077, 1.4689477682113647, 1.093410611152649
0.7511837081723592, -0.33057826431085674, 0.4103475149706686, 0.44748854616537387, -3.0904982316699443, 0.15121053285986621, 20.042412402507313, 25.165853786669782, -2.1780091192177182, -0.18715554475784302, -1.8396536111831665, -1.749436616897583, -1.1060106754302979, 1.46976637840271, 1.0935349464416504
0.751707400764483, -0.3282938446457478, 0.4102988697540763, 0.45182386791972534, -3.0900093951635217, 0.15028384997902738, 19.406957737322607, 25.946585964193513, -2.3036180083200986, -0.18435269594192505, -1.8391515016555786, -1.7501156330108643, -1.106014370918274, 1.4703446626663208, 1.0936388969421387
0.752220266481609, -0.3251767633975434, 0.41009496557616676, 0.4576552598530762, -3.0890720599012607, 0.14926840393147361, 20.569341215963647, 26.283242525830012, -2.804714328824497, -0.1804550290107727, -1.8382049798965454, -1.75161874294281, -1.1060422658920288, 1.4708911180496216, 1.0937633514404297
0.7524356651489146, -0.3228772165111694, 0.40982600202114056, 0.4619798341712784, -3.088056528198402, 0.14872204978355966, 21.124462639662287, 25.764936337082815, -4.166435162937852, -0.177568256855011, -1.8373781442642212, -1.7530393600463867, -1.105986475944519, 1.471087098121643, 1.0937944650650024
0.7525404906181963, -0.32012170257934264, 0.40947142637716255, 0.4671437580042525, -3.0865512032739284, 0.1483224506818657, 21.460481465850858, 25.705147756832503, -3.5885312601605994, -0.17416077852249146, -1.8361397981643677, -1.75499427318573, -1.106058120727539, 1.4711309671401978, 1.0938947200775146
0.7524623873233167, -0.3169977490919197, 0.40910824831466136, 0.47284185541028934, -3.0849751458017867, 0.14781312700019197, 21.069447242127218, 26.30102690081015, -3.503614495554618, -0.17023593187332153, -1.8345667123794556, -1.757589340209961, -1.1060338020324707, 1.4710748195648193, 1.0939865112304688
0.7520478860162465, -0.31343353128947493, 0.4085501365703578, 0.4792877833484065, -3.0828634701040083, 0.1472420148697518, 21.149554934835503, 26.394406941710663, -5.864674248524478, -0.16594678163528442, -1.8324381113052368, -1.7611229419708252, -1.106026291847229, 1.4711227416992188, 1.0941548347473145
0.7516574088198548, -0.3110441298010762, 0.4082621614694648, 0.48345851130139794, -3.081559844595725, 0.1467326062311404, 20.428892133720463, 27.223457937336036, -5.236543963072227, -0.16301900148391724, -1.8308449983596802, -1.763669490814209, -1.1060140132904053, 1.4711588621139526, 1.0942425727844238
0.7510789997108918, -0.30861651866993717, 0.4077925037581631, 0.4875160829068212, -3.0799679357007035, 0.1461931929469303, 17.94243959416152, 25.563882890365072, -5.831443370007296, -0.16016560792922974, -1.8290363550186157, -1.766548991203308, -1.1060224771499634, 1.4711105823516846, 1.0944745540618896
0.750405447221013, -0.30619048208657185, 0.4074435904965257, 0.4916433388044325, -3.0784994690559864, 0.14567243097120527, 18.275607994720655, 26.081085561094426, -5.917895452570347, -0.15729457139968872, -1.8271161317825317, -1.7697001695632935, -1.1059784889221191, 1.4711344242095947, 1.0946745872497559
0.7494658167759458, -0.30334340248518743, 0.4069887282512335, 0.4962482654540557, -3.076689322507781, 0.14500141347313703, 17.044406505116946, 25.066453435913587, -8.21910972590603, -0.1538589596748352, -1.824583649635315, -1.773533821105957, -1.1059702634811401, 1.471130609512329, 1.0949982404708862
0.7485567740923368, -0.30084251059828315, 0.40646917492105494, 0.5001648070027039, -3.0749315779401707, 0.14437944530158947, 15.690714777510674, 25.127266198739388, -6.483699882612265, -0.15095311403274536, -1.8222800493240356, -1.7770330905914307, -1.1060186624526978, 1.4711265563964844, 1.0953696966171265
0.7474980696237714, -0.2978617917376149, 0.4060625151433054, 0.504528017103841, -3.0732242703513406, 0.14365810245390245, 14.179900399452245, 26.742286916650773, -6.457458433795626, -0.14739733934402466, -1.819557785987854, -1.7812305688858032, -1.1059905290603638, 1.4712145328521729, 1.096014142036438
0.7464968214033519, -0.2952959620772958, 0.4057408777170224, 0.5080016751406691, -3.0718525961797085, 0.14306151254879734, 13.781837986009661, 26.51805476963212, -8.747608798257872, -0.14385062456130981, -1.8165403604507446, -1.78548002243042, -1.1059263944625854, 1.4713218212127686, 1.096856951713562
0.7452950455628071, -0.2923346416539139, 0.4053127706033469, 0.5118761133296489, -3.07015740803187, 0.14212494087627217, 13.711161308828038, 27.548577995149678, -7.886872218981622, -0.14034396409988403, -1.813592553138733, -1.7897818088531494, -1.1059868335723877, 1.4715335369110107, 1.0978010892868042
0.7437206400267719, -0.2884184219845166, 0.4050271045489047, 0.5167088514527549, -3.06850592972091, 0.14094355642418863, 12.673815855884161, 25.963043057386344, -8.351003278791403, -0.13620024919509888, -1.8100138902664185, -1.7947255373001099, -1.10594642162323, 1.471848726272583, 1.0991204977035522
0.7424233819684704, -0.28532862474695675, 0.4048449783472923, 0.5202335082245444, -3.0673342510190906, 0.13990366505164537, 11.2249125500884, 25.820718534145843, -8.989731284741614, -0.1320379376411438, -1.806139588356018, -1.7996909618377686, -1.1059021949768066, 1.4724040031433105, 1.1006300449371338
0.7411871195373028, -0.28208892835019045, 0.40493011057493333, 0.5234201657232868, -3.0667350704571392, 0.13848540449848173, 11.630429547486246, 25.961333306619014, -8.679468406506528, -0.12821322679519653, -1.8025919198989868, -1.803888201713562, -1.1058982610702515, 1.473238468170166, 1.1024045944213867
0.7398568569852647, -0.2782597454471753, 0.4051494036555199, 0.5261221729747388, -3.066489774314951, 0.13673334098344, 10.572601469221325, 26.851712951624787, -7.612868020200686, -0.12366659194231033, -1.7984977960586548, -1.8085211515426636, -1.1059021949768066, 1.474363088607788, 1.1052416563034058
0.738769381206309, -0.2747746522562292, 0.40547242698157976, 0.5281967241747014, -3.0666352393715517, 0.1348955479303402, 11.125151293938982, 26.863819160689708, -7.348872544836931, -0.12011272460222244, -1.7953182458877563, -1.8118535280227661, -1.1058696508407593, 1.475461483001709, 1.107658863067627
0.73761883698552, -0.27061135136101533, 0.40610564511055575, 0.5295062469834267, -3.0675763242971827, 0.13237925139716297, 11.156441000605968, 25.836744054954238, -7.6654207717695275, -0.11526805907487869, -1.7911006212234497, -1.8160783052444458, -1.1059021949768066, 1.4773139953613281, 1.112317681312561
0.7367954350623509, -0.26750269874491206, 0.4067081663545211, 0.529393789115995, -3.0687618856703005, 0.1302498605889303, 11.358699318757072, 26.118077408402147, -6.096333142755987, -0.11151392012834549, -1.787868618965149, -1.8191639184951782, -1.1059424877166748, 1.4788569211959839, 1.115462303161621
0.7357215196129268, -0.2633098633188342, 0.4075913304052519, 0.5280226234137735, -3.0707988248426497, 0.1271386030653398, 11.758072564494626, 25.709813952372233, -5.932979894587616, -0.10656339675188065, -1.7833915948867798, -1.8230663537979126, -1.1059386730194092, 1.4812531471252441, 1.1214486360549927
0.734908779537626, -0.2600556244304764, 0.40825680775071854, 0.5260938602300133, -3.072577545277657, 0.12422289106317383, 12.469707436728195, 25.927363960307947, -5.073621095800228, -0.10143692046403885, -1.7788621187210083, -1.8268450498580933, -1.105934500694275, 1.484134554862976, 1.1283354759216309
0.7340300175457111, -0.2561180561113838, 0.4093013502156996, 0.5231865772195283, -3.0752508199088004, 0.12092294512579561, 12.564104819620894, 25.246144216374688, -5.052145438893377, -0.09745962172746658, -1.7754307985305786, -1.8296178579330444, -1.1059308052062988, 1.4863768815994263, 1.1341924667358398
0.733254131525514, -0.25262957750049286, 0.41009144391204067, 0.5198223312040737, -3.077568585556901, 0.11773653512014991, 13.809739106392263, 25.58392636977367, -3.641979220252562, -0.0933268740773201, -1.7719517946243286, -1.8324848413467407, -1.1059623956680298, 1.4887959957122803, 1.1406816244125366
0.7323546119432259, -0.24861239522487177, 0.4111104365347115, 0.5145767823237087, -3.080727933507368, 0.11379620129095977, 14.03060018155884, 26.19717572327495, -3.4623023792240923, -0.08921129256486893, -1.7685128450393677, -1.8352092504501343, -1.1059823036193848, 1.4913862943649292, 1.1478443145751953
0.731689004683477, -0.24566631040435244, 0.41177855259732443, 0.510108108753322, -3.0830470974482105, 0.11070372923585924, 14.535658102696333, 26.395620101951685, -2.721309417909193, -0.08510429412126541, -1.7649461030960083, -1.838078260421753, -1.1059786081314087, 1.494100570678711, 1.155578851699829
0.7307402664000554, -0.241535589718523, 0.4127728095342008, 0.5034353981666935, -3.0863922794340817, 0.1064862863241598, 14.614419979102147, 26.038147682742352, -1.915479578466332, -0.08019763976335526, -1.7607961893081665, -1.8413786888122559, -1.1059987545013428, 1.4972411394119263, 1.165024995803833
0.729493745419721, -0.23608321954958889, 0.41398104927156765, 0.4941036092244629, -3.09065808506139, 0.10094849606506621, 15.844649023348087, 25.814121096410474, -0.5278061028559523, -0.07443887740373611, -1.7560187578201294, -1.8452645540237427, -1.1059664487838745, 1.5008248090744019, 1.1764590740203857
0.7286136813759087, -0.23248164051675715, 0.41470821274634184, 0.4870512598834876, -3.0934608709210907, 0.09736956673764467, 15.63907048222875, 25.794241883306753, -1.2527630808854113, -0.06932765990495682, -1.751912236213684, -1.8487027883529663, -1.1060421466827393, 1.5038628578186035, 1.1869229078292847
0.7277005514157925, -0.22875696107740587, 0.4153655494611104, 0.4803449611812691, -3.096027612336371, 0.09383403881841743, 16.21697816276734, 24.531268391820344, -0.6074941860973829, -0.06479198485612869, -1.7483454942703247, -1.8518152236938477, -1.1060622930526733, 1.5063599348068237, 1.1959394216537476
0.7263859080201074, -0.22385757768948275, 0.416166316439871, 0.47101215620291764, -3.099258710985425, 0.08947486614085588, 15.40560449746049, 25.78690745978585, -0.37678557177268457, -0.058768097311258316, -1.7435599565505981, -1.8561068773269653, -1.1060824394226074, 1.5094035863876343, 1.2081631422042847
0.7249640369015143, -0.21888515942827144, 0.41680382459740506, 0.4619162806657904, -3.1020981733268864, 0.08531450266207807, 15.870701208254019, 26.222511931834738, -1.0597792492912752, -0.052584949880838394, -1.7387462854385376, -1.8606758117675781, -1.1060785055160522, 1.512238621711731, 1.2203596830368042
0.7237988481713155, -0.21517353071071338, 0.41726473533617753, 0.4550469657122836, -3.1040804957633226, 0.08241582390171247, 15.242904478194102, 26.163139002135203, -0.36824091324418506, -0.04792625084519386, -1.7350279092788696, -1.8642363548278809, -1.106110692024231, 1.5141922235488892, 1.2295427322387695
0.7222542944813329, -0.21004907559246846, 0.41775113135523095, 0.44674083015915683, -3.106332504654304, 0.07907266383927346, 15.279018688235043, 25.957327109035074, 0.10138052888672267, -0.041378799825906754, -1.7301260232925415, -1.8691200017929077, -1.1060785055160522, 1.5164169073104858, 1.2415465116500854
0.7205840861069644, -0.20489758753394077, 0.41796769642139475, 0.4385160570101355, -3.10802143949512, 0.07607738457678195, 15.416802653441287, 24.306130122986513, -0.7229074117801177, -0.03553897514939308, -1.7258821725845337, -1.8736728429794312, -1.106066346168518, 1.5180515050888062, 1.252102017402649
0.7193073868398184, -0.20094794601501, 0.41815437673183986, 0.43299194827522836, -3.109125361954851, 0.07430261397163598, 15.5255039066322, 23.872820249338606, -1.0029599094925412, -0.03034764900803566, -1.722190499305725, -1.8776367902755737, -1.1060982942581177, 1.5193120241165161, 1.2608895301818848
0.718033045718677, -0.19693137163490415, 0.4182235218195999, 0.42785284511650545, -3.1099773861386213, 0.07273206682191356, 14.173787989958605, 24.216792044349873, -0.16294520191698436, -0.02416307106614113, -1.7179466485977173, -1.8823206424713135, -1.1060703992843628, 1.5204073190689087, 1.271052360534668
0.7160746000319332, -0.19102504845058008, 0.4182625209244581, 0.420191492135449, -3.1109181067115625, 0.07156892628533626, 12.974739473571029, 24.69458121025227, -0.30740709872141014, -0.017067257314920425, -1.7132045030593872, -1.8876872062683105, -1.1060904264450073, 1.5210016965866089, 1.282546043395996
0.7143290268945803, -0.18567385363146163, 0.41826553735126065, 0.41420543061133797, -3.111580889717123, 0.07126265844741339, 12.933254919967542, 23.167793473336033, -1.9013271364347184, -0.009672466665506363, -1.7083512544631958, -1.893141746520996, -1.1060336828231812, 1.5212085247039795, 1.2938834428787231
0.7130146484172565, -0.18160628151303757, 0.4182087593612623, 0.4097719599031366, -3.1119451865147894, 0.07113218751271254, 14.062825565543278, 22.237258378026542, -1.8277054475014052, -0.004022900480777025, -1.704827904701233, -1.8972172737121582, -1.1061104536056519, 1.5212081670761108, 1.3024263381958008
0.7117249262033547, -0.1774456791432008, 0.41820597755730393, 0.40550734493253165, -3.112341965441059, 0.071008697895077, 13.850203272388596, 21.392779679373398, -1.4723758486680323, 0.0027788886800408363, -1.7006512880325317, -1.9019449949264526, -1.1061103343963623, 1.5212370157241821, 1.3123785257339478
0.710230404455222, -0.17259654376170708, 0.4181126811287763, 0.4009607245272022, -3.1126640839491757, 0.07087428387673088, 12.621880874395607, 22.957961615248646, -0.9319936878319771, 0.008566854521632195, -1.6971479654312134, -1.905941367149353, -1.106094479560852, 1.5212767124176025, 1.3207406997680664
0.7089643205127797, -0.1684213678284372, 0.41815783760933134, 0.3971192586120222, -3.113157905439149, 0.07091637515570755, 12.388327920851689, 24.07406571325519, -1.7901687865589189, 0.014527807012200356, -1.6937123537063599, -1.909885287284851, -1.1060985326766968, 1.521240472793579, 1.329190731048584
0.707560086052568, -0.16349706904618116, 0.4180979360093875, 0.3923088343005215, -3.113617577813563, 0.07080282276885534, 12.502575795933634, 22.423923597857407, -1.6243673025311054, 0.022559862583875656, -1.6891871690750122, -1.9149667024612427, -1.1060665845870972, 1.5212526321411133, 1.3406503200531006
0.7060108337606051, -0.15770321830594092, 0.4181636539564975, 0.3872225135850267, -3.114310807619102, 0.07081267777538723, 12.95227730938362, 20.89751677933543, -1.3241191588261658, 0.029831795021891594, -1.685242772102356, -1.9192734956741333, -1.106094479560852, 1.521228551864624, 1.350826621055603
0.7045094730699416, -0.15185439880447318, 0.4181852781331076, 0.3822206394123772, -3.114939696492687, 0.07076404310980064, 13.282908301619884, 20.526586438452384, -1.9302051320412452, 0.038162071257829666, -1.6808520555496216, -1.924038290977478, -1.1060622930526733, 1.5212366580963135, 1.3624162673950195
0.7030397916719534, -0.14603509713552854, 0.41829089637740247, 0.37665106840579027, -3.115790485366159, 0.07072472133121886, 12.374104996354426, 23.09926906379783, -1.1311463283983143, 0.046660907566547394, -1.6765166521072388, -1.9286752939224243, -1.1061104536056519, 1.5212963819503784, 1.3743836879730225
0.7019767227757313, -0.14162603729747852, 0.4183427291389504, 0.37247420887384436, -3.116410678311615, 0.07074523795904748, 12.314545042747003, 22.704866429624587, -1.1745794434434162, 0.05414343625307083, -1.6729108095169067, -1.932592749595642, -1.106082558631897, 1.5212805271148682, 1.3850421905517578
0.700450053802976, -0.1349772798136478, 0.4185520989582711, 0.3658787819974226, -3.117595321969957, 0.07075848202359637, 14.508163346357192, 21.015088748620666, -0.844044908515029, 0.0627601221203804, -1.6687790155410767, -1.9368568658828735, -1.1060863733291626, 1.521228551864624, 1.3974578380584717
0.6991476518731716, -0.1289877979884868, 0.418712693986443, 0.3596129666611003, -3.1187247776051383, 0.07081059454256823, 15.283465491971297, 21.118303961401317, -1.4497203978185884, 0.07144270092248917, -1.664742112159729, -1.940930724143982, -1.106090784072876, 1.5212883949279785, 1.4102928638458252
0.6978220967134766, -0.12313883816016004, 0.4189028035779356, 0.3527053951970039, -3.119935856780058, 0.07087820496974122, 15.968544400123342, 23.64848160826482, -0.27466034034934195, 0.08130409568548203, -1.6603394746780396, -1.945444107055664, -1.106094479560852, 1.521260142326355, 1.4249902963638306
0.6966861563427189, -0.11794069239353755, 0.41907434319584164, 0.34650680896017155, -3.121057923515874, 0.0708704530934525, 16.47440912842467, 21.724126459666635, -0.9803773865487077, 0.08790118247270584, -1.6574350595474243, -1.9483604431152344, -1.1061142683029175, 1.521280288696289, 1.4349969625473022
0.6956944656431961, -0.11345400490749147, 0.4192493858907314, 0.34123503924051685, -3.1220263211730885, 0.07090543941008152, 17.282221692263484, 20.872471597134783, -0.22117517546379162, 0.094573013484478, -1.6545101404190063, -1.95122492313385, -1.1061421632766724, 1.521300196647644, 1.4451419115066528
0.6946823007831399, -0.10897158880425224, 0.4193440427593683, -0.33560441675692004, 3.1226402024582742, -0.07086397373554948, 16.761230110750454, 21.36883262720133, -0.37930496947234216, 0.10127000510692596, -1.6515780687332153, -1.9541864395141602, -1.1061264276504517, 1.5212643146514893, 1.4554033279418945
0.6934297257590201, -0.10380934437059408, 0.4194516829019037, -0.3284353162297687, 3.123045273996189, -0.07081546339349488, 16.154750117070353, 23.301172453865327, 0.9395844661061612, 0.10905502736568451, -1.6483064889907837, -1.9576354026794434, -1.106094479560852, 1.521336555480957, 1.4676580429077148
0.6919861546395994, -0.0979116202753767, 0.41945856394636444, -0.32016953528428554, 3.1236362520159573, -0.07075655859913726, 17.62642183465512, 22.64254755211918, -0.36786885509546596, 0.11793965846300125, -1.644577145576477, -1.9615567922592163, -1.1061183214187622, 1.5214241743087769, 1.481713891029358
0.6910610921388898, -0.0941376005238618, 0.41941108500391255, -0.31513845759111364, 3.1241153847743184, -0.07063244878368326, 17.85707439194892, 20.73543115257858, -0.34098796564182476, 0.12473050504922867, -1.6418319940567017, -1.9645768404006958, -1.1061583757400513, 1.521431803703308, 1.4925248622894287
0.689737619909481, -0.08893611751794409, 0.4193009895675781, -0.3074873418250812, 3.124795415192357, -0.07045499605542029, 18.2247557106851, 20.829483745966964, 0.41558189227364295, 0.13262690603733063, -1.6386915445327759, -1.968105673789978, -1.106146216392517, 1.521547794342041, 1.5053248405456543
0.6879590816399341, -0.082357801367514, 0.41910961439172334, -0.2976841182239631, 3.125697760189383, -0.07029922558263901, 16.91105661962116, 23.770949344786462, 0.1508924825902549, 0.1416025459766388, -1.6350938081741333, -1.9721307754516602, -1.1061301231384277, 1.5216310024261475, 1.5198770761489868
0.6867425582926946, -0.07787436615928256, 0.4189067447100808, -0.29093228788732906, 3.1264452651917023, -0.07007574175620464, 16.992257297520904, 23.450936427020228, 0.05515351246048761, 0.14835529029369354, -1.6325517892837524, -1.9752721786499023, -1.1061424016952515, 1.5218231678009033, 1.5310168266296387
0.6851032065474575, -0.07188560319788295, 0.4185594164369105, -0.28236191704888935, 3.127459306778781, -0.06975535558310533, 18.138846453432123, 19.487662102024828, -0.555436195231251, 0.15757809579372406, -1.6290398836135864, -1.97940993309021, -1.106086254119873, 1.5219937562942505, 1.5457507371902466
0.6834025477932505, -0.0660330629572097, 0.4182519463075278, -0.27325464339438915, 3.1284312967290853, -0.06958315136185937, 16.129392338955746, 20.459225574043224, 0.6422257245235876, 0.16676577925682068, -1.6257058382034302, -1.9835354089736938, -1.1061302423477173, 1.522261381149292, 1.5606526136398315
0.6817010869136256, -0.06015985502362658, 0.417789427874551, -0.26430147656575054, 3.1295778777634933, -0.06955022653687515, 16.000620065777365, 23.356461071159114, -0.3410823176818176, 0.17590782046318054, -1.6224132776260376, -1.9876405000686646, -1.1060900688171387, 1.522301435470581, 1.5755935907363892
0.6799555070699297, -0.05425688693302776, 0.4173881634066197, 0.2554097650325777, -3.1303077775742727, 0.06959097574430508, 15.803485332280767, 21.052828641685657, -0.20386579996082121, 0.1850714385509491, -1.6191140413284302, -1.9917714595794678, -1.1061064004898071, 1.5223605632781982, 1.5905945301055908
0.6786052114967087, -0.04985711399341972, 0.41701767249263777, 0.24885272200997896, -3.130508062425729, 0.06969022494389374, 16.72427267083294, 20.156740958160533, -0.597414876022673, 0.1932564377784729, -1.6162725687026978, -1.9953889846801758, -1.1061302423477173, 1.5224006175994873, 1.6036032438278198
0.6768279487880853, -0.04396427611480113, 0.41652887521829507, 0.24008711732929114, -3.1308099662271585, 0.06977751512244823, 17.888802833946233, 22.494362434937276, -1.1357198726621824, 0.20143933594226837, -1.6135512590408325, -1.9989526271820068, -1.1060981750488281, 1.5224683284759521, 1.6167049407958984
0.6752793696303491, -0.038828184883700136, 0.4161111856470634, 0.232398482668693, -3.131112943269737, 0.06974281168044881, 16.80293720426748, 23.94732103014175, -1.4362455995657708, 0.20959411561489105, -1.6109100580215454, -2.0023343563079834, -1.1061023473739624, 1.5225807428359985, 1.6298385858535767
0.6735057239070843, -0.03288207342232692, 0.4156637397838713, 0.22419447327187278, -3.1313869226037307, 0.06969263011466352, 17.309728715652238, 20.5846822563695, -0.8083832332610416, 0.2190059870481491, -1.6078602075576782, -2.0062479972839355, -1.106122374534607, 1.5228036642074585, 1.644511342048645
0.672196111000189, -0.02839641591183481, 0.4152995112903163, 0.21794698998384018, -3.131534407440425, 0.06944377771761046, 18.13599071827878, 20.583200261682443, -1.479067818799795, 0.22619223594665527, -1.6056705713272095, -2.008995294570923, -1.106122374534607, 1.5230393409729004, 1.6556729078292847
0.6708799610939397, -0.023951686903219704, 0.4149859151070291, 0.2118019280447895, -3.131780875117229, 0.06928170380582885, 17.279198871751753, 22.84973741535491, -0.4135020276728655, 0.23329871892929077, -1.603556752204895, -2.0117971897125244, -1.1061182022094727, 1.523161768913269, 1.6666215658187866
0.6696064419697308, -0.01946204803534517, 0.4146648617105652, 0.20597468638989325, -3.1319843096965214, 0.06917649029951757, 17.895517422507186, 25.016016715792784, -0.484187845037506, 0.24040168523788452, -1.6014481782913208, -2.0144660472869873, -1.1061100959777832, 1.5234214067459106, 1.6775753498077393
0.6680736275986402, -0.014081124207409732, 0.4142596991022228, 0.19932448653436777, -3.1321368700359833, 0.0688677204755581, 16.978286767796764, 21.45321742262841, -1.0249614589932476, 0.24903911352157593, -1.599082589149475, -2.0174789428710938, -1.1061543226242065, 1.523764967918396, 1.6904077529907227
0.6667741169611504, -0.009458300894469033, 0.41396741844113, 0.19381958569285238, -3.132304834396905, 0.06848746872881253, 17.855572149899867, 19.412928188233504, -0.5978395870456226, 0.25643789768218994, -1.5970693826675415, -2.0200440883636475, -1.1060941219329834, 1.524099349975586, 1.7012931108474731
0.6654716978871631, -0.004812103000989017, 0.41364638618328553, 0.18829030343531994, -3.13243061021099, 0.06775177944744903, 17.693287084598254, 21.08434481272589, -0.9121834172374694, 0.2638290524482727, -1.5950876474380493, -2.022547960281372, -1.106094479560852, 1.5246450901031494, 1.7122228145599365
0.6636717384410704, 0.0013222685746633765, 0.4131727641448556, 0.18077293237266473, -3.1323502265659156, 0.0663704686297163, 17.31360759411512, 24.135375677289577, -0.39781929448278375, 0.2736821472644806, -1.5925861597061157, -2.0258302688598633, -1.1061104536056519, 1.5257062911987305, 1.7269399166107178
0.662334588691838, 0.006062326265933941, 0.41286212917449916, 0.1751212227653202, -3.1324190522624136, 0.06529633365880916, 17.129845410083796, 20.418854633852387, -0.357063845325184, 0.2810823619365692, -1.5907694101333618, -2.028221845626831, -1.1060702800750732, 1.5265758037567139, 1.7379931211471558
0.6610164665470476, 0.010772949276214326, 0.4125826674898304, 0.16928300453830608, -3.132418711150027, 0.06363900799225507, 16.85989483287521, 18.22833145441626, 0.21713366247025545, 0.28986480832099915, -1.588664174079895, -2.0308947563171387, -1.1060981750488281, 1.5279433727264404, 1.7510466575622559
0.6590310621974909, 0.017917079770350085, 0.41222330924813455, 0.1605871334380692, -3.1324203618663184, 0.06087457572725781, 16.859921672894608, 21.934759065515063, -0.5205258967009581, 0.2999022603034973, -1.5862938165664673, -2.0338003635406494, -1.1060981750488281, 1.529725193977356, 1.7659856081008911
0.657754357626702, 0.022670449355863664, 0.4119833943718778, 0.15425387506781124, -3.1323787158401726, 0.05891574171246838, 17.511373356983366, 22.28569235952869, -0.17200072873448013, 0.3086499571800232, -1.5844508409500122, -2.036105155944824, -1.1061183214187622, 1.5314043760299683, 1.7793996334075928
0.6560350431468267, 0.029157889787133944, 0.41186227327455205, 0.14617644046829237, -3.1325081435432707, 0.05557643909264808, 18.287374532190757, 18.225170945181432, -0.9898590879985374, 0.31881457567214966, -1.5822197198867798, -2.038548707962036, -1.1060904264450073, 1.5337247848510742, 1.7947018146514893
0.6541420501423354, 0.036405900778878376, 0.41173142161604637, 0.13632386767814314, -3.1325004996906562, 0.0514797629997291, 17.521286858617746, 19.899627230719556, 0.4977794115127918, 0.33012598752975464, -1.579915165901184, -2.041064500808716, -1.1061183214187622, 1.5365878343582153, 1.8122756481170654
0.6527369676008957, 0.042085928344385924, 0.4116967585430941, 0.1282419390431598, -3.13245602597554, 0.04768396699444278, 19.823223244528705, 21.235357424528853, 0.12784649417662186, 0.3388928472995758, -1.5782862901687622, -2.042747974395752, -1.1061221361160278, 1.5391992330551147, 1.8261750936508179
0.6512971317395537, 0.04792470068261323, 0.41171253470663277, 0.12043151589145243, -3.132402646066649, 0.04361975571069573, 17.817379373077745, 18.275125779520195, -0.14361035021128737, 0.34789323806762695, -1.5766569375991821, -2.0443596839904785, -1.1060702800750732, 1.5419667959213257, 1.8401328325271606
0.6496737627789592, 0.05453118242765202, 0.41175495351352953, 0.1109896398115036, -3.1321035115640163, 0.03844076075182659, 17.954369509798315, 17.130869017805914, 0.5353774053092946, 0.3580017387866974, -1.574936032295227, -2.045999050140381, -1.1061104536056519, 1.5455182790756226, 1.8562297821044922
0.6480490484605955, 0.06110839215274332, 0.4118340496328668, 0.10083292168203672, -3.131647696379991, 0.032658470348277895, 20.104319086292083, 20.50812711845783, 1.8619588040218542, 0.36799517273902893, -1.5733081102371216, -2.047487735748291, -1.106134295463562, 1.5494784116744995, 1.8726632595062256
0.6470240277754765, 0.0653444447035875, 0.41195162221164094, 0.09469772125169185, -3.1312922250757405, 0.02858749047705966, 20.739189324348835, 19.444615509777908, 1.1882777995467972, 0.37438029050827026, -1.5723024606704712, -2.048295736312866, -1.106154441833496, 1.5522416830062866, 1.8829352855682373
0.6453768798437375, 0.07213058581020307, 0.41210393108784493, 0.08458675433377569, -3.130507564202348, 0.021685502460311437, 21.8358975106069, 14.674965388191477, 0.5162892182671802, 0.3845577538013458, -1.57082998752594, -2.04952335357666, -1.1061142683029175, 1.5569545030593872, 1.89951753616333
0.6434513657915368, 0.07967475648014101, 0.41229935194294187, 0.07273485318151582, -3.129339996235206, 0.013625633952589315, 19.650984315630975, 17.821211944397106, 2.088479911540609, 0.3946727514266968, -1.56940495967865, -2.0507800579071045, -1.1061264276504517, 1.5618864297866821, 1.9162747859954834
0.6420975168433185, 0.08467394528098665, 0.41228660413367946, 0.06457730831734687, -3.12816841725606, 0.008175982258681654, 21.1002405104573, 17.913781463476255, 2.348918223040673, 0.4033704996109009, -1.5681889057159424, -2.0518598556518555, -1.106122374534607, 1.5663878917694092, 1.9310110807418823
0.6406956708956434, 0.08969528892465323, 0.41238080075735584, 0.056281393083278015, -3.127009108944574, 0.0024364987396943267, 21.335503596100054, 14.260527531661374, 2.640082258676925, 0.4109063744544983, -1.5670956373214722, -2.052804708480835, -1.1061019897460938, 1.570426106452942, 1.9438087940216064
0.6386231896264322, 0.09719716891382074, 0.41243883853913066, 0.04364414534539924, -3.1247791247621164, -0.0064524282743827635, 22.29296652744578, 14.027115379045306, 3.2732899106803006, 0.42087870836257935, -1.5658921003341675, -2.0539486408233643, -1.1061381101608276, 1.576042890548706, 1.9608054161071777
0.6367345413739963, 0.10378541610595052, 0.4125717897756289, 0.03172092997802812, -3.1225712609647207, -0.01479328339707457, 22.974466351876927, 15.790449362129442, 3.091306073130957, 0.4306182265281677, -1.5644991397857666, -2.0551035404205322, -1.1061220169067383, 1.582826852798462, 1.9803590774536133
0.6347308395327759, 0.1103847062176816, 0.41260416184145843, 0.019671246062607263, -3.1196867994318187, -0.02381916066742832, 22.06499470203572, 11.49871220516022, 4.472307765641512, 0.4416063129901886, -1.5633360147476196, -2.0562233924865723, -1.1061666011810303, 1.5894956588745117, 1.9977670907974243
0.6323165614075896, 0.11776040681699738, 0.41243486642783883, 0.005828866179765609, -3.11591451556694, -0.0335774080501003, 21.405532145198208, 10.451123920305001, 4.690835868527495, 0.4526097774505615, -1.562096357345581, -2.0577638149261475, -1.106154203414917, 1.5969815254211426, 2.0175867080688477
0.6304023261345559, 0.12323691026035594, 0.412248972549625, -0.005363420435355664, -3.1127182941791895, -0.04067400349026668, 22.265033874896176, 13.837534868779816, 5.483311978175964, 0.4620318114757538, -1.5609886646270752, -2.0591635704040527, -1.1062018871307373, 1.603463053703308, 2.0351853370666504
0.6279140979452343, 0.13027449183906342, 0.4120447217688086, -0.019825490136820768, -3.1085553998560735, -0.049454665801744645, 22.752950130078926, 8.925824720747563, 4.558011363503783, 0.47148770093917847, -1.5599651336669922, -2.0605673789978027, -1.1062541007995605, 1.6097122430801392, 2.0528600215911865
0.6262128265569068, 0.13490160500808476, 0.4118795107169587, -0.029843362816349354, -3.1055048597765826, -0.05523706686195103, 20.503658114392355, 9.108548015843873, 5.479969005119173, 0.47850269079208374, -1.5592025518417358, -2.061615467071533, -1.1063140630722046, 1.6145182847976685, 2.0662968158721924
0.6242336192347665, 0.140163017916713, 0.4116061537321245, -0.04176039232676506, -3.1017316200355225, -0.06175336316603063, 22.18098790774261, 11.110171538534992, 6.35949519837514, 0.4853445291519165, -1.55852472782135, -2.0626633167266846, -1.106273889541626, 1.6193004846572876, 2.079723358154297
0.6219552442771538, 0.1460500168634843, 0.4112887251152538, -0.055489793915892725, -3.097427957769238, -0.06852271174478207, 22.28889284786455, 10.993286988525615, 4.216172011503094, 0.49439772963523865, -1.5576701164245605, -2.0641281604766846, -1.106285810470581, 1.6253825426101685, 2.097597122192383
0.6199722731896207, 0.15111939724029638, 0.41097975529240777, -0.06753468192160471, -3.0935701021797506, -0.0739079236901651, 22.22020998254211, 8.30532690543233, 5.448437567475388, 0.5022954344749451, -1.5569839477539062, -2.0653393268585205, -1.1063421964645386, 1.6303353309631348, 2.1132287979125977
0.6182962101907232, 0.15541808742545016, 0.41076381507684273, -0.07798517441892454, -3.090454901516818, -0.07794578744053549, 21.028354422817685, 8.912108184913176, 6.726033156741267, 0.5089316368103027, -1.5564143657684326, -2.0663275718688965, -1.1064181327819824, 1.634310245513916, 2.1266613006591797
0.6166257583342235, 0.15959876652150076, 0.41051503565115355, -0.08831762633105791, -3.0873776389134933, -0.08139658123056154, 21.064543397820835, 10.177991509768265, 6.1114614690697096, 0.5155328512191772, -1.5559247732162476, -2.0673201084136963, -1.1063578128814697, 1.6378843784332275, 2.139927625656128
0.6147374252845562, 0.16431522163988715, 0.4102229201399598, -0.1005399784799504, -3.083994005425777, -0.08479174829073678, 22.15925684683807, 10.051856093426096, 4.950991627434414, 0.5230425000190735, -1.555298924446106, -2.068387031555176, -1.1063741445541382, 1.6416058540344238, 2.1553022861480713
0.6125669079189981, 0.16968574022459795, 0.4098724534839364, -0.11411589209530476, -3.080312821965294, -0.08768093919594391, 21.183886090673607, 8.08203435508003, 5.91383189587112, 0.5317710638046265, -1.5546525716781616, -2.0695266723632812, -1.1063741445541382, 1.645219326019287, 2.172872304916382
0.6106993115817647, 0.1743394358029986, 0.40960761063839324, -0.12566572371773596, -3.0774758085960894, -0.08932539200045614, 20.655958531374353, 8.07704103644086, 6.201250639062499, 0.5393091440200806, -1.5541791915893555, -2.0705833435058594, -1.1063581705093384, 1.6476950645446777, 2.1880886554718018
0.6093961470917285, 0.17755780237812416, 0.40939682845405373, -0.1337029385509013, -3.0756242785938146, -0.08989357262486392, 20.978983672830758, 9.078343809553981, 5.7713333888093885, 0.5446489453315735, -1.553874135017395, -2.071218490600586, -1.1063944101333618, 1.6491122245788574, 2.1986725330352783
0.6079560569998886, 0.18123678460880346, 0.4091456233710986, -0.14371098120169218, -3.07377127275653, -0.08978822730701816, 22.3641521183202, 10.10237466440412, 6.451596647303565, 0.5509496331214905, -1.5535653829574585, -2.0718588829040527, -1.1063820123672485, 1.650158405303955, 2.2114312648773193
0.6063296526067266, 0.18556079573077303, 0.40891796345040593, -0.15481539207605774, -3.0720658023944503, -0.08887529643856293, 21.01779699619123, 8.676079493071088, 7.031822642072131, 0.5592777729034424, -1.5532444715499878, -2.072666883468628, -1.1063820123672485, 1.6506779193878174, 2.228079319000244
