JensOHI/Master_Thesis/record_trajectory/physical_traj_4.csv
pos_x, pos_y, pos_z, ori_x, ori_y, ori_z, f_x, f_y, f_z, q_base, q_shoulder, q_elbow, q_wrist1, q_wrist2, q_wrist3
0.6552780887073809, -0.009977891451366043, 0.33746762457124485, -1.273367525821462, -2.782406694388494, 0.004505678163878268, 1.9182615465010866, 0.3530318061614522, 0.10075614414353701, 0.13181662559509277, -2.0090935230255127, -1.7146679162979126, -0.9792023301124573, 1.235281229019165, 2.6695408821105957
0.6552717337720231, -0.009953562713579656, 0.3375041602949546, -1.2732969002139702, -2.7825112114642847, 0.0044349876766529885, 1.670622290324107, -0.007587275193614032, 0.15753866277777712, 0.13181662559509277, -2.0090935230255127, -1.7146679162979126, -0.9792023301124573, 1.235281229019165, 2.6695408821105957
0.655269984331999, -0.00999783883764273, 0.3374552035277335, -1.2733383411652666, -2.78243439341755, 0.0045235355021322095, 1.3643709777281907, 0.06490137621795436, 0.3168298836229776, 0.24487654864788055, -1.6602460145950317, -2.096254348754883, -1.0216326713562012, 1.6153106689453125, 2.670236349105835
0.6552672454883406, -0.009978938401359211, 0.33753604124008524, -1.273355721561924, -2.7825220492879996, 0.004309945503806828, 1.1270838268005272, 0.14358370641390605, 0.06363284952158306, 0.24492046236991882, -1.6602660417556763, -2.096238374710083, -1.0216485261917114, 1.615347146987915, 2.670220375061035
0.6552558204504193, -0.00996996735081984, 0.33744518193425777, -1.2732261671254033, -2.782431473029703, 0.004498196411902759, 1.7697761533550405, 0.3052765190372698, 0.059643966773543965, 0.2449488788843155, -1.660298466682434, -2.096250295639038, -1.0216565132141113, 1.6153273582458496, 2.67020845413208
0.6552745183096644, -0.010033150548094933, 0.33745868767544096, -1.2734452874112412, -2.782385310553756, 0.004513170007947196, 1.3407257444749836, 0.4133084202049043, 0.3305294663698993, 0.24494870007038116, -1.6602579355239868, -2.096203088760376, -1.0216127634048462, 1.61529541015625, 2.6702566146850586
0.6552795102707639, -0.009993423932328828, 0.3374909267486969, -1.273403255985553, -2.782408988618518, 0.00435579395935381, 1.0234355287307966, -0.20554865506455042, 0.12776599819033102, 0.24494865536689758, -1.6603385210037231, -2.0962300300598145, -1.021584391593933, 1.6153028011322021, 2.670236349105835
0.6552724653254458, -0.010004730404261166, 0.3374616654884291, -1.2733784869851719, -2.7824335741973303, 0.0045357702925506345, 1.7200825189027402, 0.33552966825056946, -0.11846305196730025, 0.24494461715221405, -1.6603304147720337, -2.0962185859680176, -1.0216604471206665, 1.6152913570404053, 2.6702685356140137
0.6552756962820935, -0.00998755782854897, 0.33745473815217264, -1.2733536685911913, -2.782400070505074, 0.004406306978073638, 1.5019839120381928, -0.1560839485654787, 0.002118146361888118, 0.2449367642402649, -1.6601983308792114, -2.096221923828125, -1.021628737449646, 1.6152832508087158, 2.670248508453369
0.6552792174825697, -0.00995663328704231, 0.33741760170072943, -1.2732455162434613, -2.782415170880029, 0.0045575758841172155, 1.438108615330965, -0.13454344004493946, 0.08738587989136531, 0.24492859840393066, -1.6603065729141235, -2.0962111949920654, -1.0216326713562012, 1.6153392791748047, 2.6702444553375244
0.6552638820772523, -0.0099995450126919, 0.3374610834007399, -1.2733412280123602, -2.782440462944017, 0.004515336492590586, 1.574750273443983, 0.41207072221322016, 0.06532729841906597, 0.2449207752943039, -1.6602779626846313, -2.0961990356445312, -1.0216723680496216, 1.6152753829956055, 2.6702606678009033
0.6552819020711249, -0.009987428795920348, 0.3374515536095223, -1.2733398966164096, -2.7824191718817763, 0.004462192719674999, 1.2739942010081096, 0.3101196183063712, -0.061471949973205764, 0.24490854144096375, -1.6602941751480103, -2.096234083175659, -1.0216326713562012, 1.6152944564819336, 2.6702046394348145
0.6552702947972114, -0.009984361061181333, 0.33744447819479395, -1.2733866961798277, -2.7824056680112985, 0.004527637053806006, 1.7068352752242744, 0.25588148823179685, 0.34417876520945057, 0.24492454528808594, -1.660314679145813, -2.0961992740631104, -1.0216366052627563, 1.615279197692871, 2.670264482498169
0.6552938906423581, -0.009951423675646501, 0.33747075664546916, -1.273229536263782, -2.7824896441748765, 0.0044172833662782995, 0.5943329486626966, 0.30624651587123664, -0.13907491942971428, 0.24496130645275116, -1.6603261232376099, -2.0961828231811523, -1.021620750427246, 1.6153353452682495, 2.67020845413208
0.6552489592212255, -0.010005158700061858, 0.33742080026128246, -1.2732948355733156, -2.7824041902964853, 0.004523369665554501, 1.0438434771704705, -0.006347641778060796, 0.10950333265629733, 0.24492819607257843, -1.6603108644485474, -2.0961906909942627, -1.0216326713562012, 1.6152905225753784, 2.6702725887298584
0.6552681237875096, -0.009977108251596, 0.33743739276175455, -1.2732711630917817, -2.78246202576927, 0.004520024260445546, 1.565357816768838, 0.33307965856125554, 0.2780058399008564, 0.24489250779151917, -1.6602665185928345, -2.0962300300598145, -1.0216726064682007, 1.6153233051300049, 2.670264482498169
0.6552759321844631, -0.009981292620700792, 0.3374692800946905, -1.2733400958545922, -2.7824017808830424, 0.004482867286327036, 1.4997167825803093, 0.13742635271310744, 0.0532056928347436, 0.2449166625738144, -1.6602784395217896, -2.096214532852173, -1.0216525793075562, 1.6152832508087158, 2.6702606678009033
0.6552818674458473, -0.009999041806802774, 0.3374603744385346, -1.2733766186905455, -2.7824284620795545, 0.0044483712675792405, 1.4252111142850457, 0.5595703297336861, 0.2286515721872933, 0.24489665031433105, -1.6603189706802368, -2.0962107181549072, -1.021608829498291, 1.6153151988983154, 2.67024827003479
0.6552748790069411, -0.009980352147472836, 0.33747466953122335, -1.2732962491968967, -2.782489524759174, 0.004468509253494218, 1.7922576342412855, 0.47500092637874836, -0.05361073132576216, 0.2449488639831543, -1.6602703332901, -2.0962026119232178, -1.0216127634048462, 1.6152395009994507, 2.670260429382324
0.655280947350053, -0.00996207235266338, 0.33744787805701293, -1.273226033723023, -2.7824466153239262, 0.004497330196609116, 1.564989787505459, 0.1811049436926294, 0.22662707797416154, 0.24498510360717773, -1.6602860689163208, -2.096250295639038, -1.021628737449646, 1.6152675151824951, 2.6702444553375244
0.6552689892252125, -0.010004984949330522, 0.33747550177348384, -1.2733761510046933, -2.7824265093613354, 0.004491076167566461, 1.0983203779377195, 0.31973838293258755, 0.02720611136901177, 0.2449488639831543, -1.660321831703186, -2.096266746520996, -1.0216246843338013, 1.6153028011322021, 2.6702046394348145
0.6552569058479242, -0.00997828051429138, 0.33744446156355207, -1.2733018803376173, -2.782437598117602, 0.00446222589138076, 1.3941620620061015, 0.3785933977072104, 0.23127311742275258, 0.24490022659301758, -1.660338044166565, -2.096214532852173, -1.0216525793075562, 1.6152913570404053, 2.67024827003479
0.6552669262529034, -0.010003441540657493, 0.33745056383792466, -1.2733071073154105, -2.78245269679616, 0.004508482153984466, 1.7167360778385883, 0.19761382441507733, 0.23596328760603807, 0.24495311081409454, -1.6602822542190552, -2.096234083175659, -1.021628737449646, 1.615335464477539, 2.670208692550659
0.6552637531256292, -0.009999635782097623, 0.3374738402846702, -1.2732822788570286, -2.7824878426528055, 0.004489688872489115, 1.2280735476542488, 0.5123587238159613, 0.19507573143964868, 0.24490845203399658, -1.6602741479873657, -2.0962300300598145, -1.021640658378601, 1.6152832508087158, 2.6701889038085938
0.6552733818441593, -0.009997537185635164, 0.33746390081410665, -1.2733382898325272, -2.782430772103908, 0.004488799043534202, 1.1804449962979515, 0.42934121444610157, 0.18077425004906672, 0.24492454528808594, -1.660286545753479, -2.096250295639038, -1.021640658378601, 1.6153067350387573, 2.670252561569214
0.6552894732136029, -0.009987048254632841, 0.3374670401248585, -1.2734016955621266, -2.782438723593264, 0.004427137338141175, 1.2480035310565998, 0.10661588403933923, -0.0881522849430799, 0.24490447342395782, -1.6602660417556763, -2.0962066650390625, -1.021616816520691, 1.61528742313385, 2.670260429382324
0.655280209266725, -0.010007611338034263, 0.3375234509129085, -1.2734135457059461, -2.7824878405919486, 0.004409711065996054, 1.4801080496434542, 0.09732716274854786, -0.24036104014543697, 0.24490858614444733, -1.6603232622146606, -2.096214532852173, -1.0216525793075562, 1.6152794361114502, 2.670180559158325
0.6552649813009392, -0.009992240532704314, 0.33748775788217356, -1.2733545383098723, -2.78249063405601, 0.004469747377801956, -0.09093561895944008, -0.8747619909465961, -0.5843714859847252, 0.2449006736278534, -1.6603108644485474, -2.0962226390838623, -1.021608829498291, 1.61529541015625, 2.670252561569214
0.6552547813991472, -0.010007702882328263, 0.3374745954162507, -1.2733267808628066, -2.7824837820471022, 0.004479933871654064, -0.0716712856409597, -0.6155590152789058, -0.7420843805821672, 0.24490024149417877, -1.6602579355239868, -2.096250295639038, -1.021620750427246, 1.6152794361114502, 2.670208692550659
0.6552777359427662, -0.009987459557713147, 0.33744730155172215, -1.2733255748909216, -2.782400383059989, 0.004514809496266035, 0.8233682018831838, -0.5993461656270525, -0.6381032161198579, 0.2449527531862259, -1.6602741479873657, -2.096203088760376, -1.0216246843338013, 1.61528742313385, 2.670220136642456
0.6552812925014141, -0.009992788187329103, 0.33747753569912803, -1.2733652212674587, -2.7824488655477304, 0.004454798953039201, 0.8696669241822068, 0.022673278007014474, -0.42595494273143825, 0.24490854144096375, -1.6602627038955688, -2.096254348754883, -1.021640658378601, 1.6153067350387573, 2.6702685356140137
0.6552857603148904, -0.010020430599519228, 0.33743087752692513, -1.27342439529884, -2.7823498516635916, 0.004534325659599677, 1.4149864575311575, -1.6775004748717526, -0.5913468656120989, 0.2449694722890854, -1.6603065729141235, -2.0962185859680176, -1.0216445922851562, 1.6152554750442505, 2.6702404022216797
0.6552665862964522, -0.01000786381943472, 0.3374852138113845, -1.2733441804121703, -2.7824646286944232, 0.004460944252453482, 1.1785428317203415, -2.833224084129418, -0.022022785374000126, 0.24492862820625305, -1.6603065729141235, -2.0961952209472656, -1.0216764211654663, 1.6153274774551392, 2.670264959335327
0.6552475868181591, -0.009993370680677295, 0.33744742392556804, -1.273338563304886, -2.7824508239310703, 0.004554510968708485, 0.6487799100391752, -3.0635038824243246, 0.1014656465791521, 0.24492456018924713, -1.6602421998977661, -2.0962300300598145, -1.021628737449646, 1.6152753829956055, 2.6702725887298584
0.6552799826709517, -0.0100023236965165, 0.33747899357943534, -1.2733439322732942, -2.7824633592289727, 0.004470934100032229, -0.495570110784095, -3.0279999570920024, -0.07759743234752814, 0.24489665031433105, -1.6602941751480103, -2.0961992740631104, -1.021640658378601, 1.6152913570404053, 2.670220375061035
0.6552606513077176, -0.009999246822965793, 0.33746906287446676, -1.2733319421246496, -2.7824688999138174, 0.004558648312302075, -0.5764300449194015, -0.8860964251247242, -0.3399369203920001, 0.2449047863483429, -1.6603351831436157, -2.096214532852173, -1.021616816520691, 1.6152876615524292, 2.670248508453369
0.6552709080595365, -0.010001360866618958, 0.33747064966213325, -1.273381810275165, -2.7824747896996747, 0.004472361894544911, -1.0013747646114861, -0.7239117531418795, -0.6590252952928449, 0.2449045181274414, -1.660286545753479, -2.0962305068969727, -1.0215961933135986, 1.6152756214141846, 2.670248508453369
0.655278812362855, -0.00997796735543608, 0.3374724881012073, -1.2733470445831394, -2.782521828830259, 0.004519473906803115, -1.3449944327901806, -2.5886376747657867, -0.11899441459069456, 0.24492859840393066, -1.6603261232376099, -2.096234083175659, -1.0216528177261353, 1.6152794361114502, 2.6702404022216797
0.6552578578711912, -0.010000926055629702, 0.3373910566657313, -1.2733106086855992, -2.7823835610338294, 0.004680019942129403, -0.6778530800991697, -5.357104706838395, 1.0585497503188037, 0.244868665933609, -1.6603151559829712, -2.096262216567993, -1.0216565132141113, 1.6152756214141846, 2.670236349105835
0.6552360820971698, -0.01000045716555232, 0.3374419985037992, -1.2733363905672503, -2.782447994275952, 0.004628317467883137, -0.8432942172815614, -5.551130960161589, 0.8677792239490458, 0.2449047863483429, -1.6603108644485474, -2.096262216567993, -1.0216963291168213, 1.6152678728103638, 2.670264482498169
0.6552518860251187, -0.010019347280990503, 0.3374715792079024, -1.2733470728572693, -2.7824615988716896, 0.004556246228171134, -1.2149357771679234, -6.230620755230544, 0.4727439334017808, 0.2448892891407013, -1.6602579355239868, -2.0962467193603516, -1.0216645002365112, 1.6152474880218506, 2.6702160835266113
0.6552489921302886, -0.010025328566479997, 0.3374155523804139, -1.2733618321927005, -2.7823627941039857, 0.004611733846388422, -1.1376685253729533, -6.124060992931309, -0.048011272404678784, 0.2448846995830536, -1.6602903604507446, -2.096266269683838, -1.0216485261917114, 1.6152836084365845, 2.670232057571411
0.6552386317211597, -0.010020300194406022, 0.3374176583272256, -1.2733676074489535, -2.7823618789403834, 0.004619581671443799, -0.38466883599051443, -6.611974345863683, -0.6361329550478632, 0.24484075605869293, -1.6602784395217896, -2.096266269683838, -1.0216485261917114, 1.6152796745300293, 2.670252561569214
0.6552493636298276, -0.010035118667676216, 0.33746798388052646, -1.273375752769544, -2.782445907896289, 0.004541496497658885, 0.9922109799491461, -7.256027358443153, -1.6741931376649823, 0.24496503174304962, -1.6603108644485474, -2.0962259769439697, -1.0216803550720215, 1.6152753829956055, 2.670280933380127
0.6552462359584291, -0.010003628472836139, 0.3374479707796429, -1.273380939422186, -2.7823934688155587, 0.004588680276692025, 2.7826036697954364, -8.311902853408712, -2.3463043048889944, 0.24490885436534882, -1.6603022813796997, -2.096221923828125, -1.0216286182403564, 1.615283489227295, 2.6702325344085693
0.6552288564611158, -0.01003106470073272, 0.3374513408133941, -1.2734203051715853, -2.7823420639378926, 0.004575720893981326, 2.500898025579789, -9.098750830889305, -2.834658867560812, 0.24488504230976105, -1.6602779626846313, -2.0962703227996826, -1.0216684341430664, 1.615235447883606, 2.670236349105835
0.6552572727319896, -0.009989197460474528, 0.3374528123147841, -1.273342191082239, -2.782460494184106, 0.00455758294220199, 2.7793538654490875, -9.33852501084859, -2.232395936827916, 0.24489286541938782, -1.6602102518081665, -2.096266269683838, -1.0216645002365112, 1.6152756214141846, 2.6702284812927246
0.6552467026811057, -0.010040241809328667, 0.3374473923324239, -1.2734525600797642, -2.7823406749412034, 0.004567577878369991, 1.3546132906456985, -8.997280874619607, -2.113035992142954, 0.2449006736278534, -1.660258412361145, -2.096262216567993, -1.0216844081878662, 1.6152355670928955, 2.67022442817688
0.6552391929684391, -0.010045010913529787, 0.33748745049821255, -1.273443532852856, -2.7824020619857452, 0.004510264099446265, 0.11492662186563862, -7.16626887514374, -1.7696241236262371, 0.24486085772514343, -1.6602822542190552, -2.0962467193603516, -1.0216525793075562, 1.6152634620666504, 2.67022442817688
0.6552829126374791, -0.010029349852173023, 0.3374791401378895, -1.273469001015379, -2.7824668741902348, 0.004560599629163572, -0.5649205387914213, -4.501902882488082, -1.4082116175352253, 0.244868665933609, -1.6602946519851685, -2.0961992740631104, -1.0216326713562012, 1.6152117252349854, 2.6702685356140137
0.6552920488989827, -0.009993206170344, 0.33749366312730333, -1.2734079307719333, -2.782527876010427, 0.004488506327376478, -2.7543259133901237, -0.2372567536515105, -2.090096151686999, 0.24491699039936066, -1.6602898836135864, -2.096186637878418, -1.0215961933135986, 1.6152313947677612, 2.670264482498169
0.655314539769175, -0.010004661588045673, 0.3375142691809891, -1.273406533330406, -2.7825377518318555, 0.0043634009949284945, -3.058221911745691, 2.7442826881840414, -2.6283197714240547, 0.24493269622325897, -1.660258412361145, -2.0961668491363525, -1.0216209888458252, 1.615283489227295, 2.6702804565429688
0.6553693468720053, -0.0099963499347407, 0.33758949148423234, -1.273598774142275, -2.7825698742405875, 0.004236558800257747, -3.4620100475079423, 4.137899719993946, -2.066094824314404, 0.2449047863483429, -1.6602779626846313, -2.0960867404937744, -1.0215845108032227, 1.6152596473693848, 2.6703009605407715
0.6554260360026198, -0.009966584111930386, 0.3376498047048787, -1.2735294605985905, -2.7827118331902057, 0.004159810872632515, -5.1541279491545, 6.464925589794141, -2.2321249177881306, 0.2449006885290146, -1.6603304147720337, -2.095919132232666, -1.0215206146240234, 1.6152633428573608, 2.6703009605407715
0.6554717671582309, -0.009926279477275368, 0.33767616450930166, -1.273473885564719, -2.7827714293237356, 0.004124334439576589, -6.104814612687139, 8.459633706097875, -1.3714092015239037, 0.24486462771892548, -1.6602741479873657, -2.0957746505737305, -1.0215965509414673, 1.6152396202087402, 2.6702520847320557
0.6555220107927895, -0.009921502430656993, 0.3377335852073889, -1.2735486990416844, -2.7828068965673616, 0.004039623616008361, -7.016051830500396, 10.727473469040818, -1.7300512419386838, 0.24491670727729797, -1.6602660417556763, -2.0957069396972656, -1.0216045379638672, 1.6152675151824951, 2.670316457748413
0.6556148124166347, -0.009927218276084608, 0.33783429197844445, -1.273705985103254, -2.7829197323977812, 0.003841361844802134, -6.153318783079024, 13.267404691600234, -1.59903263724006, 0.24493268132209778, -1.6603180170059204, -2.0954949855804443, -1.0215288400650024, 1.6152395009994507, 2.670316457748413
0.6557499685515191, -0.009860997563156603, 0.33802569041859193, -1.2737500234184262, -2.783174569047713, 0.0034768649277607602, -6.994481278797794, 15.758428371899274, -1.4988838172052628, 0.24492862820625305, -1.6603175401687622, -2.095242738723755, -1.0214886665344238, 1.6153357028961182, 2.6703083515167236
0.6559740147013347, -0.009813169209705768, 0.3382811962919358, -1.2739182736604804, -2.783477870143682, 0.0031015838659438338, -7.972414377903739, 16.17735463449876, -1.1333480858843104, 0.24494868516921997, -1.6604419946670532, -2.0947983264923096, -1.0215082168579102, 1.61528742313385, 2.6702721118927
0.6562834011544708, -0.009776871281380899, 0.3386003006747784, -1.274110949016618, -2.783924882305282, 0.0024841971385558105, -8.680386618564247, 17.65350969657247, -1.2039297765062886, 0.24492043256759644, -1.6605454683303833, -2.094130277633667, -1.0215370655059814, 1.6153234243392944, 2.6702921390533447
0.6566498048280235, -0.00963973458668728, 0.3389576422234191, -1.2742085384170154, -2.7843454894623303, 0.0019100076501900648, -9.488735676269844, 18.43174427759067, -1.3763590018267906, 0.24495717883110046, -1.6605650186538696, -2.0933949947357178, -1.0215288400650024, 1.615283489227295, 2.6703083515167236
0.6571873715901787, -0.009550058377812753, 0.33959557393263806, -1.2746750600664034, -2.7851098910873775, 0.0008194809411290546, -10.065342916109818, 19.071655982945444, -0.64156453368999, 0.24489662051200867, -1.6607686281204224, -2.0922462940216064, -1.0215284824371338, 1.6152794361114502, 2.6703245639801025
0.6579057811691988, -0.00933216214499489, 0.3403781206094541, -1.2749787376428325, -2.786177846816032, -0.0004208780007014524, -8.62012000427136, 19.45667192815592, -0.3108495127002746, 0.24490852653980255, -1.6609684228897095, -2.0907585620880127, -1.0215003490447998, 1.6152393817901611, 2.6703405380249023
0.6587830081074598, -0.009131224577890302, 0.34134102883788864, -1.2754920357327832, -2.7873382248917022, -0.001986751778241878, -9.074245353803528, 19.973944983713505, 0.3224488197516642, 0.24492046236991882, -1.661150574684143, -2.0887508392333984, -1.0215247869491577, 1.61529541015625, 2.6703245639801025
0.6598898975871937, -0.008808760331733313, 0.3426523240299858, -1.276048834881265, -2.7890152994543396, -0.0043328279348921325, -9.194062505135697, 20.319599963555543, 0.06447713877514061, 0.24496081471443176, -1.661389946937561, -2.0863866806030273, -1.0215409994125366, 1.61528742313385, 2.670300245285034
0.6609752779940247, -0.008583177988776395, 0.34394354078360534, -1.2767724862244882, -2.790618312750881, -0.0063659715450669315, -8.553520818783428, 19.95868045869881, 0.92534001565421, 0.24489209055900574, -1.6616092920303345, -2.0836498737335205, -1.0215487480163574, 1.6152904033660889, 2.670304298400879
0.662372241447092, -0.008169980778862128, 0.3456362576525426, -1.277573702210516, -2.792727898059334, -0.009185246384336437, -8.044523502634979, 19.969853683553747, 1.052840665956872, 0.24498502910137177, -1.661835789680481, -2.08050274848938, -1.0215567350387573, 1.6153151988983154, 2.6703686714172363
0.6638642190678127, -0.00779508722504863, 0.3474386661032814, -1.2784404447742896, -2.7949490950914946, -0.012258537935023144, -8.259339302346056, 19.60102428188795, 2.0614151256905258, 0.24494478106498718, -1.662063717842102, -2.077549934387207, -1.0215208530426025, 1.6153308153152466, 2.6703484058380127
0.6655160934918457, -0.007417075374678732, 0.3495306294657741, -1.2795947267916825, -2.797472905030672, -0.015663090584277076, -8.18704241407772, 18.59243255571686, 3.53261165827294, 0.24495260417461395, -1.6623107194900513, -2.073826789855957, -1.0216002464294434, 1.6153547763824463, 2.670360565185547
0.6672399214022863, -0.006992618618000948, 0.35163645130005056, -1.280560107184731, -2.8000948413817697, -0.0191161661141834, -10.03947248671441, 17.856607265960378, 6.168978509132806, 0.24492818117141724, -1.6625577211380005, -2.069962501525879, -1.0216326713562012, 1.6154074668884277, 2.670372486114502
0.6681117484869702, -0.006774336031146853, 0.3527511838173949, -1.2811667176954216, -2.8013751622578913, -0.02097840793445718, -10.68100608086382, 17.890098943377055, 6.935463212414794, 0.24490851163864136, -1.6626611948013306, -2.067960023880005, -1.0216485261917114, 1.6154193878173828, 2.6703524589538574
0.6698573927470427, -0.006299669208727608, 0.3548640191825874, -1.2820927872528338, -2.8039825186244576, -0.024399410024027155, -12.53233505807822, 17.386731079174506, 8.047783843153033, 0.24497270584106445, -1.6630836725234985, -2.0634195804595947, -1.021716833114624, 1.615386724472046, 2.670356512069702
0.670779801860799, -0.006108257185209484, 0.35596317717638604, -1.2827453753778237, -2.805242663172707, -0.026160640639471967, -12.705474286537285, 17.835055413177418, 9.232463380000471, 0.24491587281227112, -1.6633063554763794, -2.061306953430176, -1.021780252456665, 1.6153783798217773, 2.6703884601593018
0.6727873102292267, -0.00560834156380188, 0.35827708400379854, -1.2838725256319488, -2.8079750629447866, -0.029930895800733544, -13.305560583570943, 17.751642391637088, 10.198759237029895, 0.2449488639831543, -1.663817048072815, -2.0572309494018555, -1.0219208002090454, 1.6153907775878906, 2.670384407043457
0.6746252685508861, -0.005127509286772039, 0.3602378453266578, -1.2847042374164566, -2.8103010222940075, -0.033082826083316225, -13.195610827930338, 18.475120481643557, 11.162349157149844, 0.24492046236991882, -1.664514183998108, -2.0531272888183594, -1.0220524072647095, 1.615346908569336, 2.670396327972412
0.6761998117469675, -0.004734612106562238, 0.3618325406030541, -1.2855642721387188, -2.8122135108946194, -0.035683504828027963, -12.87256213512176, 19.25226493077724, 12.190554226592107, 0.24489615857601166, -1.6652189493179321, -2.0496461391448975, -1.022124171257019, 1.6154234409332275, 2.670440673828125
0.6779794917184939, -0.004311172608707357, 0.36337827005684176, -1.2865566777395419, -2.814039677989873, -0.03827521473178511, -14.036268190513374, 21.723727912526922, 11.405977024852074, 0.24489207565784454, -1.666267991065979, -2.045762538909912, -1.0221482515335083, 1.615386724472046, 2.6705362796783447
0.67976039147763, -0.003860657894845637, 0.36488794235337113, -1.2873994764078558, -2.8158897373781877, -0.04087283105857744, -13.292318646545898, 21.596547710501444, 10.956131999106578, 0.24492454528808594, -1.6675230264663696, -2.041970729827881, -1.0221242904663086, 1.615358829498291, 2.6706202030181885
0.6816023534984523, -0.003368544552911701, 0.3661053551472755, -1.2880347806325694, -2.81742416229502, -0.04291999511078853, -14.004412918653658, 21.167956762216594, 12.264925782137944, 0.24492815136909485, -1.6689649820327759, -2.038174867630005, -1.0221844911575317, 1.6153748035430908, 2.670684337615967
0.6831713891839677, -0.003004399701332066, 0.3670625308640072, -1.288622074125794, -2.8186492355424386, -0.04456362640773834, -14.664034601289897, 21.46812381447797, 11.737982015718941, 0.24494054913520813, -1.6706792116165161, -2.034518241882324, -1.0222241878509521, 1.6153227090835571, 2.6707122325897217
0.6850288599388628, -0.002552114405714522, 0.36809696293786803, -1.2892517422168566, -2.8199014158443, -0.04649125414850152, -13.928700127602308, 21.37995030315649, 11.292548372627481, 0.24490022659301758, -1.6723204851150513, -2.0312612056732178, -1.0222645998001099, 1.6154115200042725, 2.6707241535186768
0.6870080261411255, -0.002004867108709096, 0.3689016834913443, -1.2895367432819993, -2.8210923944924136, -0.047997531881917375, -14.273680473454581, 22.45956418287281, 11.204342648215285, 0.24490801990032196, -1.674444317817688, -2.027435779571533, -1.0222042798995972, 1.6153509616851807, 2.6707401275634766
0.6880134229586979, -0.0017860135121588105, 0.36935670129280707, -1.2899046305691437, -2.8216574695304804, -0.04891785389984552, -14.319127299761162, 23.041513280807475, 12.007513932841395, 0.24494478106498718, -1.6756244897842407, -2.0255110263824463, -1.0222240686416626, 1.615358829498291, 2.670780658721924
0.6900777153626404, -0.0012743887483225424, 0.37000410827101793, -1.2903512809094142, -2.8226459502081713, -0.050252735644038926, -15.575700921469203, 23.866445479182563, 10.945386536900722, 0.24494050443172455, -1.678421139717102, -2.0210819244384766, -1.0221842527389526, 1.6153788566589355, 2.6707842350006104
0.6922663392740876, -0.0007453741242894425, 0.3705680927145993, -1.290704129772294, -2.823530841824554, -0.05142820434709993, -13.65602579421411, 23.585666481138386, 10.723750722479036, 0.24492046236991882, -1.6809278726577759, -2.0174481868743896, -1.022220253944397, 1.615346908569336, 2.6707282066345215
0.6946032983471325, -0.0001637979071735145, 0.37107122108154506, -1.291077224069905, -2.8243673242936804, -0.05258346247977237, -12.926469469314577, 23.55808755624117, 11.64509733930959, 0.24499280750751495, -1.6840282678604126, -2.013143539428711, -1.0222121477127075, 1.6154115200042725, 2.6707603931427
0.6970582375658175, 0.000476360935313609, 0.3714062661469635, -1.2912912579975404, -2.8250654389961567, -0.053550113198464526, -13.639016496411656, 23.136958892490963, 10.446724535050699, 0.24493663012981415, -1.6874390840530396, -2.008749008178711, -1.0222439765930176, 1.615443468093872, 2.6708006858825684
0.6996472910767401, 0.0011107206142101228, 0.371764416131511, -1.2916107816563023, -2.8257983422667796, -0.05458266665073381, -12.961059074892903, 22.23692079845627, 10.011116178915223, 0.2449488341808319, -1.6910725831985474, -2.0041000843048096, -1.0222480297088623, 1.615386724472046, 2.6707563400268555
0.7023802444304348, 0.0017971819993652643, 0.37207015458427356, -1.2918475956874718, -2.8265120286783953, -0.055532860109553245, -13.45223874558335, 22.3439988341088, 10.510670871466518, 0.2450052946805954, -1.6950188875198364, -1.9991865158081055, -1.0222686529159546, 1.615370750427246, 2.6707119941711426
0.7048227427661332, 0.0023889853643548455, 0.3722782972747478, -1.2921141565639296, -2.827046155299782, -0.056355203163478806, -13.255212816145562, 22.48823615245969, 10.569062814775485, 0.24496489763259888, -1.6985703706741333, -1.994765281677246, -1.0222400426864624, 1.6153428554534912, 2.6707401275634766
0.7077293231204602, 0.003110719367960704, 0.3724948564716483, -1.2924519184556036, -2.827642289766185, -0.05728094908993389, -13.068601296214558, 22.337626564989428, 9.800468638701052, 0.24498510360717773, -1.702962040901184, -1.98957097530365, -1.0222314596176147, 1.6153669357299805, 2.670804738998413
0.7107316715991553, 0.0039035268643170676, 0.37253495955545346, -1.2925625940740841, -2.828188716164895, -0.05795406766797376, -13.016075704282915, 22.507044831166485, 9.385676426833252, 0.2449321299791336, -1.7074614763259888, -1.9842250347137451, -1.0222480297088623, 1.615358829498291, 2.670776605606079
0.7134798935425994, 0.004530817032069062, 0.3726134890206469, -1.292824921449426, -2.8287397142266224, -0.05864043525181348, -12.850848011082002, 22.19645305632652, 7.8782185421106306, 0.244904026389122, -1.712234616279602, -1.978698968887329, -1.022183895111084, 1.6153268814086914, 2.6707401275634766
0.7167640622602223, 0.0054116066346506595, 0.3727172082221464, -1.2930134723411364, -2.8293208998373167, -0.059594671250073505, -11.969146554409557, 21.9188891318986, 8.114168828142375, 0.24497678875923157, -1.7172166109085083, -1.9728195667266846, -1.0222121477127075, 1.6154074668884277, 2.6707842350006104
0.7200745902912246, 0.00623353058449574, 0.3728067253358588, -1.293236066262193, -2.830022480591324, -0.0604295329164945, -12.359197319754692, 22.304811966380456, 8.364383388995387, 0.24495671689510345, -1.7216283082962036, -1.9677033424377441, -1.0222080945968628, 1.6153990030288696, 2.6707282066345215
0.7235126962496273, 0.007094870356671184, 0.37285048410962723, -1.2934970492872677, -2.830593020975362, -0.06131264098399883, -11.510590384152144, 20.401408922494664, 7.830361868687285, 0.2449808567762375, -1.7274891138076782, -1.960757851600647, -1.0222361087799072, 1.6153829097747803, 2.670764207839966
0.7270322840592675, 0.00796723034975988, 0.3728857868689173, -1.2937108082148152, -2.8312603703484385, -0.0622279726244119, -10.648592372760987, 19.56868498011729, 7.462316651528193, 0.24497319757938385, -1.7321749925613403, -1.955259919166565, -1.02225661277771, 1.6153907775878906, 2.670732259750366
0.7301529382484769, 0.008777766380692777, 0.37290214531924537, -1.293898776795548, -2.8318487741680904, -0.06307797644923759, -10.919110312014842, 20.749536769914567, 7.018062070210351, 0.24501283466815948, -1.7376333475112915, -1.948886513710022, -1.0222158432006836, 1.6154115200042725, 2.6707282066345215
0.7342212763341681, 0.009739087719833912, 0.37286574823346935, -1.2943259729786796, -2.8325213152122872, -0.0640004904554693, -9.530503636199308, 19.184497970598873, 5.676248010972651, 0.24490851163864136, -1.743256688117981, -1.9424186944961548, -1.0222281217575073, 1.6153830289840698, 2.670719861984253
0.7374384929899829, 0.010536853691913263, 0.3728121444542124, -1.2945633171629414, -2.8330622943871675, -0.06474816258720867, -9.570446830853038, 19.278217168701104, 5.674793831322207, 0.24494478106498718, -1.7488576173782349, -1.935863733291626, -1.0222524404525757, 1.615346908569336, 2.6707563400268555
0.7410844524668396, 0.011477597701964354, 0.3727472727136635, -1.294724037407908, -2.8337455575502677, -0.06563138168513288, -10.246210897899571, 19.259884854984005, 5.84799312868309, 0.24494071304798126, -1.7537599802017212, -1.9301432371139526, -1.022248387336731, 1.6153870820999146, 2.6707804203033447
0.7448159402807393, 0.012376971876900632, 0.3726962100600329, -1.295091520847949, -2.83437974835733, -0.06666776672440447, -9.697697857958975, 18.663309171339478, 5.0800240844669124, 0.24494071304798126, -1.7595373392105103, -1.9235111474990845, -1.022268295288086, 1.6153788566589355, 2.6707687377929688
0.7485158891944549, 0.013304955948146166, 0.3725426494708482, -1.2952206487651818, -2.8350489606412745, -0.06747676872040881, -8.349070063966284, 18.966104129267002, 4.7072881712714825, 0.24496862292289734, -1.765278935432434, -1.9168310165405273, -1.02228844165802, 1.6154197454452515, 2.6707241535186768
0.7521797867829568, 0.01424783607034973, 0.37235487805120504, -1.2954870503648266, -2.8355638925935907, -0.06832872200977193, -8.019339556574886, 19.106083626315662, 4.675101875314718, 0.24492406845092773, -1.7710086107254028, -1.9102340936660767, -1.0222562551498413, 1.6154155731201172, 2.6707522869110107
0.7559330456581612, 0.015188392594248699, 0.37211050357219544, -1.2957386417280532, -2.836134404310753, -0.06907323756890313, -7.623125879028273, 18.105008584365116, 3.6973438456624645, 0.24493668973445892, -1.776877999305725, -1.9035757780075073, -1.0222643613815308, 1.6153748035430908, 2.6707406044006348
0.7577936109021083, 0.015667085095556834, 0.3720408346959958, -1.295803128174095, -2.836519938182164, -0.06955965175323368, -8.519914906128756, 18.301397649329452, 3.809942279353468, 0.24500061571598053, -1.7797313928604126, -1.900261640548706, -1.0222803354263306, 1.6153345108032227, 2.6707162857055664
0.761493191836939, 0.01658210706176703, 0.3718559930874046, -1.2960854075225503, -2.8371254783505875, -0.07051949196321651, -8.481904746710622, 18.958846209921933, 4.490362969093238, 0.24495670199394226, -1.7855325937271118, -1.8935455083847046, -1.0222641229629517, 1.6153748035430908, 2.670732259750366
0.7651782514491272, 0.017536643991130044, 0.37161285502250796, -1.2962571654254262, -2.837753953413804, -0.071282715952493, -8.401117100081999, 18.774207921204045, 3.651788815244959, 0.24493667483329773, -1.791225552558899, -1.8869397640228271, -1.0222722291946411, 1.6153547763824463, 2.6707162857055664
0.7688395231402151, 0.018358381766670158, 0.371436355654944, -1.2967254860032436, -2.8383298404425377, -0.07226672475962218, -7.828188074444182, 18.406134240468536, 4.1168421972960205, 0.2449604719877243, -1.7969471216201782, -1.8802357912063599, -1.0223441123962402, 1.615342378616333, 2.670692205429077
0.7725199203076302, 0.019358163453068258, 0.37122970938735433, -1.296771812794244, -2.8390572781658117, -0.07329621584052566, -7.683251499536881, 17.750645726027326, 4.262509453927083, 0.24498462677001953, -1.8026129007339478, -1.8736118078231812, -1.0222960710525513, 1.6153583526611328, 2.6707403659820557
0.7762022674503445, 0.02023713319195638, 0.37101373840923785, -1.2972100316927344, -2.839690964582308, -0.0742116766868961, -6.5002218387214805, 17.299841200369283, 3.0638192103649073, 0.24498462677001953, -1.8083912134170532, -1.8669174909591675, -1.0223280191421509, 1.615334391593933, 2.670736312866211
0.779407029059727, 0.021027525114516735, 0.37081448723371063, -1.2974227363904571, -2.840336712661197, -0.0750661748217245, -6.303504087286766, 17.213965784020164, 3.4154517079543605, 0.2449764460325241, -1.8140407800674438, -1.860277533531189, -1.0223199129104614, 1.615382432937622, 2.6707041263580322
0.7830354050890543, 0.021962631329562738, 0.3706141459661203, -1.2976700382824882, -2.84110318354691, -0.07610486963895201, -8.07124815430772, 18.020847911488136, 3.4946075389166866, 0.2450285404920578, -1.818935513496399, -1.8544777631759644, -1.0223280191421509, 1.6154553890228271, 2.6707041263580322
0.786592567237107, 0.022791157039566308, 0.3703683217101056, -1.2980406960092794, -2.8417560063008787, -0.07707233838199277, -6.615487798863288, 17.383015820881994, 3.1287254754559295, 0.2450411021709442, -1.8244291543960571, -1.8479684591293335, -1.0223157405853271, 1.6153345108032227, 2.6707205772399902
0.7901236905927888, 0.023746895093863664, 0.37013258040500535, -1.2982700299114953, -2.8424308085142784, -0.07805362744248864, -7.149530831020802, 18.041912126964988, 3.3144629463589883, 0.24504511058330536, -1.8299957513809204, -1.841491937637329, -1.022312045097351, 1.6154032945632935, 2.6706957817077637
0.7936524622410039, 0.024587136328813715, 0.3699164556396749, -1.298599382991856, -2.8431983919405575, -0.07907957887907431, -6.805274804070743, 18.36705493578828, 3.665237866861881, 0.24500061571598053, -1.8354417085647583, -1.8349826335906982, -1.022300124168396, 1.6154234409332275, 2.6707122325897217
0.7967547337797765, 0.02538281273726277, 0.36970525947026633, -1.2988547004688378, -2.8438220259975235, -0.0800369763091292, -6.209681645471379, 17.974607055964036, 2.406206991066873, 0.24501611292362213, -1.8408442735671997, -1.8284984827041626, -1.0223082304000854, 1.6153825521469116, 2.6707441806793213
0.8002661787427083, 0.026254232528553977, 0.369611057189123, -1.2992208257769795, -2.8447140083346643, -0.08124428295276966, -7.14403462516389, 18.08153765176743, 3.8371700814334284, 0.2450161576271057, -1.8455067873001099, -1.8227882385253906, -1.0222997665405273, 1.6153991222381592, 2.6707003116607666
0.8036632139958827, 0.02707829511517259, 0.3694430071896657, -1.2995227957794973, -2.845491178295049, -0.08240226366684686, -7.088140480335232, 18.954343133192964, 3.958793949019334, 0.24498413503170013, -1.8506819009780884, -1.8164302110671997, -1.0223041772842407, 1.6153624057769775, 2.670708179473877
0.8070983831586737, 0.027943421092733955, 0.3692667065025406, -1.2998336158743622, -2.8463554211463293, -0.08365691953091038, -7.134779834285027, 17.24292392638899, 3.426566408739766, 0.24501614272594452, -1.855876088142395, -1.810093879699707, -1.0222762823104858, 1.6154394149780273, 2.6707284450531006
0.8104877082193459, 0.02877962600697206, 0.36907870524636166, -1.3001994989262413, -2.8471161792751047, -0.08474244328009418, -7.4767174339979166, 17.792787178185858, 4.641031275973383, 0.24504518508911133, -1.8610512018203735, -1.803733229637146, -1.0223320722579956, 1.615330457687378, 2.6707003116607666
0.8138262038600582, 0.029630092708414248, 0.36895312170963646, -1.3005330071801398, -2.84798201401059, -0.08595573126970525, -6.890753004055868, 18.53803428641866, 4.440360466406197, 0.2450411021709442, -1.866078495979309, -1.7973687648773193, -1.0222760438919067, 1.615358829498291, 2.6707284450531006
0.8167639495644876, 0.0303680067962879, 0.36889954982623924, -1.3008748671377552, -2.8488227817307408, -0.08721137864826985, -5.585275507187541, 17.773424837010257, 3.8403532009038317, 0.24500805139541626, -1.870409607887268, -1.7919343709945679, -1.0222841501235962, 1.615386724472046, 2.670692205429077
0.8200233626580603, 0.031211102419511444, 0.368825600365856, -1.3010685419007046, -2.849804795574399, -0.08851339616215885, -6.059886794036457, 18.903440151898383, 5.175424586746104, 0.24505707621574402, -1.875369668006897, -1.785717248916626, -1.0222920179367065, 1.6153950691223145, 2.6706719398498535
0.8232451589133365, 0.032006115658107466, 0.3686704539447751, -1.3014689489589537, -2.8506244776443332, -0.08976127160815552, -7.419356512960784, 19.84685349598309, 5.3384022760015934, 0.2450370490550995, -1.8802052736282349, -1.7795811891555786, -1.022312045097351, 1.6153991222381592, 2.670692205429077
0.8264825758492862, 0.03285591343298294, 0.3684889252902923, -1.3017233238403296, -2.8514910653242307, -0.09089510358563434, -6.50702467557637, 18.894770445687524, 4.834789686449272, 0.2450370341539383, -1.8850494623184204, -1.773518443107605, -1.0222960710525513, 1.6154353618621826, 2.670692205429077
0.8296602790895127, 0.03363349622867341, 0.36841542004185157, -1.3021650366559996, -2.8524285513499, -0.09225950574064501, -7.073802244859319, 19.700098795223024, 5.299314971190546, 0.24505659937858582, -1.8898459672927856, -1.7674258947372437, -1.0222920179367065, 1.6153991222381592, 2.6706600189208984
0.8328152832566454, 0.03442278291745973, 0.3682983272128235, -1.3025854184825565, -2.853264617000538, -0.09356244109665839, -7.9984502536746165, 20.2100315650325, 5.568315617124563, 0.245032399892807, -1.8946110010147095, -1.7613492012023926, -1.0223519802093506, 1.615382432937622, 2.670692205429077
0.8355915019884832, 0.03511011229015015, 0.3682075926847976, -1.3028613611689626, -2.854094271114866, -0.09470553215478685, -7.071738483531213, 19.54378169522972, 4.980556764236959, 0.24506036937236786, -1.8987308740615845, -1.7560913562774658, -1.0222681760787964, 1.6154069900512695, 2.670692205429077
0.8387714149449096, 0.03590909103159478, 0.3682559189861152, -1.3032928489047662, -2.8551312196135332, -0.09626627337956763, -7.257724094610561, 18.963637147139817, 6.2578556898915965, 0.24508079886436462, -1.903432011604309, -1.749916911125183, -1.022312045097351, 1.6154029369354248, 2.6707162857055664
0.8418998430792362, 0.03670174025066353, 0.368133534998315, -1.3036451123288986, -2.8561144600404935, -0.09765284597724971, -7.648152152502325, 19.64723179244417, 7.193918399824111, 0.24504028260707855, -1.9080106019973755, -1.743929147720337, -1.0223280191421509, 1.6153991222381592, 2.670680284500122
0.8450450349618686, 0.03746145886482892, 0.3679912769056941, 1.3036446139310558, 2.856044898974391, 0.09890043246035848, -6.7390837977125155, 19.102704842908867, 6.0550240793988825, 0.24511249363422394, -1.912692666053772, -1.7379485368728638, -1.0223039388656616, 1.6153991222381592, 2.6707041263580322
0.8477287753126792, 0.03813493247640738, 0.36801946384536144, 1.303142324396431, 2.855083377128208, 0.10019261524882624, -6.753481299831852, 18.689142059671955, 6.537244255598299, 0.24507266283035278, -1.9172359704971313, -1.7319196462631226, -1.022300124168396, 1.6154032945632935, 2.6707122325897217
0.8496646282084764, 0.03863563728225693, 0.3678983340513452, 1.3028192869446928, 2.854554713211668, 0.10094003057275622, -7.130433419041467, 19.095300070107836, 6.595804978854787, 0.24504396319389343, -1.9196010828018188, -1.7289161682128906, -1.0223039388656616, 1.6153991222381592, 2.670692205429077
0.8526699405429584, 0.03937851239079184, 0.36776228455974375, 1.3023471725820768, 2.8535755763558512, 0.10217928385738878, -6.946283874934115, 19.89079110972976, 6.446339977596484, 0.24508830904960632, -1.9246774911880493, -1.7223832607269287, -1.0223039388656616, 1.6153950691223145, 2.670708179473877
0.855679918600279, 0.040151319888373116, 0.3676551142008793, 1.3017907256383185, 2.8526145205610582, 0.10351624692702012, -7.030345138630593, 19.12546320360279, 5.644240547224335, 0.24509239196777344, -1.9286099672317505, -1.7172715663909912, -1.022339940071106, 1.6153664588928223, 2.670680284500122
0.8586997256713029, 0.04091621326137147, 0.36745224274688276, 1.301306959695727, 2.851731462751456, 0.10477902268662685, -7.157065049691903, 19.09891219686883, 6.061754879515418, 0.24510788917541504, -1.9331380128860474, -1.7114033699035645, -1.022340178489685, 1.615431547164917, 2.6707162857055664
0.8616701377493086, 0.041628271218976574, 0.3673411311677615, 1.3008232248268394, 2.85068297393116, 0.10602323191382963, -7.450282323975977, 18.90060516682804, 6.218539470006813, 0.24505220353603363, -1.9376546144485474, -1.705540418624878, -1.0222922563552856, 1.6153504848480225, 2.670652151107788
0.8642764523854909, 0.04229569793879547, 0.3671873794033138, 1.3003417182538746, 2.849878477715684, 0.10705902715079138, -6.827861802327799, 18.596423618158532, 5.783769441475405, 0.2451203316450119, -1.942109227180481, -1.6998165845870972, -1.0222920179367065, 1.6153748035430908, 2.6706602573394775
0.8660874716989316, 0.04273991256166251, 0.3670732491670652, 1.3001258085527843, 2.849286843265174, 0.10785718203793997, -7.301370568669918, 18.36818835596661, 5.175218400078657, 0.24513287842273712, -1.9442836046218872, -1.6969927549362183, -1.022312045097351, 1.615382432937622, 2.670696258544922
0.8675246283372462, 0.04310838582735206, 0.36704086482451415, 1.299873190647789, 2.8488026949658765, 0.10848755142444866, -7.242246693978531, 18.23488242643529, 5.92124421241713, 0.24506404995918274, -1.9464374780654907, -1.694112777709961, -1.0223160982131958, 1.615415096282959, 2.670696258544922
0.8689537266814712, 0.043494069600272786, 0.36693565642046455, 1.2995319991688832, 2.848392816979963, 0.10910357953445896, -7.465805678353155, 18.17346993634345, 6.083500122527152, 0.24515296518802643, -1.9486976861953735, -1.6913248300552368, -1.0222920179367065, 1.615370750427246, 2.670708179473877
0.8731913433563152, 0.04450447295701173, 0.36665467156825937, 1.2989738446320132, 2.846920355941031, 0.1108972386963578, -6.695928529573493, 17.908495173860103, 6.405481903994707, 0.24513287842273712, -1.9550477266311646, -1.68302583694458, -1.0223160982131958, 1.6153991222381592, 2.670724391937256
0.8756235831138955, 0.04510049784080172, 0.36642765776269626, 1.2986054233656992, 2.8462222556951473, 0.11188362591275477, -6.225554613005168, 18.320939991541835, 5.650713748119382, 0.24508829414844513, -1.9593006372451782, -1.6776100397109985, -1.022300124168396, 1.6154274940490723, 2.670692205429077
0.8783347682097349, 0.04577580325118798, 0.3661944715971416, 1.2981171981280246, 2.8453416889639103, 0.11294131118230247, -6.3896512143448065, 18.443036978879487, 5.191058481426888, 0.2451162338256836, -1.96290123462677, -1.6729700565338135, -1.0222722291946411, 1.6154193878173828, 2.670668363571167
0.8809918411324555, 0.04647350018378651, 0.3659832131993054, 1.297695404232167, 2.844529397082963, 0.11411618724938549, -5.921626346636145, 17.63045934505373, 5.4813298996154955, 0.24512864649295807, -1.9670706987380981, -1.667710542678833, -1.0222681760787964, 1.6153907775878906, 2.670680284500122
0.8835877421010975, 0.04718009552501932, 0.3657390658827479, 1.2971937270350244, 2.843742990222833, 0.11517033239182004, -5.660388685549223, 16.921237359707387, 6.312115475785259, 0.24514055252075195, -1.971014142036438, -1.6625868082046509, -1.0222800970077515, 1.615382432937622, 2.6706440448760986
0.8857843127340165, 0.04769133867015954, 0.36547469795576626, 1.2968594876102595, 2.8430912654515326, 0.1160148730968761, -5.0956755766986035, 16.23843873609737, 5.069724112293219, 0.24515701830387115, -1.974915623664856, -1.657645583152771, -1.0222762823104858, 1.615415096282959, 2.6706643104553223
0.8882283121648303, 0.04827092499079606, 0.36518772063967864, 1.2965376549239358, 2.8423248503671097, 0.11697661545247132, -5.067323325506326, 14.993461578792797, 4.632676225515699, 0.2451450526714325, -1.9782110452651978, -1.6534132957458496, -1.022260308265686, 1.6154234409332275, 2.6706924438476562
0.8905716278632663, 0.048810190083634165, 0.36496217880598125, 1.296214543301375, 2.841537102816362, 0.1178970026195515, -4.204170166246416, 14.871211882818926, 4.239575567489399, 0.24512049555778503, -1.9818745851516724, -1.6487617492675781, -1.0222722291946411, 1.615427017211914, 2.670668363571167
0.8927714947795653, 0.049416514010178804, 0.3646987925049876, 1.295818445038265, 2.8409239061669442, 0.11879198313959534, -3.4804358458047755, 14.343677063727997, 3.9200894524392016, 0.24516846239566803, -1.985322117805481, -1.6443654298782349, -1.0222803354263306, 1.6153908967971802, 2.670668363571167
0.8948850043691394, 0.049905794414603126, 0.3643854408582636, 1.29554978729142, 2.8402762564715456, 0.11959165867221734, -3.348801860215075, 13.09489219580557, 3.1494495894174115, 0.24515694379806519, -1.9886223077774048, -1.6402608156204224, -1.0222562551498413, 1.6153825521469116, 2.670684337615967
0.8967978214819401, 0.05037157729488249, 0.3640945457335795, 1.295256601164418, 2.839717149279028, 0.12026411269207037, -4.07233370537458, 13.046289599437786, 2.466237798434774, 0.24512438476085663, -1.9916735887527466, -1.6364046335220337, -1.0222643613815308, 1.6153825521469116, 2.6706724166870117
0.8983694194082464, 0.050817670507069965, 0.36387316339398257, 1.2949190966101232, 2.839297075785859, 0.12086339098796517, -4.25313153595888, 11.81070286135222, 1.7161516144992486, 0.24515293538570404, -1.9945894479751587, -1.632835865020752, -1.0222316980361938, 1.6153748035430908, 2.670640230178833
0.9000372242754401, 0.05117965656033495, 0.3635897368455794, 1.2948447158641947, 2.8387732374871253, 0.12147892688781049, -3.76540777592468, 11.19299246515659, 1.0983390456201372, 0.2451043426990509, -1.9968973398208618, -1.629906177520752, -1.0222197771072388, 1.6153464317321777, 2.670696258544922
0.9015578489856731, 0.051596658649365745, 0.3633782588412914, 1.294533404524322, 2.8383984723765168, 0.12210677438876431, -3.1155194214874045, 8.867281847425428, 1.377338233552213, 0.24509647488594055, -1.999360203742981, -1.626888394355774, -1.02225661277771, 1.615403413772583, 2.6706643104553223
0.9028645291476257, 0.05191752944467237, 0.3631082649784133, 1.294326513286758, 2.838043707781145, 0.12244595464445082, -3.63642395041361, 8.125081077199482, 0.24953515037704377, 0.24512030184268951, -2.00148606300354, -1.6242245435714722, -1.0221800804138184, 1.615382432937622, 2.6706724166870117
0.9040384956498368, 0.05224136278092449, 0.36292138532193197, 1.2941612126592823, 2.837736238635729, 0.12294343051891558, -2.8183235033624285, 6.219026398102494, -0.023308811148644693, 0.24508045613765717, -2.003394365310669, -1.621939778327942, -1.0222002267837524, 1.615386724472046, 2.670696496963501
0.9048537893182557, 0.05236521764119763, 0.3627503794362024, 1.2941561974253766, 2.8374583980236583, 0.12320083956403599, -2.35125832272454, 4.3624274972886905, -1.6221831664343194, 0.24507637321949005, -2.00496506690979, -1.6200660467147827, -1.022180438041687, 1.6153991222381592, 2.670656204223633
0.905612174207222, 0.0525420648301075, 0.36261357019535473, 1.2940800918804778, 2.837207579439791, 0.12348426059433645, -0.7820304232711699, 2.4234711545439267, -1.3221415316498786, 0.24506446719169617, -2.00618052482605, -1.6185792684555054, -1.0221401453018188, 1.6153907775878906, 2.6706724166870117
0.906109517117881, 0.05267461622117035, 0.3624505953350975, 1.2939938640473154, 2.837216566858395, 0.12353849988526783, -0.6150345778633838, 2.4061128465217005, -0.855166668413195, 0.24502836167812347, -2.00691294670105, -1.617661476135254, -1.022160291671753, 1.615386724472046, 2.6706080436706543
0.9064416443958467, 0.05277472681602824, 0.36239126754945317, 1.2938637110977769, 2.8370959429776534, 0.12371062667545651, 0.17213489499133233, 1.112306958387867, -1.211836314022032, 0.24506859481334686, -2.0074989795684814, -1.6169975996017456, -1.022168517112732, 1.6153664588928223, 2.670640230178833
0.9065039341767668, 0.052808413809179965, 0.36241233559969366, 1.2939269747311963, 2.8370786795482306, 0.12381782207437038, 2.597533250397711, -1.0670639643890312, -2.4571256953807357, 0.2450842410326004, -2.007678747177124, -1.6167820692062378, -1.022135853767395, 1.6154193878173828, 2.670668363571167
0.9064187252209793, 0.05276238548909398, 0.3623666062839425, 1.2939890750196896, 2.8371564977992216, 0.12365841742685334, 4.81847830560537, -4.964535217687911, -3.0952010022108656, 0.2450685203075409, -2.0076229572296143, -1.6169453859329224, -1.0221644639968872, 1.6154029369354248, 2.670668363571167
0.9063837346111875, 0.0527100468535657, 0.36245955597787394, 1.293991335527127, 2.8370744474219767, 0.12368663468523329, 5.780777019377627, -8.365169276709334, -3.913155288744453, 0.2450365573167801, -2.0074350833892822, -1.6170376539230347, -1.0222283601760864, 1.615403413772583, 2.6706323623657227
0.90637247491657, 0.05271568004480368, 0.3625772159322088, 1.2939189276335734, 2.836967202785847, 0.12390830468078624, 6.874717929809789, -10.73967165269649, -4.418416903744524, 0.24504469335079193, -2.0072953701019287, -1.6170697212219238, -1.0222123861312866, 1.6154471635818481, 2.6706080436706543
0.9062866733804895, 0.05268524959939573, 0.36266302532540007, 1.293934974320409, 2.8369286938969966, 0.12391091009408632, 8.085837704810489, -13.589333491035246, -4.346473159971061, 0.24500444531440735, -2.0070559978485107, -1.6170896291732788, -1.0222243070602417, 1.6154069900512695, 2.6705963611602783
0.9062474334990142, 0.052622298593937786, 0.362952187943105, 1.2935229961323145, 2.836790412487251, 0.12420958584121267, 9.047113338565834, -15.85062025116363, -4.382338122443081, 0.24496455490589142, -2.0068933963775635, -1.6171785593032837, -1.0222042798995972, 1.6154110431671143, 2.6704483032226562
0.9061753866955308, 0.052580578234489486, 0.3630535972217079, 1.2930317051681202, 2.8369337373233514, 0.12424725607611935, 10.399586857343134, -17.919280194967595, -4.63531175877269, 0.24494443833827972, -2.006662130355835, -1.6172295808792114, -1.0222481489181519, 1.6153583526611328, 2.670100450515747
0.9060532126619951, 0.052506333904902766, 0.363170720123939, 1.2929179346074036, 2.836903845474208, 0.1243228569636084, 11.386562528957365, -21.616385839223323, -5.029292590331009, 0.24490444362163544, -2.00635027885437, -1.6174458265304565, -1.0222121477127075, 1.6154029369354248, 2.6699366569519043
0.9059066709467926, 0.05238318738396581, 0.3632500879522648, 1.2929933080450906, 2.836843804671329, 0.12430364800796301, 12.720810521271417, -23.624035544745734, -5.2793199895320555, 0.24484893679618835, -2.0061275959014893, -1.6177220344543457, -1.0222643613815308, 1.6154069900512695, 2.6699366569519043
0.9056202495007091, 0.052183133301550104, 0.36324036667852816, 1.2932350720302723, 2.8369203796324682, 0.12409822672339643, 13.57304214108303, -24.71705852847144, -5.305084555076972, 0.24468843638896942, -2.005692720413208, -1.6182124614715576, -1.0222643613815308, 1.6154189109802246, 2.6698966026306152
0.9052479022725493, 0.051942078919254744, 0.3631426966375134, 1.293597753928595, 2.8371129108199713, 0.12384951968513051, 13.740802908001811, -24.49508473674927, -5.0666685010032415, 0.24453695118427277, -2.0052144527435303, -1.6190438270568848, -1.0222684144973755, 1.6154348850250244, 2.6698808670043945
0.9046507981253074, 0.051546126680888614, 0.3629093402107966, 1.294267422513737, 2.8373464848731085, 0.1231892476705997, 13.32927931444402, -23.727774198661532, -5.1038715321505945, 0.2442408949136734, -2.004544496536255, -1.6202350854873657, -1.0222442150115967, 1.6154348850250244, 2.669924736022949
0.9042970873913675, 0.051365615988624644, 0.3627167641862164, 1.2945069097540085, 2.8376183076206223, 0.12270498199484732, 12.795722107579662, -23.961281366574845, -4.883316302371468, 0.2441692352294922, -2.0042049884796143, -1.621078610420227, -1.02225661277771, 1.6154389381408691, 2.669888734817505
0.9033552007745752, 0.05096236242777329, 0.36227036184005423, 1.2952403308195763, 2.838323339260991, 0.12170788052529406, 13.54218862077787, -24.05685660750882, -4.68679834096639, 0.24394144117832184, -2.003248453140259, -1.623184084892273, -1.0222886800765991, 1.6154429912567139, 2.669956684112549
0.9022603586311564, 0.05059413549449986, 0.3616442387721694, 1.295946586554637, 2.8393252215563134, 0.1203463935790835, 14.090275802488582, -25.862549979605852, -5.866001903093965, 0.2438051402568817, -2.002187967300415, -1.6255987882614136, -1.0222684144973755, 1.6154470443725586, 2.6699445247650146
0.9009739494341342, 0.05008060593616982, 0.3609287784167623, 1.2968010092081153, 2.8403176884723096, 0.11880841169797952, 13.20646646283269, -25.441212642666788, -8.063606396680179, 0.24368953704833984, -2.00089430809021, -1.6284561157226562, -1.0222162008285522, 1.6154069900512695, 2.6699206829071045
0.8994761741454349, 0.04960558886628746, 0.36015715696848866, 1.2976630046643993, 2.8415815603856673, 0.11708599907489475, 13.665665068269687, -26.12112501506716, -7.955505299919071, 0.24356971681118011, -1.999444603919983, -1.6318249702453613, -1.0222042798995972, 1.6153829097747803, 2.66988468170166
0.8977877587918686, 0.049104053824506576, 0.359366517435656, 1.2985389383165997, 2.8429232683889367, 0.11518172012122375, 11.932327263535704, -23.52934142068754, -9.463649293122328, 0.2434537708759308, -1.9976578950881958, -1.6354857683181763, -1.0222042798995972, 1.6154229640960693, 2.6699087619781494
0.8959360910079726, 0.04848886590816242, 0.35873553602962055, 1.2994065023619676, 2.8441887371913754, 0.1135284515419441, 11.758483074606156, -23.789566770812723, -10.291730750900964, 0.2433139979839325, -1.9955803155899048, -1.639557957649231, -1.0221844911575317, 1.6154229640960693, 2.6699206829071045
0.8942229212551944, 0.047944022630822675, 0.3580070259943427, 1.3002744786478693, 2.845459274252393, 0.1117334386188939, 11.145574781375368, -22.32308640438976, -11.265662711825327, 0.24311736226081848, -1.9933816194534302, -1.6438653469085693, -1.0220882892608643, 1.615415096282959, 2.669856548309326
0.892142650876509, 0.04738565606864019, 0.35739220976090597, 1.3011287034340797, 2.846828579005995, 0.10985275383941709, 11.52404313982128, -22.50688762444589, -11.85666778051191, 0.2430695742368698, -1.990890622138977, -1.6483302116394043, -1.0220845937728882, 1.6154032945632935, 2.6698968410491943
0.8899837888114975, 0.046702447375637945, 0.3569562668474163, 1.3020356625754728, 2.847929128499378, 0.10821177493709033, 11.723542965052191, -23.299030005257023, -12.762517084899677, 0.24294142425060272, -1.9884587526321411, -1.6523346900939941, -1.0219964981079102, 1.6153910160064697, 2.6699326038360596
0.8877931062442154, 0.04607379609496507, 0.35673995731285213, 1.3027315499408152, 2.8489552315456814, 0.10679940224006589, 12.307696958363923, -23.62821023942189, -12.665582766890365, 0.24285800755023956, -1.9854837656021118, -1.656862497329712, -1.0219367742538452, 1.6153825521469116, 2.669912815093994
0.8855494341911816, 0.045322058862062135, 0.3568670657956486, 1.3034352938836706, 2.8495941461215635, 0.10575392020557668, 11.663414258785245, -23.00694503727025, -12.087544374888312, 0.2425861358642578, -1.9817596673965454, -1.6619391441345215, -1.0219007730484009, 1.615386724472046, 2.66992449760437
0.8836211064161159, 0.044624545209587585, 0.3572649162385998, 1.3040109048034771, 2.8498247702034436, 0.10525770811317167, 12.217090544683543, -22.372393111821708, -12.048711814691833, 0.24233484268188477, -1.9786077737808228, -1.665695071220398, -1.0218439102172852, 1.6154073476791382, 2.669936418533325
0.8814266075087093, 0.043723186976942316, 0.35791719323399235, 1.3047224788425487, 2.849888186371512, 0.1048251923326637, 11.626773461361374, -23.058342911995457, -11.29157360013626, 0.2420790195465088, -1.9753443002700806, -1.669358730316162, -1.021929144859314, 1.615386724472046, 2.669956684112549
0.879202981986959, 0.04292636999461029, 0.3589094146985851, 1.3050611665833456, 2.84970250544769, 0.10485644073327471, 12.328808559509003, -21.752212311604207, -11.047539076770484, 0.2416103482246399, -1.971319317817688, -1.6734260320663452, -1.0218721628189087, 1.615354299545288, 2.66990065574646
0.8769495331050702, 0.0419535670815899, 0.360064222999923, 1.305717952448435, 2.849225876244058, 0.10500688727521656, 13.187856911342553, -23.351078760678206, -10.293760449026712, 0.24121443927288055, -1.9670301675796509, -1.67745840549469, -1.0218721628189087, 1.6153991222381592, 2.6698968410491943
0.8746160151114846, 0.04102491945206581, 0.3614255739917398, 1.306058547891896, 2.8486429459105516, 0.10543603899241677, 12.77039012336604, -22.924490637406524, -9.475072533940985, 0.24079172313213348, -1.96241295337677, -1.6815738677978516, -1.021884799003601, 1.615415096282959, 2.6699166297912598
0.8725362737101555, 0.0403098128594476, 0.3627657145367526, 1.3061914682938016, 2.848066977882039, 0.10592892172089963, 13.394590387604065, -24.01660169469605, -8.362314115805324, 0.2405398190021515, -1.9576717615127563, -1.6857444047927856, -1.0219767093658447, 1.615386724472046, 2.669912576675415
0.8700967591066904, 0.039436579345438955, 0.3643702727455969, 1.3063275428891865, 2.8473081269184273, 0.10665423105367892, 13.453544098534948, -24.597347614365585, -6.988465227864175, 0.24022388458251953, -1.952717900276184, -1.689957857131958, -1.021952509880066, 1.6153907775878906, 2.66990065574646
0.8675383398372767, 0.0385865898214951, 0.36593602735151254, 1.3063878478462798, 2.8467009246386525, 0.1071577860432089, 13.450343546642758, -25.444578660348164, -5.178792576643211, 0.23989973962306976, -1.9483128786087036, -1.6938093900680542, -1.0219720602035522, 1.615358829498291, 2.6699166297912598
0.8648216842950351, 0.037691430114785346, 0.36745713016504844, 1.306600978277783, 2.8461237299478395, 0.10772522629096849, 13.043456774976809, -25.91055206869567, -4.706801632041612, 0.23974792659282684, -1.943078637123108, -1.6985371112823486, -1.0220364332199097, 1.6154032945632935, 2.669928550720215
0.8619669836472162, 0.0367962865062362, 0.36869619464522385, 1.306872494648906, 2.8458731726344224, 0.10781370328928302, 13.571727074108521, -25.66403622964136, -4.928071557028204, 0.23952443897724152, -1.9377466440200806, -1.7035932540893555, -1.022032618522644, 1.6153548955917358, 2.6699326038360596
0.8592484652491069, 0.03597557829560325, 0.3697062209270061, 1.3071623006069966, 2.8458260328270826, 0.10770412912899595, 13.642291204838305, -25.12177560060952, -4.1437609227558525, 0.2392888218164444, -1.9322458505630493, -1.7091608047485352, -1.0220602750778198, 1.6153628826141357, 2.6698923110961914
0.8560125530125333, 0.03501212556990115, 0.3706912429844437, 1.3076383152413331, 2.8459180117366314, 0.10735074225642277, 13.513638256636758, -24.433382464697075, -3.626123081881044, 0.2391168773174286, -1.9274660348892212, -1.7143133878707886, -1.0220519304275513, 1.6153628826141357, 2.6698923110961914
0.85218276420403, 0.033875777095133466, 0.37145033274464434, 1.3082870688012318, 2.8464138506727727, 0.10644602673289297, 13.842901413945805, -24.712513014098953, -3.9154087595462244, 0.2388889491558075, -1.9211207628250122, -1.7214281558990479, -1.0220805406570435, 1.6153748035430908, 2.669884443283081
0.8490379013544895, 0.033019619245715504, 0.37196730951515, 1.3087304809135654, 2.8469977239750253, 0.10569020984455113, 13.137520800177503, -23.46715969727098, -3.6387948204681906, 0.23873353004455566, -1.91533625125885, -1.7281736135482788, -1.0220845937728882, 1.615370750427246, 2.66990065574646
0.8452415681627032, 0.0319494839255101, 0.37225468909787235, 1.3095413432996397, 2.847932003747504, 0.1043086172136031, 12.63684386385065, -23.780877404144746, -4.623393887614887, 0.2385692596435547, -1.9103046655654907, -1.7344990968704224, -1.0221129655838013, 1.6153665781021118, 2.669896364212036
0.8413049558515069, 0.03076409466837295, 0.372454901341526, 1.3105790500383911, 2.8488517152246806, 0.10280493699894318, 11.541030894339649, -21.782507841266433, -5.130127347872539, 0.23835797607898712, -1.9043198823928833, -1.7420272827148438, -1.0220643281936646, 1.6153665781021118, 2.6699368953704834
0.8372355463580078, 0.02959030301684636, 0.37253585307999004, 1.3114586282093388, 2.8500578068196654, 0.10114681304915246, 11.869424527297365, -21.46663029655644, -4.112602355731941, 0.23812532424926758, -1.8983632326126099, -1.749796748161316, -1.0220643281936646, 1.6153748035430908, 2.669924736022949
0.8336152154091083, 0.028614820410036393, 0.3724200388590202, 1.3123148662284179, 2.8512661897075544, 0.09938977924787341, 10.26175090008857, -20.554428331351648, -5.184614865247807, 0.2379414588212967, -1.8930784463882446, -1.7568782567977905, -1.0220364332199097, 1.6153428554534912, 2.66988468170166
0.8294063065894375, 0.027399182863813945, 0.37228436384414426, -1.3130898762558219, -2.8519471047889673, -0.0974358759671865, 9.24362174775813, -19.931907352838756, -5.819180004376889, 0.23772595822811127, -1.8869906663894653, -1.7649677991867065, -1.0220285654067993, 1.6153669357299805, 2.669912576675415
0.8251502102652679, 0.026112585831912626, 0.37219884919985136, -1.312937938206937, -2.8503784919577937, -0.09538912470055706, 8.575889922886764, -18.573970945067263, -5.380939535744476, 0.2374383956193924, -1.8808380365371704, -1.7731236219406128, -1.0220003128051758, 1.6153987646102905, 2.6699488162994385
0.8209331862350002, 0.024865034170793172, 0.3720910878063922, -1.3127887654645836, -2.8488096898310222, -0.09347451401486497, 9.368927195732113, -18.932886764415294, -6.3001823158604875, 0.2371339350938797, -1.8747388124465942, -1.7813364267349243, -1.022020697593689, 1.6153665781021118, 2.6698966026306152
0.8172124212931975, 0.023720622011303212, 0.37192480643735026, -1.3127388428096785, -2.8473108002553267, -0.09160517266573913, 8.656015316590915, -18.96377504142254, -6.0309910202231665, 0.23681047558784485, -1.8686496019363403, -1.7894327640533447, -1.0220285654067993, 1.6153788566589355, 2.669917106628418
0.8130068943129135, 0.022336011865637682, 0.3718690569009639, -1.31283518637062, -2.8457890476813903, -0.08970280452714152, 7.851752760864574, -19.35112063169749, -5.404339930099411, 0.23636262118816376, -1.8624969720840454, -1.7974450588226318, -1.0220125913619995, 1.6153229475021362, 2.6698927879333496
0.8103843300510477, 0.021501848817833513, 0.371795748724003, -1.3128635976189986, -2.8447799074933253, -0.08862697608530787, 7.145912099429727, -18.852149953425055, -6.136840925787629, 0.23615053296089172, -1.8594142198562622, -1.8014020919799805, -1.0219929218292236, 1.6153907775878906, 2.6699047088623047
0.8083067350935249, 0.020793771585641514, 0.3718772950618399, -1.3129794257983163, -2.8441059374857716, -0.08784381011034087, 7.8238568047357795, -18.70096219591833, -6.485466778375917, 0.23590311408042908, -1.8563801050186157, -1.8054004907608032, -1.0219603776931763, 1.615346908569336, 2.669888734817505
0.8062413825300426, 0.02011124342235792, 0.37185129800604266, -1.313139201771724, -2.8433217273300078, -0.08694088301163186, 9.047526810084983, -18.650538293085273, -5.035818736254067, 0.23572354018688202, -1.8533135652542114, -1.8092914819717407, -1.0220006704330444, 1.615358829498291, 2.6699326038360596
0.8021419384937801, 0.01872438834546523, 0.37192236566760134, -1.3133509284389333, -2.841918975345903, -0.08542674444137431, 9.327749441118517, -19.249791450289315, -4.9535210547363775, 0.23513081669807434, -1.8471328020095825, -1.8169885873794556, -1.022020697593689, 1.6154073476791382, 2.6699047088623047
0.7980318525165686, 0.01725992005465427, 0.37200703968972326, -1.3137933175235263, -2.8404834111116384, -0.0839701929609461, 8.908421813075973, -19.940802338489522, -4.961630514603097, 0.23457129299640656, -1.841107964515686, -1.8246723413467407, -1.0219887495040894, 1.6153665781021118, 2.669916868209839
0.7939321436117536, 0.015836876743679514, 0.37199845725294534, -1.314113974362922, -2.83898684116771, -0.08239633031325828, 8.545643996638407, -19.832400223880427, -4.712497946159806, 0.2340526133775711, -1.8349710702896118, -1.8322819471359253, -1.022009015083313, 1.6153827905654907, 2.669888734817505
0.7903301933468501, 0.01458311364182454, 0.37202609805602505, -1.3144517291429254, -2.8377551847019857, -0.08102774813668295, 8.218955487995093, -19.6929102220725, -4.356904999060555, 0.23344877362251282, -1.8288017511367798, -1.8399600982666016, -1.0220006704330444, 1.6153628826141357, 2.6698927879333496
0.7862284478622492, 0.013294716755365636, 0.372096136945992, -1.3146186537046487, -2.8365274157818376, -0.07964050964243435, 9.938193415970598, -19.661149246137892, -5.3345899708072295, 0.2330770492553711, -1.8234392404556274, -1.8465919494628906, -1.0219846963882446, 1.6153788566589355, 2.669856309890747
0.7821331997950624, 0.01191329464636241, 0.37215022761310546, -1.3149118922899663, -2.8351721489658734, -0.07827022506550588, 9.022310547670124, -19.38617847916931, -4.8679638081414724, 0.2325698882341385, -1.817322850227356, -1.854203462600708, -1.0219966173171997, 1.6153748035430908, 2.6698765754699707
0.7780205770305649, 0.0105351374757259, 0.3721990952058172, -1.3152723644940851, -2.833871306150098, -0.07689866324300568, 9.917944320967143, -20.005238780544154, -6.1846392859962585, 0.23200184106826782, -1.8111454248428345, -1.861720323562622, -1.0220130681991577, 1.615431308746338, 2.6699206829071045
0.7738814363996375, 0.009083792246592344, 0.37224851707262907, -1.3157495081041284, -2.832498083140842, -0.07549978465869955, 10.34614276100881, -19.644252088622842, -4.776370232106078, 0.23140548169612885, -1.8048168420791626, -1.8692454099655151, -1.0220006704330444, 1.6153548955917358, 2.669860363006592
0.7697454577653008, 0.007661722586570143, 0.3723973369350606, -1.31620740839509, -2.8312796426115785, -0.0743068596300867, 10.278005774868177, -20.906452444891112, -5.181340370091146, 0.23086681962013245, -1.7985645532608032, -1.8768504858016968, -1.0219720602035522, 1.6153509616851807, 2.669872760772705
0.7661417534091496, 0.006438361975471239, 0.3724450318555331, -1.3165951134858458, -2.830185561999455, -0.0732517168304611, 9.498762553839066, -21.475276011837185, -5.145246062173807, 0.23036633431911469, -1.7931228876113892, -1.883419156074524, -1.021976351737976, 1.6153669357299805, 2.6698765754699707
0.762016243941912, 0.005056410821635568, 0.3725645607289347, -1.3170467797171275, -2.8290505219514137, -0.07205368053003931, 9.758935083883081, -21.5404295199511, -4.748326649551698, 0.22981132566928864, -1.7868343591690063, -1.8908964395523071, -1.021984577178955, 1.6153987646102905, 2.66990065574646
0.7578262721773106, 0.0035300697222651846, 0.3726873540211409, -1.3177348301084792, -2.8277329311470947, -0.07096705897578642, 10.414547247504071, -20.365483239406338, -5.374324306298679, 0.22916854918003082, -1.7805134057998657, -1.8984155654907227, -1.0219602584838867, 1.615358591079712, 2.669888734817505
0.7535792847138434, 0.0020384766017505574, 0.3727936434776158, -1.3182907358725802, -2.826489341087082, -0.06982492972607318, 12.16749942833399, -21.404175451764782, -4.624913448261521, 0.22844208776950836, -1.774013638496399, -1.9060741662979126, -1.0220006704330444, 1.615390658378601, 2.6698806285858154
0.749303973261949, 0.0005882413534757111, 0.37283603069431753, -1.3188602277611465, -2.825223019986583, -0.06862793213998163, 9.789003098249296, -20.89280815584144, -4.572869711797358, 0.22786834836006165, -1.7675338983535767, -1.9137400388717651, -1.021984577178955, 1.6153589487075806, 2.6698646545410156
0.7455877308518856, -0.0007140059398196945, 0.37292116645354917, -1.3194004286729157, -2.8241863468212673, -0.06770100669659392, 9.831580361132916, -22.460395556381922, -5.005100634719442, 0.22716182470321655, -1.7609769105911255, -1.9213835000991821, -1.0220125913619995, 1.6153628826141357, 2.66988468170166
0.7411974541977417, -0.002180791271348766, 0.37289260893832255, -1.3199067385545085, -2.8228580064829454, -0.06642801976815019, 8.763126737354844, -21.289903954817596, -4.397912370171779, 0.2266317754983902, -1.7552090883255005, -1.9282770156860352, -1.0219846963882446, 1.615366816520691, 2.6698527336120605
0.737384429586444, -0.0035099000370042563, 0.3728085677647732, -1.3204390085161022, -2.821641655246854, -0.0653503399423575, 10.145927070972762, -20.433665757471417, -4.825882549069284, 0.22592966258525848, -1.7486673593521118, -1.936140775680542, -1.0220166444778442, 1.615386724472046, 2.669900894165039
0.7323963733909188, -0.005318822355549316, 0.3727358929265155, -1.3212974962530202, -2.820061133138774, -0.06398881351932179, 10.109494218575536, -20.596709756897866, -4.776759275867579, 0.22515539824962616, -1.7420378923416138, -1.944065809249878, -1.0219887495040894, 1.6153907775878906, 2.669872522354126
0.7278999128532226, -0.006945684380910637, 0.37265011859447456, -1.3220997569102262, -2.818673000040833, -0.06269472660012369, 9.886724638758922, -21.48183647023195, -4.992602626728843, 0.22425033152103424, -1.7351828813552856, -1.95213782787323, -1.0219680070877075, 1.615366816520691, 2.66988468170166
0.7239315025112808, -0.008357411355917076, 0.37255512838313065, -1.3227149460629926, -2.8174507905311765, -0.061632918987623755, 9.596529884276478, -20.691837207606262, -5.789477278453547, 0.22359976172447205, -1.7293206453323364, -1.9591459035873413, -1.021997094154358, 1.6153666973114014, 2.669924736022949
0.7194070214942698, -0.010010431051186944, 0.37233037019520726, -1.323542904941782, -2.815858266552649, -0.06032796285509659, 9.750692898478738, -19.514023018279453, -4.53428752481846, 0.22270137071609497, -1.7225209474563599, -1.9673233032226562, -1.0220047235488892, 1.6153628826141357, 2.6698968410491943
0.7148402949203273, -0.011655321794313528, 0.3721872515484606, -1.3244408958636227, -2.814430544336642, -0.05912455890582305, 8.988833026371625, -19.92125388270388, -5.6617858453891685, 0.22179238498210907, -1.7157293558120728, -1.975368857383728, -1.0219846963882446, 1.615338921546936, 2.669856309890747
0.7102667526431461, -0.013367555373732931, 0.3720193517814566, -1.3253867798788317, -2.812897220233001, -0.0578717727398738, 8.437350523461824, -21.123322461622664, -4.9385175478420145, 0.22085097432136536, -1.7088552713394165, -1.9834688901901245, -1.0220085382461548, 1.6153351068496704, 2.669888973236084
0.7057124170194905, -0.015051149772869038, 0.37184672448806494, -1.326356833167073, -2.8114445046259466, -0.05683158142567418, 8.50311771994529, -20.453159585290965, -6.010892989224745, 0.22000907361507416, -1.701983094215393, -1.991615891456604, -1.021976351737976, 1.6153151988983154, 2.6698968410491943
0.7016355778375349, -0.016526319018533468, 0.37169086245162364, -1.3272049917729387, -2.8102048434396325, -0.05577167829441349, 9.201981240241485, -20.038186278683078, -5.438544885810503, 0.21903565526008606, -1.6950560808181763, -1.9997471570968628, -1.0219560861587524, 1.6153470277786255, 2.6698806285858154
0.6970565782825432, -0.01814858691451503, 0.3715315970718342, -1.3281117787914265, -2.808800263457644, -0.05475123629762361, 8.998210915571224, -20.43138623707328, -5.519018350403464, 0.21824179589748383, -1.6889420747756958, -2.006801128387451, -1.0220166444778442, 1.6153509616851807, 2.669912815093994
0.6924236799650736, -0.01979489373667159, 0.3713548168498144, -1.3290386222621458, -2.8074377301311704, -0.0536414696797025, 8.009042414480769, -20.54417333455398, -5.295685074744277, 0.21731236577033997, -1.681970238685608, -2.014880418777466, -1.0220088958740234, 1.6153310537338257, 2.66988468170166
0.6878303254970491, -0.021436911884582063, 0.37113112525160613, -1.3299752905508018, -2.806071748998679, -0.052584563613076715, 8.987602751982083, -19.892434608678293, -5.315167380768956, 0.21642744541168213, -1.6749769449234009, -2.0229086875915527, -1.0219924449920654, 1.615319013595581, 2.669844388961792
0.683162732105482, -0.02310290558431208, 0.3709274009271555, -1.3310136539260733, -2.8046478145851164, -0.05160821296614347, 10.030481655859859, -19.759443661497034, -5.510791479193445, 0.2154538929462433, -1.6680318117141724, -2.031005620956421, -1.0220006704330444, 1.615390658378601, 2.6698968410491943
0.679124969695537, -0.02448050002327823, 0.3707152776855886, -1.3316910602787229, -2.803577827978351, -0.05074418804016883, 8.991020617492868, -21.07976146500724, -5.314716484544143, 0.21464793384075165, -1.6610037088394165, -2.039106607437134, -1.0219966173171997, 1.6153748035430908, 2.669832229614258
0.6744964697607123, -0.026036189506736713, 0.370571106485135, -1.3326316466511372, -2.8024165244978936, -0.04986381000809859, 7.867424552728891, -21.711832774824458, -5.143924825544284, 0.2138344943523407, -1.653870701789856, -2.047102689743042, -1.0220166444778442, 1.6153351068496704, 2.669872760772705
0.6697680085660556, -0.027613108329697572, 0.37033220518516946, -1.3334873976775132, -2.8011874887969115, -0.048960853324665404, 8.547037852602072, -20.822508023774457, -5.159036166734341, 0.21304824948310852, -1.647591233253479, -2.0542635917663574, -1.0219883918762207, 1.6153470277786255, 2.669872760772705
0.666831014297859, -0.02863278400055197, 0.3701390531508758, -1.334110549383447, -2.8003512658845127, -0.04835200249000067, 8.705151876589719, -20.460915071319054, -5.191310082873121, 0.21249324083328247, -1.6431165933609009, -2.0593929290771484, -1.022020697593689, 1.6153628826141357, 2.6698765754699707
0.6650699835713099, -0.02919175778071894, 0.3700044699623988, -1.3343617713425715, -2.7998569200986556, -0.047958169129694306, 9.80692597527218, -21.05591200769021, -5.393161721690791, 0.21214286983013153, -1.6395665407180786, -2.0634536743164062, -1.0220166444778442, 1.6153509616851807, 2.669860601425171
0.6597504148509205, -0.03097421299204013, 0.3696567624881394, -1.3354443173017523, -2.7984358810554797, -0.046944645945252696, 7.571908281741162, -20.848129406676854, -6.14373511560417, 0.21132513880729675, -1.6323691606521606, -2.0715837478637695, -1.0220006704330444, 1.6153548955917358, 2.6698567867279053
0.6550308507362219, -0.03249007042223887, 0.3692782437251494, -1.33617128337516, -2.7971645665842146, -0.045967520701050646, 7.78275497358473, -20.012382361593794, -5.141559251874174, 0.21038734912872314, -1.6252681016921997, -2.0797998905181885, -1.0220364332199097, 1.615366816520691, 2.6698567867279053
0.6503319984616632, -0.03406750063359176, 0.368960023274509, -1.3371790347261603, -2.795960166707071, -0.045161553284202405, 8.843221582386839, -19.53527627392715, -5.61778139185941, 0.20959366858005524, -1.6180468797683716, -2.0879275798797607, -1.0219966173171997, 1.6153271198272705, 2.6699211597442627
0.6461366264401849, -0.035382688504539746, 0.3686433221350143, -1.3378219171290129, -2.7949320782764477, -0.04432715885043138, 8.184784698144112, -20.260088130796692, -5.053683725304299, 0.20882394909858704, -1.6107560396194458, -2.0961270332336426, -1.0220285654067993, 1.6153470277786255, 2.6698567867279053
0.6413718837497518, -0.03684125857023095, 0.3682027047620972, -1.3385548114665375, -2.7937495942940247, -0.04336234251797576, 7.452269967932098, -20.960656230775818, -6.614838476683984, 0.20831796526908875, -1.6044470071792603, -2.103348731994629, -1.0219639539718628, 1.6153390407562256, 2.6698527336120605
0.6366331201246971, -0.03817873937957596, 0.36769668295306634, -1.3389282414512214, -2.792631601461761, -0.042445346937489296, 7.762910921412933, -19.30437346447518, -4.394239130659931, 0.2075674831867218, -1.5972462892532349, -2.1115329265594482, -1.0220526456832886, 1.6153151988983154, 2.6698687076568604
0.6318975528540254, -0.039572672332556354, 0.36723390008989915, -1.339632142369886, -2.7916019688130747, -0.04155705857179943, 7.908333035058821, -17.992987856960678, -5.555750348459697, 0.20704126358032227, -1.5901380777359009, -2.119675636291504, -1.0220166444778442, 1.6153151988983154, 2.6698806285858154
0.6271490293301051, -0.04090220924373955, 0.36675990050052887, -1.34004061400599, -2.790551451886947, -0.04064266845159287, 8.079758094766207, -18.170158536850792, -4.9989263836315825, 0.2064579874277115, -1.5828295946121216, -2.1278605461120605, -1.0220446586608887, 1.6153191328048706, 2.6698687076568604
0.6230429906773453, -0.04205561212323187, 0.3663842359065066, -1.3404994827720107, -2.7898009362608267, -0.040006277678078725, 7.328215987504488, -19.005825199389463, -6.49864286061324, 0.2059236764907837, -1.5755735635757446, -2.1358978748321533, -1.0219887495040894, 1.6153032779693604, 2.6698687076568604
0.6183736077962931, -0.04326094010051092, 0.36588107624453214, -1.3407778734220228, -2.7889319451441064, -0.03922921304796648, 5.798051872539431, -18.340083853673185, -5.573170556701621, 0.20554082095623016, -1.5684055089950562, -2.1439192295074463, -1.0219805240631104, 1.6153192520141602, 2.6698765754699707
0.6137444130980211, -0.04440281685441949, 0.36539020688132645, -1.3409031197155301, -2.7881788464528743, -0.03850630843016378, 7.072036370367098, -17.861417725247072, -5.589052362730329, 0.20522600412368774, -1.5621490478515625, -2.1508209705352783, -1.0220006704330444, 1.6153310537338257, 2.669860601425171
0.6091985992605391, -0.045552159806419405, 0.36498284646722634, -1.341198661077386, -2.7875375816540178, -0.03794176674474797, 6.118457508231668, -17.260271700186216, -5.513824949484162, 0.20489487051963806, -1.5549856424331665, -2.158639430999756, -1.0220085382461548, 1.6153748035430908, 2.6698687076568604
0.6047103736921453, -0.04664138019398489, 0.3645806785670232, -1.3414392707224727, -2.7869728653530426, -0.037430730656779196, 5.764899245428311, -16.950856232634067, -5.732405018107233, 0.20467087626457214, -1.5478588342666626, -2.1663553714752197, -1.0219846963882446, 1.615346908569336, 2.669848680496216
0.6002938576051712, -0.04763051159150951, 0.36421659787861804, -1.3414532811323485, -2.7865879673412306, -0.03711294278173134, 6.351180515727809, -17.47463787905673, -5.542256115061514, 0.20446006953716278, -1.5408369302749634, -2.173760175704956, -1.0219883918762207, 1.615370750427246, 2.669888734817505
0.5964825675382457, -0.04852059732316862, 0.363918162486279, -1.3416386130283202, -2.7862342596227068, -0.03682688211782084, 6.2665760384609746, -16.63698213560153, -4.768040031400031, 0.2043319195508957, -1.5337945222854614, -2.1811184883117676, -1.0220125913619995, 1.615378737449646, 2.669888973236084
0.5922107420755325, -0.04945285268824313, 0.36363953808786154, -1.3417037177754676, -2.786049774748835, -0.036612321516212916, 6.612772015289073, -18.143323019205102, -5.050815603255154, 0.20424501597881317, -1.5276460647583008, -2.187356472015381, -1.0220085382461548, 1.615398645401001, 2.6698930263519287
0.588041140203675, -0.05039286704780686, 0.3634541733885518, -1.3418823052995295, -2.78604302324452, -0.03660629085143268, 5.808191126722437, -17.664976071101083, -4.850967736143686, 0.2042132169008255, -1.520703911781311, -2.194375991821289, -1.0220166444778442, 1.6153390407562256, 2.6698765754699707
0.5839297208072395, -0.051221842773827006, 0.36326232958785537, -1.3418472840353775, -2.7861262563746174, -0.03670767000775167, 6.511633524837166, -19.05872731480535, -6.347762254404811, 0.20412446558475494, -1.5138306617736816, -2.201308012008667, -1.0219966173171997, 1.6153231859207153, 2.669848680496216
0.5798861985004128, -0.052063145350367664, 0.3629966500709188, -1.3418166741012376, -2.786090049655021, -0.036596387723048476, 6.740298602240318, -17.803735744838274, -5.256481828064946, 0.2041650265455246, -1.5069878101348877, -2.2079999446868896, -1.0220125913619995, 1.6153233051300049, 2.6698765754699707
0.5764150767950598, -0.05277037663779823, 0.36287262985751445, -1.3418633590945435, -2.786264515609252, -0.03690449536999641, 6.96838110268885, -18.557880223169143, -4.731499410714465, 0.20416505634784698, -1.5002226829528809, -2.214604616165161, -1.0219722986221313, 1.6153628826141357, 2.669872760772705
0.5724841141660979, -0.05357248778436585, 0.3626660941765804, -1.3418481816908705, -2.786376472157816, -0.03700176731189887, 7.653444173521415, -18.681007074765493, -5.522865369578406, 0.2041129618883133, -1.4943795204162598, -2.2203338146209717, -1.0220003128051758, 1.6153589487075806, 2.669844388961792
0.5685908444569966, -0.054394507084751284, 0.3625010417902813, -1.3419924688012304, -2.7865444540222324, -0.03723633917373317, 7.551466720642561, -18.449749008920342, -4.92411979803944, 0.20414896309375763, -1.4876140356063843, -2.2267322540283203, -1.022032380104065, 1.6153311729431152, 2.6698362827301025
0.5647973161373218, -0.05518324530782778, 0.36228388586737603, -1.3420985359997486, -2.7867316842144265, -0.03745569148568955, 7.662908137874934, -19.205986611744954, -6.0186279701575005, 0.2041289508342743, -1.4810528755187988, -2.2330496311187744, -1.0220125913619995, 1.615378737449646, 2.6698765754699707
0.5610297708452779, -0.05598963244889286, 0.3621270714959287, -1.3421706101961712, -2.7869548163804074, -0.037754868636723005, 7.1111113092056, -18.67379564722676, -5.032295550572476, 0.20416928827762604, -1.474610447883606, -2.239285945892334, -1.0220524072647095, 1.6153351068496704, 2.6699087619781494
0.5577342317102506, -0.05665189776169219, 0.3618304307990343, -1.3422176050657157, -2.787029849500531, -0.037772984656757956, 7.0633172329587, -19.3513366449003, -5.486303715551938, 0.20414495468139648, -1.4681888818740845, -2.245530366897583, -1.0220643281936646, 1.6153074502944946, 2.6698927879333496
0.5540118476269286, -0.05741994374889509, 0.36156483111812854, -1.3422578174324151, -2.787177205604328, -0.03808774660854197, 6.409184220960899, -19.39883091647891, -5.546727258666615, 0.20410919189453125, -1.462564468383789, -2.2509801387786865, -1.0220483541488647, 1.6153509616851807, 2.6699330806732178
0.5502456341812599, -0.05822296519135789, 0.36126014880862517, -1.3424134692979002, -2.7873218491168545, -0.0382798517595105, 7.31120750711271, -19.62893260750517, -4.7650221835647635, 0.20408090949058533, -1.456139326095581, -2.2571606636047363, -1.0220928192138672, 1.615315318107605, 2.6698601245880127
0.5465701079773263, -0.05896089556243036, 0.36096656021077045, -1.3424745715802784, -2.7875781397404515, -0.03855790332168519, 7.945078439870314, -20.588573668115433, -6.407181073282866, 0.20414522290229797, -1.4498053789138794, -2.2632646560668945, -1.0220643281936646, 1.6153746843338013, 2.6698966026306152
0.5428616712406802, -0.05973957459747658, 0.3605307795611101, -1.342482678996353, -2.787553133227554, -0.03858158182627933, 7.258994228340781, -20.172856006753516, -4.96233714865419, 0.20410919189453125, -1.4434391260147095, -2.2694661617279053, -1.022064447402954, 1.6153390407562256, 2.6698968410491943
0.5391946512742642, -0.06049932174797139, 0.3600951552622906, -1.3424977183792464, -2.787670448572172, -0.038685201739696674, 8.000923556277511, -21.132390342680278, -6.5739524794733075, 0.20412515103816986, -1.4371581077575684, -2.275578260421753, -1.0220928192138672, 1.6153470277786255, 2.6699047088623047
0.5359525980221751, -0.061184197234291395, 0.3595798494127432, -1.342428594510254, -2.787631277937967, -0.03850535610246132, 8.860085889382251, -22.337136955193365, -5.901902691207849, 0.2041691541671753, -1.4317816495895386, -2.281064033508301, -1.0221284627914429, 1.615378737449646, 2.6698927879333496
0.5322353293702697, -0.06196648016764051, 0.3589186994204119, -1.3424756159932665, -2.7873301016189624, -0.038284980147809455, 8.53093557185182, -23.223663243834718, -5.480084649426347, 0.20407719910144806, -1.4256348609924316, -2.2874033451080322, -1.0221518278121948, 1.615315318107605, 2.669905185699463
0.5284112928099958, -0.06277131811927468, 0.3580918202319903, -1.3422836788531067, -2.7870068405080035, -0.037728571330431906, 9.66971005197965, -25.432598677036676, -7.246958195215964, 0.20404502749443054, -1.4195523262023926, -2.2939295768737793, -1.02225661277771, 1.6153390407562256, 2.66988468170166
0.5264955745322899, -0.06315463633943243, 0.35766811039153806, -1.3421806693633465, -2.7868060621321695, -0.037488667191184905, 9.953237030408843, -25.81258202974893, -6.393353777314305, 0.20402900874614716, -1.416477918624878, -2.2972147464752197, -1.0223280191421509, 1.6153550148010254, 2.6698968410491943
0.5245046349049439, -0.06356837985351137, 0.357127605770739, -1.342065429186851, -2.7864491994129037, -0.03710370830015744, 9.469128074561539, -25.471013358136194, -6.310338193521468, 0.20404945313930511, -1.4126628637313843, -2.301481008529663, -1.0223758220672607, 1.615370750427246, 2.6698927879333496
0.5204944481545545, -0.06445227021003871, 0.3560067377179855, -1.3419240856170043, -2.7856920694532077, -0.036132726488867714, 8.145495922670364, -24.82881160554613, -7.076056790229195, 0.20394966006278992, -1.4065202474594116, -2.3084635734558105, -1.0225156545639038, 1.6153390407562256, 2.6699047088623047
0.5163993664534025, -0.06535512542022898, 0.35469236851742897, -1.3416641467796346, -2.784735958043495, -0.03494708165490138, 8.914305955669509, -24.392519486650055, -6.761031967105258, 0.20386607944965363, -1.401171326637268, -2.314772605895996, -1.0226119756698608, 1.6153390407562256, 2.6699206829071045
0.5121736919863845, -0.0663240466746174, 0.35326794227119757, -1.3415288214799677, -2.783613873777876, -0.03361669253059677, 5.797173503243896, -20.8497342149984, -6.2983840223767595, 0.2037186175584793, -1.3950444459915161, -2.3222222328186035, -1.0227956771850586, 1.615370750427246, 2.6698927879333496
0.5079113448102278, -0.06728805868503918, 0.35165812345362024, -1.3413354120647243, -2.782261640431286, -0.03205266013329673, 4.7057852175140775, -18.158400097617495, -7.809338235484438, 0.20352689921855927, -1.3889306783676147, -2.3298614025115967, -1.0228315591812134, 1.6153669357299805, 2.6699488162994385
0.5041951559084612, -0.06806461775214767, 0.3501234834760577, -1.3407670428129894, -2.7811617793054046, -0.03058559731742463, 2.391272882792288, -12.585084790316685, -6.810917530079347, 0.20345523953437805, -1.3830232620239258, -2.3375635147094727, -1.0227752923965454, 1.615346908569336, 2.66988468170166
0.5000866729157666, -0.0689534775596948, 0.34846604214232496, -1.3404784139785035, -2.779867353530281, -0.02898096778821856, -0.3016103147245202, -8.603577577684232, -8.251630073849858, 0.20337557792663574, -1.3772530555725098, -2.3449981212615967, -1.022775650024414, 1.6153267621994019, 2.6699650287628174
0.4962222238411085, -0.06973496018734597, 0.34693640244837615, -1.3399426977030158, -2.7789358233092014, -0.027658814994407466, -1.991502415346206, -5.265702533193978, -9.407600641634767, 0.20339514315128326, -1.3723914623260498, -2.351130247116089, -1.0227078199386597, 1.6153669357299805, 2.669928550720215
0.49266828916337607, -0.07045538397228075, 0.3457301631094278, -1.3396855205417155, -2.7782331059099246, -0.02687085291125459, -3.9630913909553835, -1.272677941633456, -8.173284299885234, 0.20335905253887177, -1.3670189380645752, -2.357597827911377, -1.0226390361785889, 1.6153911352157593, 2.669968605041504
0.48951897901478314, -0.07111842555094992, 0.3448853080702868, -1.339573393047615, -2.7780448195955993, -0.02653938543681766, -4.656453604784778, 1.1673616837125242, -9.730386829914963, 0.2033829241991043, -1.3618378639221191, -2.363218069076538, -1.0226197242736816, 1.615338683128357, 2.66992449760437
0.4867693742415056, -0.07167725914762757, 0.3443156715604548, -1.339604345164001, -2.7780954828807154, -0.026679376214357557, -6.005934681742156, 2.6753860002388485, -8.700738034096178, 0.2034309208393097, -1.357088565826416, -2.3679394721984863, -1.022595763206482, 1.6153348684310913, 2.6698641777038574
0.4845161533039311, -0.07215072846705144, 0.34419876181737674, -1.3399172623878872, -2.7786052450410694, -0.027427458035276728, -7.098065009112636, 4.244067829189981, -9.543909856506634, 0.2034149169921875, -1.3526307344436646, -2.3716745376586914, -1.0225518941879272, 1.6153948307037354, 2.669940710067749
0.4829502321497716, -0.0724443445874797, 0.3444752790953999, -1.3402139140120763, -2.7796443856037634, -0.02859022471095648, -6.900553703887704, 3.2862662614553444, -9.378389693704145, 0.2033873051404953, -1.3489551544189453, -2.3741672039031982, -1.022535800933838, 1.6153467893600464, 2.6699604988098145
0.4815746180361193, -0.07274687320900892, 0.34504847639975406, -1.3408125340053538, -2.780884207662301, -0.030339065111783994, -7.450618391020308, 3.088034971021461, -8.422243091698526, 0.20342713594436646, -1.345201015472412, -2.376084804534912, -1.0225597620010376, 1.615358829498291, 2.6699726581573486
0.48067376931593686, -0.07295794220876825, 0.34608911863499137, -1.3416464878593382, -2.7826955814763754, -0.032654936234803485, -7.046047121613774, 1.187909464462767, -7.3147524155490045, 0.20342306792736053, -1.3417725563049316, -2.3770670890808105, -1.0225675106048584, 1.6153669357299805, 2.669952630996704
0.48024955270553343, -0.07304181631034733, 0.3475619487026301, -1.342631893104188, -2.785019317520575, -0.03565924334449453, -6.628186874171282, -0.3776231547415588, -7.7682750887998475, 0.20342306792736053, -1.3387175798416138, -2.376978874206543, -1.0225715637207031, 1.6153509616851807, 2.6699001789093018
0.48002151892964046, -0.07307572679533428, 0.34912387271047784, -1.343532562807616, -2.787398991355493, -0.038785355980858215, -8.680604730518265, 0.30155121752923875, -7.761373137513845, 0.2034149169921875, -1.335993766784668, -2.3764872550964355, -1.0225276947021484, 1.6153308153152466, 2.6699485778808594
0.4799418274484483, -0.07310098364354681, 0.3505342132430488, -1.3445267570084671, -2.7893955251990254, -0.04146207288163306, -8.92843744200853, -0.46911928765167854, -7.776431186633714, 0.20337100327014923, -1.3337807655334473, -2.375868558883667, -1.0225478410720825, 1.6153427362442017, 2.6699161529541016
0.4799109786065818, -0.0731114134472446, 0.35199452075800486, -1.3454106555542888, -2.7915311885616405, -0.044319983072216136, -9.400448063825046, -1.2689525193137965, -6.978321366442944, 0.20336692035198212, -1.3316161632537842, -2.3750455379486084, -1.0226203203201294, 1.6153349876403809, 2.6699562072753906
0.4799569575945815, -0.07307698679996817, 0.35337426432265073, -1.3461585897293857, -2.7935810780828714, -0.04691453852844265, -10.942398119791253, -3.0046036745618983, -6.692215374384731, 0.20337454974651337, -1.3296507596969604, -2.3742024898529053, -1.022607684135437, 1.6153711080551147, 2.669996738433838
0.4799718160767122, -0.07310983272552976, 0.35449676125830376, -1.34701584041782, -2.7951276683234907, -0.049058479363967046, -10.819624559957015, -3.6720701923686283, -7.208218991494701, 0.20337508618831635, -1.3280614614486694, -2.373527765274048, -1.0225675106048584, 1.6152904033660889, 2.6699602603912354
0.479950405179009, -0.0730855704981343, 0.3552896592150616, -1.34741712635913, -2.796286220865959, -0.05065384992012092, -11.545365444429377, -2.7100590197102252, -6.095056772741066, 0.20339922606945038, -1.3266868591308594, -2.372976303100586, -1.022579312324524, 1.6153829097747803, 2.6699962615966797
0.47993512577629655, -0.07309414896985451, 0.3560090773039227, -1.3479961827275981, -2.797238488455793, -0.0519825041348618, -13.530595427155914, -2.6332917312375366, -6.5580006233553885, 0.20339107513427734, -1.3256402015686035, -2.3725647926330566, -1.022623896598816, 1.6153669357299805, 2.6700925827026367
0.47991705496357356, -0.07313155421907844, 0.3565138200899444, -1.3483951693442, -2.797984748271065, -0.052925827461674846, -14.293784636905723, -2.725319059994535, -5.603118704780688, 0.20339927077293396, -1.3249174356460571, -2.3723089694976807, -1.02267587184906, 1.6153230667114258, 2.6701245307922363
0.47990527003672245, -0.07312390475254087, 0.3568573525160334, -1.3485879829983567, -2.798413383198712, -0.05360742998461346, -15.727585790673935, -3.101206925812355, -6.227528942966374, 0.20333866775035858, -1.3243906497955322, -2.3720974922180176, -1.0226482152938843, 1.6153711080551147, 2.6700963973999023
0.47997677971850006, -0.07309525544045097, 0.3569778977940419, -1.3486488265881311, -2.7985752164451445, -0.05373117003441014, -17.333050828564286, -2.690756361770616, -5.377859162445165, 0.20333099365234375, -1.3243107795715332, -2.371910333633423, -1.0226398706436157, 1.6153230667114258, 2.6701605319976807
0.4800281950180063, -0.07309788058056671, 0.3569712520451641, -1.3488369481384523, -2.798459311087685, -0.053702738640714176, -19.327320675812565, -2.2614281222086783, -4.551664428984354, 0.20331907272338867, -1.3245352506637573, -2.3718621730804443, -1.0226197242736816, 1.6153029203414917, 2.6702685356140137
0.4800739974146011, -0.07313079022648084, 0.3568836110824484, -1.3491382129338017, -2.7981691749820747, -0.053445831831020384, -21.64170775099256, -1.323066075197734, -4.150744431763741, 0.20327237248420715, -1.324710488319397, -2.371809959411621, -1.0226600170135498, 1.6152790784835815, 2.6704165935516357
0.48008639700949807, -0.07316671732224007, 0.3567578590692112, -1.34935674934478, -2.7978400516605895, -0.053214366727856614, -23.132729608115504, -0.8855793244349727, -3.7770340101581006, 0.20324380695819855, -1.3249021768569946, -2.3718342781066895, -1.0226398706436157, 1.6153311729431152, 2.6704843044281006
0.4801323335649967, -0.07322391373339568, 0.3566420329811777, -1.3495615343173448, -2.7974975503597923, -0.05301691254790457, -24.19693864869436, -0.508167824905927, -3.165749191495132, 0.20314012467861176, -1.3252137899398804, -2.3718299865722656, -1.0226398706436157, 1.615343451499939, 2.6706364154815674
0.48020067759139395, -0.07332149909716935, 0.35654853419742366, -1.3499741903713778, -2.797149530240776, -0.05274964841254393, -25.364737277304737, -0.6579900531238936, -3.478027346966555, 0.2028806507587433, -1.3254530429840088, -2.3717422485351562, -1.0226718187332153, 1.6152913570404053, 2.670696496963501
0.48025521363950385, -0.0734619416216151, 0.3564925723554975, -1.3503352616817001, -2.796848317611855, -0.05268253080913032, -25.90140852124173, -0.07206186512948354, -3.7439188817047198, 0.20246538519859314, -1.3257124423980713, -2.3717222213745117, -1.0226398706436157, 1.615267276763916, 2.6706764698028564
0.48028531757788595, -0.07373380783852938, 0.3564636617001594, -1.3511303353808857, -2.7963745193654543, -0.05256558725162616, -26.728184845988906, 1.0116518545255049, -4.300767079730416, 0.20195433497428894, -1.3259170055389404, -2.3715858459472656, -1.0226558446884155, 1.6152753829956055, 2.6706883907318115
0.4803061065153649, -0.07384446578048345, 0.3564998128010319, -1.3515029882349197, -2.796269962779557, -0.05261900995889279, -26.96156104612195, 1.2981300874158086, -4.346357666138241, 0.20163576304912567, -1.3259804248809814, -2.371497869491577, -1.0226079225540161, 1.6152794361114502, 2.6706602573394775
0.48036142978797186, -0.07429855147628185, 0.3566314210656878, -1.3529616380005036, -2.7957447003963716, -0.05283420169367106, -25.79521606566888, 2.6160604926389897, -4.13427565135461, 0.20077769458293915, -1.3260409832000732, -2.3712830543518066, -1.0226197242736816, 1.6153028011322021, 2.6706602573394775
0.4805139647556029, -0.0751373493110631, 0.3570628046769805, -1.355879849478232, -2.794948321938134, -0.053639828949981413, -26.365211944956933, 1.3993327767053745, -3.6870405297879802, 0.19887752830982208, -1.3260844945907593, -2.3705921173095703, -1.0226116180419922, 1.6152594089508057, 2.6706724166870117
0.48065751674851975, -0.07574005597407223, 0.357402279908683, -1.3578797912485165, -2.794491513854015, -0.054208268979476885, -27.481266970648957, 0.6880991323629647, -3.794332512859504, 0.1973949521780014, -1.326100468635559, -2.3699162006378174, -1.022599697113037, 1.6153355836868286, 2.6706483364105225
0.4808774959008104, -0.07657077083901401, 0.35793816739068274, -1.3608160290832203, -2.793866596760873, -0.05505391559451295, -26.618614407404106, 1.0559323025024807, -3.8211245390132724, 0.1955227106809616, -1.326100468635559, -2.369025230407715, -1.022623896598816, 1.615310788154602, 2.6706724166870117
0.4811045238334913, -0.07751441084350881, 0.35853741774114334, -1.3641199353933917, -2.7931785579693016, -0.05607028107170212, -27.515966762115607, 1.130662598481237, -3.831102250724598, 0.19364003837108612, -1.326128602027893, -2.3681585788726807, -1.0226197242736816, 1.6152790784835815, 2.6706724166870117
0.48139605502593036, -0.07857499834537292, 0.3592169362235246, -1.3677134329747649, -2.792449437565807, -0.05714409039398353, -27.772541076149476, 2.153138492298652, -2.841983575722714, 0.19133158028125763, -1.326080322265625, -2.3670523166656494, -1.0226558446884155, 1.61529541015625, 2.670640230178833
0.4816633032683279, -0.07978246120093947, 0.3599318716542669, -1.3719465935405242, -2.7914424644748603, -0.058298616729211446, -28.26417406214539, 2.121525694014517, -2.1471495776235043, 0.18860600888729095, -1.3261409997940063, -2.3659017086029053, -1.0226517915725708, 1.615310788154602, 2.670712471008301
0.48194345771029423, -0.08114730316196019, 0.3606683943113799, -1.3765940054031118, -2.7902745473811974, -0.05950975170127564, -28.045586531040346, 3.105791931250486, -0.8233968153471141, 0.185705304145813, -1.3260999917984009, -2.364607095718384, -1.0226677656173706, 1.615255355834961, 2.6706924438476562
0.4822241727275786, -0.08236207651130989, 0.3614415579611496, -1.380823881076478, -2.789289169307168, -0.060784692398723576, -28.613707523480407, 3.196078891805166, -0.19749010639473785, 0.18288926780223846, -1.326180338859558, -2.3634049892425537, -1.022675633430481, 1.615275263786316, 2.670668363571167
0.482570164290727, -0.08392050644920324, 0.3623087182931205, -1.386093086176781, -2.788012660962886, -0.0622322565671796, -28.717272893475794, 2.8344338374376683, -0.8418472316640951, 0.17954133450984955, -1.32622492313385, -2.361915111541748, -1.0227038860321045, 1.6152794361114502, 2.670652389526367
0.482860817302768, -0.08559482746570497, 0.3631819433291884, -1.3916865784346006, -2.786542181128625, -0.06362354716994931, -27.355141947756625, 2.888167773061691, -0.7425749131080563, 0.17581899464130402, -1.3262596130371094, -2.3604252338409424, -1.022675633430481, 1.6152913570404053, 2.670644521713257
0.4830985245931926, -0.08740686763223575, 0.3640375112992078, -1.3976787736244374, -2.7848410172527407, -0.06499980226237742, -27.804294143499412, 3.7518665746874893, 0.36017369398289967, 0.17202705144882202, -1.3262959718704224, -2.3590025901794434, -1.0226556062698364, 1.6152634620666504, 2.670628309249878
