JensOHI/Master_Thesis/record_trajectory/physical_traj_2.csv
pos_x, pos_y, pos_z, ori_x, ori_y, ori_z, f_x, f_y, f_z, q_base, q_shoulder, q_elbow, q_wrist1, q_wrist2, q_wrist3
0.6527721759009587, 0.07375796603278623, 0.4265823589264387, 1.1144207101599037, 2.9295612232464445, 0.008334348173265648, 0.775716501146823, 0.5193284055949883, 3.001929555763092, 0.8037715554237366, -1.5530036687850952, -2.073890447616577, -1.106134295463562, 1.6496233940124512, 2.671947717666626
0.652763504474335, 0.07376036186624384, 0.426635639577266, 1.1143722382103425, 2.929485448690306, 0.008469241515085532, 0.7652649427899187, 0.48088040866492243, 2.880165778481903, 0.380989670753479, -1.5699301958084106, -2.0273325443267822, -1.1061023473739624, 1.5654746294021606, 2.676901340484619
0.6527729104177121, 0.07376888726270205, 0.426641175362306, 1.1143402630366415, 2.9294877978763134, 0.008473795287539011, 0.6493238306408128, 0.3041075427828302, 3.0220929174418103, 0.3810175061225891, -1.5699301958084106, -2.0273241996765137, -1.1060982942581177, 1.5654823780059814, 2.6768932342529297
0.652772987729442, 0.0737424081519148, 0.4266094933600124, 1.1143796554945127, 2.929486297041647, 0.008326422243061862, 0.6146461646318647, 0.6403506494413957, 3.0920388314213567, 0.3809736669063568, -1.5699700117111206, -2.0273520946502686, -1.106134295463562, 1.5654865503311157, 2.676889181137085
0.6527698765019805, 0.07380036415380484, 0.42665493734150917, 1.1143001570430808, 2.9294925504166494, 0.00852240242610774, 0.14266314852927892, 0.2958103019504585, 2.9792201542609504, 0.38106250762939453, -1.5699182748794556, -2.027315855026245, -1.1060904264450073, 1.5654983520507812, 2.676913261413574
0.6527691273568452, 0.0737762861626464, 0.42662735035168453, 1.1143083051707914, 2.929510893591628, 0.008425295118054484, 0.7419106708241062, 0.6352095977893902, 2.9372312412881865, 0.3810334801673889, -1.569938063621521, -2.027336597442627, -1.1061064004898071, 1.5654664039611816, 2.676884889602661
0.6527940048066437, 0.07380449533166278, 0.42660582542054515, 1.1142538597081855, 2.92956447901104, 0.008406555418914613, 0.8976178687819099, 0.4254508202069138, 3.0367013962050646, 0.3810826241970062, -1.5700019598007202, -2.027381181716919, -1.1061502695083618, 1.5654783248901367, 2.676913261413574
0.6527783715692621, 0.07375012772633731, 0.426641702706968, 1.11439991396335, 2.929450303666973, 0.008459630085337434, 0.568748338092911, 0.0523108875205208, 2.8414083552321094, 0.3809897303581238, -1.5699342489242554, -2.027320146560669, -1.1060941219329834, 1.5654664039611816, 2.6769094467163086
0.6527659924340433, 0.0737745537679874, 0.4266160027274994, 1.1143612684058601, 2.9295816126876066, 0.00843153937538164, 0.34713651267968, 0.48605147903341633, 3.308376472793762, 0.38105013966560364, -1.5699342489242554, -2.027360439300537, -1.106146216392517, 1.565441608428955, 2.6768651008605957
0.6527557554261114, 0.07374134120634349, 0.4266014417646446, 1.1143954447463746, 2.929510632360694, 0.00833792221211864, 0.5499236750380023, 0.13796306688345822, 2.9476628174270845, 0.3809932768344879, -1.5699541568756104, -2.027315855026245, -1.1060863733291626, 1.5654828548431396, 2.676929235458374
0.6527767284096107, 0.0737823838009202, 0.42662446559018957, 1.1143862106834326, 2.9295203090258375, 0.00842482448901683, 0.410926214386805, 0.3221614617682016, 3.199744047536039, 0.3810335099697113, -1.5699580907821655, -2.027315855026245, -1.106134295463562, 1.5654906034469604, 2.676929473876953
0.652781685053957, 0.07375393873617621, 0.42660895601043225, 1.1144575848193667, 2.9294965276711196, 0.008410971410525348, -0.05370004959933729, 0.37754807521996303, 3.1919018275415, 0.3809897005558014, -1.5699739456176758, -2.0273282527923584, -1.1061142683029175, 1.5654864311218262, 2.676933526992798
0.652773411625044, 0.07375196474938933, 0.4266124060855604, 1.1144181976641272, 2.9295188850763325, 0.008375190341187678, 0.6886926701017188, 0.49922848420813354, 2.8838921634036314, 0.38100185990333557, -1.5699739456176758, -2.0273325443267822, -1.1061421632766724, 1.5654704570770264, 2.6769375801086426
0.652761552678091, 0.07378895923007511, 0.42662605182725716, 1.1143452639857945, 2.929519309480314, 0.00847201837803996, 0.3766827311201228, 0.08006305370582592, 2.9501177609317115, 0.3810417950153351, -1.5699660778045654, -2.027320146560669, -1.1060900688171387, 1.5654497146606445, 2.6769251823425293
0.6527692459830252, 0.07375321583515536, 0.4266383751554598, 1.1143576274996592, 2.929464094166821, 0.00843609509560366, 0.6488889453183287, 0.4203822844981379, 3.050525948053643, 0.38102200627326965, -1.5699341297149658, -2.0272953510284424, -1.1061302423477173, 1.5654497146606445, 2.676889181137085
0.6527769339344064, 0.0737452175112053, 0.42660832204137644, 1.1143887579318768, 2.929530271682855, 0.008375247255240664, 0.5606447637090197, 0.4298416976763591, 2.924126174422379, 0.38098177313804626, -1.5699700117111206, -2.027336597442627, -1.1061302423477173, 1.565502405166626, 2.676860809326172
0.6527809729612949, 0.07377381502959386, 0.4266299480893042, 1.1142789800105983, 2.9295585690608674, 0.008486264068446972, 0.5321509275615924, 0.35852606063643383, 2.8573072918249327, 0.3810133934020996, -1.5699580907821655, -2.0273118019104004, -1.1061100959777832, 1.5655184984207153, 2.6768367290496826
0.6527729217421012, 0.07377456271487115, 0.4266297492886673, 1.114334981778877, 2.9294925093150685, 0.00837592597642566, 1.2404082462391275, 0.853868215853496, 2.7995495793256433, 0.3810257911682129, -1.5699381828308105, -2.027320146560669, -1.1061142683029175, 1.565441608428955, 2.676889181137085
0.6527820724811828, 0.07376898792975795, 0.42661217954770125, 1.1144166572068046, 2.9295131077709304, 0.00847761307471331, 0.8606926649681461, 0.19150107627387464, 2.7499340938674046, 0.3810499608516693, -1.5699739456176758, -2.0273325443267822, -1.1061100959777832, 1.5654497146606445, 2.676872968673706
0.6527779014126807, 0.07377857686207803, 0.4266493794397699, 1.114241369543068, 2.9295674931032716, 0.008450955290495927, 0.5952131646350917, 0.5315076877147744, 2.9733413031498994, 0.3810826241970062, -1.5699222087860107, -2.0273282527923584, -1.1061261892318726, 1.5654747486114502, 2.6768972873687744
0.6527775630589904, 0.07375049703846835, 0.42658628142092947, 1.1144227106889097, 2.9295115644254732, 0.008330468070123423, 1.2942812348733175, 0.8743538179825753, 3.1856987445776395, 0.3810015022754669, -1.5699223279953003, -2.027336597442627, -1.1061302423477173, 1.5654704570770264, 2.6768851280212402
0.6527891601600554, 0.07377205266110641, 0.42660062214979083, 1.1143419236660017, 2.9295073521089914, 0.008394960656700461, 0.4767757159404144, 0.34540696046684255, 3.0929102884505526, 0.38099732995033264, -1.5698983669281006, -2.0273520946502686, -1.1061023473739624, 1.5654377937316895, 2.6768932342529297
0.6527730926110563, 0.07374922745322648, 0.42664045153024444, 1.1144047796500414, 2.929446235616692, 0.00843617002118341, 0.5976067258952836, 0.569270829664928, 3.3061245092088183, 0.380989670753479, -1.5699421167373657, -2.0273728370666504, -1.1061023473739624, 1.5654704570770264, 2.6768972873687744
0.6527649904026854, 0.07373375304332683, 0.42664048818985184, 1.1144532017373698, 2.929523699862886, 0.008469716904013738, 0.6237492634276381, 0.8011539268259804, 3.212895523122736, 0.38098540902137756, -1.5699580907821655, -2.0273118019104004, -1.1061064004898071, 1.5654664039611816, 2.676929473876953
0.6527671509349942, 0.07378349218936572, 0.42663346968552696, 1.1143810144276707, 2.9295086564966217, 0.008383473463825982, -0.13260472609016202, 0.5401114193932295, 3.16657465699636, 0.380957692861557, -1.5699183940887451, -2.0273489952087402, -1.1061183214187622, 1.5654704570770264, 2.6768972873687744
0.652779480301267, 0.07375969529024733, 0.4266160147937675, 1.1144006621042188, 2.9294711668214184, 0.008353737365006171, 0.4770862264578437, 0.30650783823284844, 3.2152881441925776, 0.38098540902137756, -1.5699739456176758, -2.027364492416382, -1.1061502695083618, 1.5654497146606445, 2.6769092082977295
0.6527853875795877, 0.07374499651213032, 0.42661640496890085, 1.1143983091378635, 2.9294811716504494, 0.008332504710210504, 0.7408580017564045, 0.7913954496223496, 3.4162090974311203, 0.3809854984283447, -1.5699700117111206, -2.027315855026245, -1.1061381101608276, 1.5654256343841553, 2.6768972873687744
0.6527782905348791, 0.07377052061147196, 0.4266430446104492, 1.1143758584574506, 2.9294740893706854, 0.00846569779459116, 0.8052061795204601, 0.561957179789285, 3.2768242030099892, 0.38103392720222473, -1.5699700117111206, -2.027336597442627, -1.1061502695083618, 1.565502405166626, 2.6768972873687744
0.6527600357764625, 0.07379269853999224, 0.4266117640052046, 1.1143262366645492, 2.929543578163311, 0.00842439984774903, 1.4682747014132203, 0.5315325596251392, 3.090764449014558, 0.3809778690338135, -1.5699739456176758, -2.0273406505584717, -1.1060621738433838, 1.5654375553131104, 2.6768932342529297
0.6527821418661317, 0.07377225470960003, 0.42659952339173723, 1.1143597086405326, 2.9295388888099505, 0.00843768103481247, 0.5208488353279356, 0.4683766618194646, 3.0596208158710287, 0.3809937834739685, -1.5699739456176758, -2.027364492416382, -1.1060941219329834, 1.5654704570770264, 2.6768691539764404
0.6527846943774955, 0.07377829071603244, 0.4265914812700867, 1.1143274120846192, 2.929543915346506, 0.00838877028194373, 0.8876803919638852, 0.5555844464657889, 3.128825378086673, 0.3810057044029236, -1.5699620246887207, -2.027299404144287, -1.106122374534607, 1.5655066967010498, 2.6769375801086426
0.6527769670607125, 0.0737414342857575, 0.4266335529023958, 1.1144096782856212, 2.9294592830200092, 0.008442409566430038, 0.3702163920328238, 0.28516700800731476, 2.5975963657598027, 0.3809778094291687, -1.5699381828308105, -2.0273282527923584, -1.1060981750488281, 1.5654664039611816, 2.676901340484619
0.6527887798743007, 0.07379842581151971, 0.4266208317205052, 1.1142896716317414, 2.929517090645539, 0.008332475306862864, 0.5708146954057106, 0.26869960332154263, 2.613361248773717, 0.38106250762939453, -1.5699818134307861, -2.027296304702759, -1.1061421632766724, 1.5654218196868896, 2.676901340484619
0.6527589421782288, 0.07380840800432203, 0.42663112917920537, 1.1142648742463452, 2.929559474644559, 0.008475927397952611, 0.25177359559556867, -2.1909967046630785e-05, 2.268381712033497, 0.3810785114765167, -1.5699262619018555, -2.027340888977051, -1.1061142683029175, 1.5655102729797363, 2.6768932342529297
0.6527829533097576, 0.07375520494891546, 0.4266069290296793, 1.1143857231235137, 2.929484065210375, 0.008429960711529676, -0.79451883915328, 0.7487472538870731, 2.1903339841116014, 0.38106662034988403, -1.5699024200439453, -2.0273075103759766, -1.1060822010040283, 1.565462350845337, 2.676929235458374
0.6527733397918021, 0.07375484319298177, 0.42663622170176324, 1.1143452404886942, 2.9295018902966885, 0.008443432040296246, -0.5712005729115495, 0.6747637378027462, 2.2411126281987293, 0.3810179531574249, -1.5699421167373657, -2.027303457260132, -1.106058120727539, 1.5654783248901367, 2.6768932342529297
0.6527808764484984, 0.07379851745843087, 0.42664475337417584, 1.1142845465780138, 2.9295037495966643, 0.008456034879995323, -1.176870740199428, 0.14613774633275137, 1.651748668992012, 0.3810458779335022, -1.5699619054794312, -2.027275562286377, -1.1060904264450073, 1.5654296875, 2.6769216060638428
0.6527863587372214, 0.07373174249126237, 0.42664240757670396, 1.1143993726092032, 2.929432473633409, 0.00844030981336408, -1.2633308761879947, -0.46214488037636997, 0.7661231356671416, 0.3809618055820465, -1.5699421167373657, -2.0273118019104004, -1.1060904264450073, 1.565446138381958, 2.6768851280212402
0.652792099393544, 0.07379947647507744, 0.426679964430298, 1.114292724335643, 2.9294885016425396, 0.008557767521040744, 0.2719821404603228, -0.02945712495958901, 0.02388048586854945, 0.3810458779335022, -1.569934368133545, -2.0272557735443115, -1.1061145067214966, 1.5655107498168945, 2.6768932342529297
0.6527941751651289, 0.0737646911162399, 0.426704723051318, 1.114360372844111, 2.9294183622161665, 0.008615804082414856, 2.2875262506957905, 0.9492170629282978, -0.9442546619410973, 0.3809618055820465, -1.5699342489242554, -2.0272486209869385, -1.1060583591461182, 1.5654704570770264, 2.6768851280212402
0.6528266212538392, 0.0737699172063505, 0.4267203701344394, 1.1143606243497537, 2.929344667350951, 0.008630042040769592, 4.418461534999796, 1.5284532268736044, -2.398902557139779, 0.38108211755752563, -1.5699223279953003, -2.0272278785705566, -1.1060903072357178, 1.5654377937316895, 2.676957607269287
0.6528501116348492, 0.07383383413236486, 0.4267746761162424, 1.1142496327719156, 2.9293217395403484, 0.008709980642854834, 4.802995071560936, 2.3302597786448973, -3.256185259230524, 0.3810499310493469, -1.5699143409729004, -2.0271244049072266, -1.1060221195220947, 1.565474271774292, 2.6768932342529297
0.6528743201093092, 0.07385630262595833, 0.4268909699631178, 1.114081652100894, 2.9292152014173003, 0.009014320528801655, 4.684351802795584, 2.949158605067254, -3.5725485804504697, 0.38108256459236145, -1.5698741674423218, -2.027008295059204, -1.1059823036193848, 1.565502405166626, 2.6768651008605957
0.6529324312529479, 0.07382416351925923, 0.4269805093265256, 1.114195646898393, 2.929031973604566, 0.009200874434448059, 3.9378481649262516, 3.840875489067635, -3.089926449602838, 0.38100147247314453, -1.569878101348877, -2.0268714427948, -1.1059385538101196, 1.5655021667480469, 2.6768932342529297
0.652961590380334, 0.07386298301031759, 0.427060669326608, 1.1140308739092195, 2.928953215161057, 0.0093823189621054, 1.8728842923727447, 4.39401748461026, -3.0060593228714656, 0.3810015320777893, -1.5699344873428345, -2.0267844200134277, -1.105873942375183, 1.5654664039611816, 2.6768810749053955
0.6530226017510664, 0.07388812071481729, 0.4271020202234684, 1.1140653975624941, 2.928846573532034, 0.009474337678208204, -0.15278344881335232, 4.917631157197178, -3.216498631486312, 0.3810057044029236, -1.569870114326477, -2.026684045791626, -1.1059027910232544, 1.5654783248901367, 2.6768932342529297
0.6530608501372231, 0.07390405296837566, 0.42723276088277795, 1.1139918191902756, 2.9286693694584662, 0.009715063275510848, -4.432133524000973, 5.427521199669676, -3.056519387857345, 0.3810217082500458, -1.5698622465133667, -2.0265793800354004, -1.1058349609375, 1.5654704570770264, 2.6768691539764404
0.6531034241932159, 0.07388349824556655, 0.4273436601191387, 1.1139634322023577, 2.9284684790380475, 0.009963837903295684, -6.382899682002565, 4.070455171007153, -3.293959347542841, 0.3809978663921356, -1.5698134899139404, -2.026411533355713, -1.105685830116272, 1.5654501914978027, 2.676877021789551
0.6531550574642188, 0.07389706188052761, 0.4273763884829208, 1.114044237756539, 2.928416349552228, 0.010010584929978765, -9.459909295178914, -1.7197099298278367, -4.5064700126371084, 0.38098594546318054, -1.5698741674423218, -2.0262954235076904, -1.1057064533233643, 1.5654584169387817, 2.6769251823425293
0.6531830395367718, 0.07381779335838987, 0.4274767833114814, 1.1141577080606644, 2.928220499804593, 0.010111936471400558, -5.213914984686612, -15.275664309006448, -10.876337762938943, 0.3809986114501953, -1.5698295831680298, -2.0261878967285156, -1.105686068534851, 1.5654304027557373, 2.676929473876953
0.6531001775600844, 0.07371054046187223, 0.42761590350024675, 1.1142058058094997, 2.92805085580368, 0.010304427274139714, -1.3739526298418159, -24.318998443770596, -16.686620022632106, 0.3807377517223358, -1.5696176290512085, -2.026224136352539, -1.105770230293274, 1.5654345750808716, 2.6768972873687744
0.653037180154069, 0.07342232630579938, 0.4279451738609892, 1.1147166811146176, 2.927432880437025, 0.010901912633396073, -2.157089232267989, -23.13045208867199, -14.398822998036874, 0.38055068254470825, -1.569173812866211, -2.0262322425842285, -1.105742335319519, 1.565394401550293, 2.6769332885742188
0.6528481139952327, 0.07307848571330322, 0.42842085136815944, 1.115058195202539, 2.926712659359011, 0.011567336248710322, -0.48267823623958683, -23.33841418586481, -14.014486488682818, 0.38002607226371765, -1.5683932304382324, -2.0262675285339355, -1.1058107614517212, 1.5653984546661377, 2.676872730255127
0.6526677307979734, 0.07267407180959619, 0.4290130559003693, 1.115515855182721, 2.9258024800786333, 0.012593548847636521, 1.411683822911864, -24.5599036396052, -15.23346141185628, 0.37949031591415405, -1.5672838687896729, -2.0262882709503174, -1.1057780981063843, 1.5653903484344482, 2.67690110206604
0.6523873853164609, 0.07213252615778329, 0.43001883351667247, 1.1160298807159665, 2.924320373691068, 0.014349186689715554, 1.1257129416980596, -23.353223821947477, -17.52903608978837, 0.3789267838001251, -1.5660051107406616, -2.026207447052002, -1.1057460308074951, 1.565382480621338, 2.676877021789551
0.6520178640082431, 0.07149541515886175, 0.4312239118609106, 1.1165692089262296, 2.9226284207318414, 0.016346604203649626, -0.06529102273254117, -21.98428322832238, -18.481935449030928, 0.3782351016998291, -1.5641627311706543, -2.0262115001678467, -1.105730414390564, 1.5654103755950928, 2.6768691539764404
0.6515669445893584, 0.07074212944282318, 0.4327067905737395, 1.1171988964728072, 2.9205048317386413, 0.018810126951364723, -0.4498741339027208, -23.467974727220366, -20.071304729191407, 0.3773673474788666, -1.561870813369751, -2.0261712074279785, -1.1057343482971191, 1.565442442893982, 2.676913261413574
0.6510086341095714, 0.06989247290755754, 0.43456812785591037, 1.1177145109774864, 2.917846189600574, 0.022048896444107874, 1.9504562136057357, -24.716712136847892, -21.193440326818408, 0.3764599859714508, -1.5591250658035278, -2.0260603427886963, -1.105614423751831, 1.5654184818267822, 2.6768651008605957
0.6504488288774898, 0.06906047869714597, 0.4366334506061465, 1.1180865384295127, 2.9149924811680594, 0.02555857687576017, 2.187465600451801, -25.38954285136248, -21.202407704793373, 0.37546125054359436, -1.5557626485824585, -2.0258190631866455, -1.1054309606552124, 1.5654103755950928, 2.676873207092285
0.649723093219043, 0.06793546917048082, 0.43928744359910865, 1.1187739478812755, 2.911274445333842, 0.030077644718756326, 2.679299179061386, -25.908207397051815, -20.885107435759664, 0.3742174506187439, -1.551889419555664, -2.0255112648010254, -1.1052947044372559, 1.5654261112213135, 2.6768932342529297
0.6488945320151298, 0.066613509126496, 0.4423878192837111, 1.1196383723839223, 2.9070275897286972, 0.03519007739327676, 4.446395910487046, -27.330864521457755, -19.900487724919227, 0.372957706451416, -1.5480412244796753, -2.025115489959717, -1.10531485080719, 1.5654423236846924, 2.676889181137085
0.6479070019851698, 0.06514645591186327, 0.4458769338684354, 1.120486101993836, 2.9022681287611536, 0.0409170391129122, 4.419011616653302, -27.50633742313303, -18.042663102790737, 0.3714035451412201, -1.543036937713623, -2.0246710777282715, -1.1053630113601685, 1.565458059310913, 2.6768851280212402
0.6469074098443427, 0.06376067709117114, 0.44909363818100995, 1.1211273394099988, 2.897816999602014, 0.04612943306903564, 4.1848429383328085, -26.878152120524053, -16.73196227980084, 0.3696479797363281, -1.537546992301941, -2.0242514610290527, -1.1053789854049683, 1.5654301643371582, 2.6768412590026855
0.6453978286873074, 0.06171636002506659, 0.45353128340617754, 1.1223792488688125, 2.891576812737532, 0.05336887699897435, 4.349054377816651, -27.72853610862573, -15.440634524152593, 0.3677370548248291, -1.5314481258392334, -2.024043321609497, -1.1054106950759888, 1.5654661655426025, 2.676849365234375
0.6440010449594056, 0.060002954221855226, 0.4570841172728916, 1.1233839229382927, 2.8865705989716917, 0.05912783608377762, 4.366789861055957, -27.499481012587534, -12.99604249885921, 0.36569851636886597, -1.5249379873275757, -2.0240514278411865, -1.1054909229278564, 1.5654501914978027, 2.6768691539764404
0.6422343015381892, 0.05781309129176418, 0.46123861629007246, 1.1248421140346054, 2.8806350984822293, 0.06570615544871336, 4.125502221866881, -27.908736472292976, -9.792566293941086, 0.3636793792247772, -1.5188508033752441, -2.024243116378784, -1.1056703329086304, 1.56549072265625, 2.676837205886841
0.6404012927977555, 0.0554545417399197, 0.4654909488997916, 1.126619213070194, 2.874431517264422, 0.07244581026995454, 5.133302802592884, -28.155736927145863, -9.554325564973926, 0.36124423146247864, -1.5118077993392944, -2.0244431495666504, -1.1059309244155884, 1.5654537677764893, 2.67686128616333
0.6394732188627306, 0.054195694793025995, 0.467655620531337, 1.1276114772133783, 2.8712026173948715, 0.07586384856926691, 5.582427663074132, -28.364048397690382, -8.48504705477761, 0.3599368929862976, -1.5081439018249512, -2.024543523788452, -1.1060949563980103, 1.565502405166626, 2.6768453121185303
0.6374563129718089, 0.051582359860642926, 0.47195768639530056, 1.1296906925487047, 2.864760146169992, 0.08244594040932313, 4.856119424099677, -27.516773235550748, -6.240384036122155, 0.35670337080955505, -1.4997750520706177, -2.024927854537964, -1.1065181493759155, 1.5654420852661133, 2.6768290996551514
0.6363872039903822, 0.050163773614533835, 0.4740442379230829, 1.1310080474743485, 2.861582422674586, 0.08556687695424499, 4.617073322374062, -27.29697010222146, -5.293724874180294, 0.3555675745010376, -1.49708092212677, -2.025131940841675, -1.106714129447937, 1.5654942989349365, 2.6768534183502197
0.6338156368460848, 0.04679513495414642, 0.47844322583685006, 1.1345109517509406, 2.854850206859798, 0.0917298657228131, 3.6352838963000123, -26.580395883473827, -3.0901326195580365, 0.35184553265571594, -1.4884778261184692, -2.0260486602783203, -1.1078459024429321, 1.5654664039611816, 2.6768171787261963
0.6316287872709017, 0.0439907692067252, 0.4816660267615136, 1.1376501480723367, 2.850221215912969, 0.09546013285668575, 3.2229353765358573, -25.422973812958784, -2.8589096360821356, 0.3483388423919678, -1.4808528423309326, -2.027097225189209, -1.1098965406417847, 1.565446138381958, 2.676781177520752
0.6290708743833912, 0.040614953597214454, 0.4849925172966578, 1.1419462117179884, 2.84578872264318, 0.09833170620925412, 3.4726875560880224, -24.787609677707053, -1.640262937576072, 0.3450486361980438, -1.4743800163269043, -2.0281009674072266, -1.1125917434692383, 1.5654338598251343, 2.676657199859619
0.626322547621443, 0.037068549116858494, 0.48802645243492515, 1.146798227702245, 2.8422361690876268, 0.09992119289040936, 2.3897195053736886, -23.77020180327527, -0.7380850732971584, 0.3410708010196686, -1.4670857191085815, -2.029285192489624, -1.1167370080947876, 1.5654420852661133, 2.676501512527466
0.6233505073593952, 0.03342077639231728, 0.49083907223191836, 1.1521337373721143, 2.8397247966628907, 0.09986738863889144, 0.292712804563944, -21.472549356864416, -2.0257961055784115, 0.33695730566978455, -1.459598422050476, -2.0306174755096436, -1.1224820613861084, 1.5654664039611816, 2.676257371902466
0.620131187590909, 0.02964327647564278, 0.49328383800373987, 1.1582220302019213, 2.838806592073558, 0.0976016622796756, -1.343705857112703, -20.015095144415262, -2.536031090062849, 0.3327280580997467, -1.4521877765655518, -2.0320677757263184, -1.1301844120025635, 1.5654946565628052, 2.6759893894195557
0.6172283284548928, 0.02625147603152006, 0.49517775420236554, 1.1640516903230822, 2.838973003513744, 0.09430732203744621, -3.889896424014351, -18.600425480309834, -2.0496064063292345, 0.3283872604370117, -1.444973111152649, -2.033358335494995, -1.1395745277404785, 1.565474271774292, 2.67567777633667
0.6138842721435881, 0.02238781716920046, 0.4972597833004536, 1.17101120135956, 2.839656270411209, 0.08967346162997437, -4.1767792647802295, -16.82912388344675, -1.0714142760814358, 0.3245793282985687, -1.4387503862380981, -2.0343470573425293, -1.148571491241455, 1.565446138381958, 2.6754019260406494
0.6105466021198053, 0.018409637947698995, 0.4992070113059218, 1.1789146386353409, 2.8411840954059153, 0.0837100844223529, -5.147161324415538, -12.884577348729614, -2.23309483003505, 0.31991881132125854, -1.4319853782653809, -2.0351593494415283, -1.160235047340393, 1.5654182434082031, 2.67514967918396
0.6072754200163777, 0.014525404678150092, 0.5012333496223279, 1.1870951559262006, 2.8430780164629628, 0.0772396250921685, -4.937859235619075, -14.439698596361191, -1.997496724781533, 0.3154309093952179, -1.4252749681472778, -2.0354907512664795, -1.1728307008743286, 1.5654504299163818, 2.6750340461730957
0.6041451320084767, 0.010739899349337886, 0.5034232795634274, 1.195257457711403, 2.8448259530051434, 0.07093272008956278, -4.916699294408281, -13.164673594591882, -6.292825213610671, 0.3108202815055847, -1.4190337657928467, -2.0353708267211914, -1.1856032609939575, 1.565406322479248, 2.6749982833862305
0.6013270505309423, 0.007434669530782796, 0.5051588955921271, 1.2026651534883108, 2.847010029751656, 0.06440936046574106, -5.051744573651226, -12.966862734081767, -8.56322586141653, 0.30621176958084106, -1.412693977355957, -2.035130262374878, -1.1992491483688354, 1.5653822422027588, 2.674938201904297
0.598189417866499, 0.0038518759373830608, 0.5071833797354394, 1.2105897285816976, 2.849092490153253, 0.05786926293046183, -3.6541473318781277, -13.771133180889207, -9.428486171544545, 0.3023902475833893, -1.4073418378829956, -2.034914970397949, -1.2104740142822266, 1.565446138381958, 2.6748621463775635
0.5950025831589139, 0.0003797468382889936, 0.5091228721073088, 1.218341631511136, 2.8512657776574653, 0.051233019681313254, -4.675911000132652, -11.364111427682284, -10.082164213488452, 0.2981937825679779, -1.4013035297393799, -2.0348143577575684, -1.2231509685516357, 1.5653784275054932, 2.6748223304748535
0.5917933756160685, -0.0029844790572713963, 0.5110302355566885, 1.225855707438687, 2.853415234229379, 0.04499278673602892, -4.368615516501456, -13.650788513607889, -11.955810413744716, 0.2940855920314789, -1.3952245712280273, -2.0347347259521484, -1.2356634140014648, 1.5654501914978027, 2.6747262477874756
0.5891137640875574, -0.005874064462125603, 0.5127816889059741, 1.2321998964861074, 2.8545118300246854, 0.04030977126886981, -4.585756974212801, -14.844548875880266, -12.814458130824038, 0.2900919020175934, -1.3892602920532227, -2.034662961959839, -1.2471210956573486, 1.5654222965240479, 2.674678325653076
0.5860682002590574, -0.009044112316545576, 0.5149252479517001, 1.2391044838388552, 2.855764081704566, 0.03520808974317918, -5.471535253269354, -14.820640286357149, -14.003375703996653, 0.2862064838409424, -1.3833218812942505, -2.0343377590179443, -1.2584437131881714, 1.565406322479248, 2.6746020317077637
0.5831650007091334, -0.011988225970741714, 0.5172835943855498, 1.245467213150598, 2.8563152348277927, 0.031266422842070325, -4.594230820786455, -14.939309508113984, -13.526868916064478, 0.28300222754478455, -1.3782649040222168, -2.033869743347168, -1.267484188079834, 1.5653784275054932, 2.6746623516082764
0.580373915680463, -0.01490992133353547, 0.5198791695451925, 1.251382068063911, 2.8559947423326237, 0.028552312916006083, -4.1369202390728805, -14.100000296983723, -15.074054585602628, 0.27940133213996887, -1.3722950220108032, -2.033177614212036, -1.2769328355789185, 1.565406322479248, 2.674574375152588
0.5776424531031988, -0.017615235190981772, 0.5227931064315561, 1.2565675423193814, 2.855277855152056, 0.02665330162876903, -3.3549760616645945, -14.309510634080944, -15.156961510142203, 0.27594783902168274, -1.3662842512130737, -2.032273054122925, -1.285866141319275, 1.5654144287109375, 2.674506187438965
0.5752169440384678, -0.01995945237366126, 0.5255024007269306, 1.2609918990879532, 2.8542125034276564, 0.02553998980059103, -3.9359257622715265, -16.764721235826894, -14.736032128099417, 0.2726220190525055, -1.3600831031799316, -2.0311577320098877, -1.2944369316101074, 1.5654103755950928, 2.6744582653045654
0.5723003493728176, -0.022732658521775213, 0.5294100917818956, 1.2658203675047561, 2.851827470836747, 0.025780450521396103, -2.752983661936866, -17.42466291300354, -14.327548830204881, 0.26951974630355835, -1.3539352416992188, -2.029695749282837, -1.3019028902053833, 1.565394401550293, 2.674490451812744
0.5700986207948665, -0.02479523808915551, 0.5326574581394274, 1.2690522915125877, 2.849457356381839, 0.02678247879368041, -2.4904676060669453, -15.94436768244434, -13.258183089686796, 0.26690995693206787, -1.3484950065612793, -2.028275489807129, -1.3078619241714478, 1.5654503107070923, 2.6744225025177
0.56766124434982, -0.027096503349598566, 0.5366175625128142, 1.2725958647887448, 2.846283646025697, 0.02852220075686203, -1.814323900501419, -16.67094261571622, -13.92038923474684, 0.26403313875198364, -1.3422144651412964, -2.026311159133911, -1.3143583536148071, 1.5654263496398926, 2.6743743419647217
0.5652416384932752, -0.029219228208549636, 0.5407702080441825, 1.2754649228990258, 2.8429788723864826, 0.03073842569988523, -1.0133391903177773, -16.73714104782643, -13.1597601263326, 0.2613224387168884, -1.3359038829803467, -2.0240890979766846, -1.3205825090408325, 1.5654382705688477, 2.674342393875122
0.5631022941667634, -0.03107447940918415, 0.5444188786486701, 1.2779909839879342, 2.839915792924128, 0.032898089618962706, -0.5195566217469991, -18.728614374745757, -10.455737590718499, 0.2586613893508911, -1.3294916152954102, -2.021909475326538, -1.326565146446228, 1.5654382705688477, 2.674346446990967
0.5606544167284867, -0.033199939804817384, 0.5488009855783835, 1.2807825801299193, 2.8359696916762225, 0.03574244599770016, 0.14242803124613285, -19.888554238558402, -11.718565753666109, 0.2559863030910492, -1.3230606317520142, -2.0194759368896484, -1.3323882818222046, 1.5653903484344482, 2.674374580383301
0.5581007592127466, -0.03523050090489629, 0.5531044551710462, 1.2832281862274824, 2.8322525103079244, 0.03864394271544465, -0.3455536205950682, -20.32401435977903, -11.363543176041727, 0.2534888982772827, -1.3165385723114014, -2.0172154903411865, -1.338163137435913, 1.5654261112213135, 2.6743226051330566
0.5554299595926078, -0.0372049452428378, 0.5573012587225261, 1.285562869984565, 2.8289382538173555, 0.04106144497697057, -0.29382314270187126, -20.072905825652136, -10.99700556723395, 0.2513859272003174, -1.3107903003692627, -2.0154001712799072, -1.3434914350509644, 1.5654581785202026, 2.6742947101593018
0.5525232558185599, -0.039290848411246325, 0.5612732301388884, 1.2885642629058867, 2.8263988437998235, 0.04220984680802084, -1.170386845944492, -18.72903169241211, -9.367352122290802, 0.24897608160972595, -1.3041731119155884, -2.013291120529175, -1.3506865501403809, 1.5654661655426025, 2.674238681793213
0.5498366608593185, -0.04105972917103935, 0.564440847503007, 1.2913180714597816, 2.8249993917298712, 0.04234238979502641, -0.9122187646141001, -18.042108212686877, -10.019618769429082, 0.24662575125694275, -1.2975270748138428, -2.0115504264831543, -1.3588337898254395, 1.5654261112213135, 2.6742305755615234
0.546247673264507, -0.04328733429927424, 0.56827840564454, 1.2949963092237757, 2.8239704054093413, 0.041519607990231654, -1.3557797344557336, -18.586524417351306, -9.811064577542627, 0.24441568553447723, -1.2909456491470337, -2.0099446773529053, -1.367660641670227, 1.5654786825180054, 2.674182415008545
0.5441681018319916, -0.04452146068255488, 0.5701782198215396, 1.2973047789251957, 2.823960458860784, 0.0403878852230015, -3.0094283073287356, -16.20122219192281, -9.299348127230106, 0.24305224418640137, -1.2868314981460571, -2.0091421604156494, -1.373551368713379, 1.5654301643371582, 2.6741905212402344
0.5406713831641845, -0.046467211768850686, 0.5730874502734873, 1.300951512049647, 2.8249965477512315, 0.037255722181201066, -4.535614039984678, -15.02817874808114, -10.017105985157862, 0.24102675914764404, -1.2803250551223755, -2.0078375339508057, -1.3844188451766968, 1.5653901100158691, 2.674170732498169
0.5357252387438926, -0.04905418544391519, 0.5766694338130034, 1.306204988274091, 2.8269745412168716, 0.032377533799696316, -6.180081826230745, -14.976573598989173, -10.16439855215381, 0.23832061886787415, -1.2713754177093506, -2.0063936710357666, -1.3998420238494873, 1.565406322479248, 2.6740505695343018
0.5320099481614377, -0.05086359083220766, 0.5789943400633597, 1.3100528424855817, 2.8293288546929958, 0.02778157983324224, -7.125665784724743, -13.57774437335858, -12.0658809496147, 0.23650212585926056, -1.2649582624435425, -2.005635976791382, -1.4115580320358276, 1.5654423236846924, 2.674006700515747
0.5282869561712265, -0.05267013227094726, 0.581210026662841, 1.314101513896817, 2.83180569188328, 0.022826532085332765, -7.009047873133971, -14.823315063511743, -11.695126596393214, 0.2347753345966339, -1.2586593627929688, -2.004835367202759, -1.4238308668136597, 1.565406322479248, 2.673898696899414
0.5251046593855498, -0.054155275920158355, 0.583133597666339, 1.3173286968773812, 2.833906669463473, 0.01891080595716244, -8.81982271399888, -13.257113493935998, -10.701283815419709, 0.23312073945999146, -1.252523422241211, -2.0040395259857178, -1.4354523420333862, 1.5654222965240479, 2.673874616622925
0.5214794090212506, -0.055780085269518914, 0.5854220930934523, 1.3210046804645972, 2.8364880557576546, 0.014141839917457155, -9.113688626002778, -12.001619568311257, -11.748859489728666, 0.23176926374435425, -1.2471243143081665, -2.003099203109741, -1.4460608959197998, 1.5654263496398926, 2.67387056350708
0.517926498945643, -0.057331173908842806, 0.5878056177862035, 1.3242796183119103, 2.8386907209035614, 0.010008817514947803, -8.654257065422504, -11.60249630520297, -9.967001528211723, 0.23038296401500702, -1.2411538362503052, -2.001950263977051, -1.4576789140701294, 1.565434217453003, 2.6738226413726807
0.5145330926398339, -0.05878792321557833, 0.5903007234062496, 1.3272467313822782, 2.84033230402661, 0.0065919231817179935, -8.90584173592816, -10.156143878119616, -12.601774529175819, 0.22900080680847168, -1.2351714372634888, -2.000661611557007, -1.4684587717056274, 1.5654025077819824, 2.6738147735595703
0.5111870439217456, -0.060168296917743516, 0.5928238393692067, 1.3301544862815342, 2.8420524453629423, 0.0031083984341814504, -9.239337703909715, -13.072267674698901, -13.846546983912722, 0.22779235243797302, -1.2294292449951172, -1.9992090463638306, -1.4792362451553345, 1.5653784275054932, 2.673794746398926
0.5080637375138969, -0.06136808573952594, 0.5955655113681668, 1.3322329988456683, 2.8430507781183416, 0.0010086470454124666, -8.4086846779965, -11.693967775090337, -9.988179406829005, 0.22677107155323029, -1.223887324333191, -1.9974933862686157, -1.4889990091323853, 1.5654064416885376, 2.673846483230591
0.5054890979656205, -0.06234883994315009, 0.5981267348254217, 1.333717616172701, 2.8434650837965765, -0.00022636414239008315, -7.704579679051865, -11.347815848878868, -10.215791174014079, 0.2258373349905014, -1.218367338180542, -1.9955283403396606, -1.4979015588760376, 1.5654263496398926, 2.6737985610961914
0.5025899115500373, -0.06344059923873849, 0.6010254595110418, -1.3351239963746304, -2.8433918430938587, 0.001678439579072525, -5.360464689002986, -13.74455169996002, -12.668119141445567, 0.2250758707523346, -1.2137688398361206, -1.9937069416046143, -1.505753993988037, 1.5654585361480713, 2.6738028526306152
0.499769351933029, -0.06437036875261055, 0.6040390513158792, -1.3355555811637538, -2.8422316422492155, 0.0029052455981450212, -5.4084583843607295, -15.026942796798892, -10.7697581610998, 0.22446230053901672, -1.2084665298461914, -1.991422414779663, -1.5143829584121704, 1.565406322479248, 2.6737747192382812
0.496996210592971, -0.06525396251003984, 0.6072415999122884, -1.3361402277547338, -2.8416315290648924, 0.003199702196367672, -5.064643889305148, -16.80037738358815, -11.212863204020138, 0.22381877899169922, -1.2033003568649292, -1.9890069961547852, -1.5224977731704712, 1.565394401550293, 2.6738028526306152
0.4943339669211942, -0.06604027662493962, 0.6104285733308633, -1.3366004186810618, -2.841317590768244, 0.0032656213696402275, -4.371778961809154, -17.148708840076925, -11.981195775557199, 0.22351191937923431, -1.1981650590896606, -1.9865058660507202, -1.5302391052246094, 1.5654103755950928, 2.673823118209839
0.4919214244194953, -0.06670162586177816, 0.6132601675453442, -1.3368183934036266, -2.8409108288480955, 0.0036009613772717466, -4.026255791769598, -15.865214753190406, -9.934347859894112, 0.22319296002388, -1.1930192708969116, -1.9839098453521729, -1.5383541584014893, 1.5654182434082031, 2.67383074760437
0.48918625625457296, -0.06741749798715724, 0.6164502036748564, -1.3367421869785998, -2.840340823612912, 0.004333219892190637, -4.083051371234827, -16.12899219313355, -9.999102152890341, 0.22306540608406067, -1.1886112689971924, -1.9815365076065063, -1.5457624197006226, 1.5654023885726929, 2.6737706661224365
0.4868098268548006, -0.06797193212900736, 0.6191982070815597, -1.3366511817458382, -2.8399263897061346, 0.0046801853338853784, -5.232966540378414, -16.458273591862678, -11.850913768455124, 0.2229265421628952, -1.1836451292037964, -1.9788916110992432, -1.5539273023605347, 1.5654661655426025, 2.6738107204437256
0.48373679508974216, -0.0686527820442885, 0.6227760931958729, -1.3363613987788387, -2.839650433698829, 0.005184147808816393, -4.835936493615487, -15.82961756964489, -9.924355208908828, 0.2229260951280594, -1.1786022186279297, -1.976218581199646, -1.5620501041412354, 1.5654103755950928, 2.6737704277038574
0.480922393631917, -0.06930594930527413, 0.6257927788174571, -1.3359326534465987, -2.8387515317170586, 0.006495962749703977, -3.450994450270489, -15.592114031835072, -10.748464291129967, 0.22295072674751282, -1.1736433506011963, -1.9735300540924072, -1.5707848072052002, 1.5654263496398926, 2.6738429069519043
0.47840000327312165, -0.06985146114331614, 0.6283935033816842, -1.3353612411564955, -2.8377857069931163, 0.007781166872594736, -2.8728361619949236, -18.361002039120194, -8.326495157876689, 0.2229585349559784, -1.1687922477722168, -1.970872402191162, -1.5799728631973267, 1.565434217453003, 2.67380690574646
0.47552050177386423, -0.07052351985891489, 0.6313625524004671, -1.3348927144528575, -2.8367008563044696, 0.00926098430651689, -2.706860232352382, -14.676741673511614, -8.115714273548994, 0.2229856252670288, -1.1645569801330566, -1.9684488773345947, -1.5879565477371216, 1.5654023885726929, 2.6738269329071045
0.4725987288170849, -0.07117692539741215, 0.6340581066057634, -1.3339528390904718, -2.8350017517206854, 0.011722547087386128, -3.41392085746779, -14.78243046590742, -8.310910172862542, 0.2229142040014267, -1.1597332954406738, -1.9660037755966187, -1.5974723100662231, 1.5654023885726929, 2.6737663745880127
0.469650005755608, -0.07183990343720319, 0.6367295606302874, -1.3329075373353305, -2.8328579029681387, 0.01446927481286834, -4.009997239418959, -15.021205192386356, -9.208168202725004, 0.2229100912809372, -1.1545430421829224, -1.9630149602890015, -1.6090337038040161, 1.565438151359558, 2.6738228797912598
0.46670288551583083, -0.07251299633186398, 0.6392878519613027, -1.3318960095994306, -2.830870132075921, 0.01719351776412088, -3.7380423981769653, -13.471521225779522, -6.6233000183238895, 0.22295431792736053, -1.15049147605896, -1.9608819484710693, -1.6176730394363403, 1.5654263496398926, 2.673794746398926
0.46411139903670445, -0.07308825238105429, 0.6414708600859683, -1.3309438433739302, -2.8291518278607866, 0.01959541115800185, -3.6567166831468176, -10.402891611807169, -7.259258309386197, 0.2229100912809372, -1.145896553993225, -1.9584813117980957, -1.6275197267532349, 1.5654103755950928, 2.6737866401672363
0.461148772491808, -0.07372014607869025, 0.6437888334303317, -1.329648918702865, -2.826564673193872, 0.02296037528827827, -3.9090364425266477, -6.494225928307913, -6.180910935989861, 0.22296953201293945, -1.1414769887924194, -1.956139087677002, -1.6378761529922485, 1.5654741525650024, 2.673851251602173
0.458338619961315, -0.07436880145239616, 0.6459722415950998, -1.3284816249681677, -2.8242762625170412, 0.02609410339767627, -4.733436203528335, -5.834952490978026, -5.191698771571721, 0.2229381650686264, -1.1372934579849243, -1.9539557695388794, -1.6474906206130981, 1.5654500722885132, 2.6738147735595703
0.45534114052603836, -0.07503440791574169, 0.6483581606124695, -1.3273237226029249, -2.8220413539819322, 0.029175035122003392, -5.029294153918567, -5.523931434293761, -5.15200168955857, 0.22296950221061707, -1.1333049535751343, -1.9518266916275024, -1.6564069986343384, 1.5654420852661133, 2.6737544536590576
0.45309796508536343, -0.07553742430935377, 0.6500493125201114, -1.3261996253211166, -2.8200695863460377, 0.03187988235136993, -7.024817286023921, -3.951014576625861, -6.291011475335857, 0.2229381650686264, -1.1300358772277832, -1.9500387907028198, -1.6642414331436157, 1.565382480621338, 2.6737587451934814
0.45063901869647854, -0.07612603690335962, 0.6519046380479128, -1.325282545242711, -2.817955463785317, 0.03475983201178299, -6.131055748066018, -4.4071519296290065, -3.7096333110107986, 0.22296220064163208, -1.1264653205871582, -1.948145866394043, -1.6728788614273071, 1.565426230430603, 2.673794746398926
0.4487055177470009, -0.07652761608527726, 0.6534050723932168, -1.324395667785928, -2.8162836212916256, 0.03685918197175074, -6.594077460294929, -0.5376689434204962, -0.8598896256656687, 0.22296136617660522, -1.1232352256774902, -1.9462532997131348, -1.6805235147476196, 1.5654302835464478, 2.6738107204437256
0.4466092142878483, -0.07701304276293866, 0.6549741051249387, -1.3236236651737459, -2.814675069368512, 0.03886886757970355, -6.9880680198857625, 1.4369024614266752, -1.5688809408237063, 0.22287307679653168, -1.1205551624298096, -1.9448492527008057, -1.6864978075027466, 1.565434217453003, 2.6737782955169678
0.4453912352170716, -0.07727099839502369, 0.6559076545437388, -1.3231168604342154, -2.813932824038913, 0.040049683545805764, -6.628050651194342, 2.463054784826422, -2.3990004715546167, 0.22296543419361115, -1.1187801361083984, -1.9439404010772705, -1.690433144569397, 1.565466046333313, 2.6737706661224365
0.44447512542381024, -0.07745592165868105, 0.6565449987286252, -1.3226882611587119, -2.8132676636057248, 0.04102915230178645, -6.752787059595861, 3.1337119627148966, -1.9642192408917127, 0.22302614152431488, -1.117428183555603, -1.943295955657959, -1.6934272050857544, 1.565454125404358, 2.6737987995147705
0.4436201872787696, -0.0776663570788623, 0.6571179441251758, -1.3223825740280828, -2.8124867983739223, 0.04191801750484639, -6.954056361728764, 4.143276134216951, -0.26772435059470584, 0.22298945486545563, -1.116171956062317, -1.9427272081375122, -1.6962815523147583, 1.565426230430603, 2.673790693283081
0.4428909058159638, -0.07782561055016281, 0.6576669377600082, -1.3221692147700297, -2.81197146462204, 0.042611701571913574, -7.614677981467745, 5.683517604455386, 0.043568465354217156, 0.22298912703990936, -1.115042805671692, -1.942199945449829, -1.698623776435852, 1.5654222965240479, 2.6738028526306152
0.44150072536321694, -0.07812559388987947, 0.6587234076736953, -1.3218119512770086, -2.8114823746057187, 0.04324009630328076, -8.804166827904622, 6.307891921641816, 2.0234579691559835, 0.22303006052970886, -1.112868309020996, -1.9413399696350098, -1.7026792764663696, 1.5654422044754028, 2.6737987995147705
0.4405085703091891, -0.07834863028481025, 0.65953272316119, -1.3218277674199215, -2.8114719364074947, 0.043349129776369476, -8.108629593475689, 5.982316728337064, 2.693245386703314, 0.22296544909477234, -1.1111183166503906, -1.940663456916809, -1.7051297426223755, 1.565434217453003, 2.6738109588623047
0.439916181275792, -0.0784765519532514, 0.6601727642205806, -1.322091952021132, -2.8121908663359534, 0.04243377198543235, -7.7215857488501785, 5.083781335030319, 2.6706379295076523, 0.22300545871257782, -1.10988187789917, -1.9403712749481201, -1.705875039100647, 1.5654182434082031, 2.6738388538360596
0.4394500767744531, -0.07860450855111906, 0.660666512313479, -1.3226009086779855, -2.8130929924237984, 0.041266782729346384, -8.197337996984231, 7.103883389794485, 3.00204430836546, 0.22298502922058105, -1.1088258028030396, -1.9402117729187012, -1.7056714296340942, 1.565477967262268, 2.673811197280884
0.4391379504657245, -0.07866700668353488, 0.660877966516072, -1.322817142463636, -2.8135926001088905, 0.040546977185450445, -8.09884601513176, 9.285050382914614, 5.643880967156911, 0.22298143804073334, -1.108051061630249, -1.9403319358825684, -1.7054835557937622, 1.5653945207595825, 2.6737866401672363
0.43898246210599245, -0.07868721750889761, 0.6610082709720821, -1.322879976441309, -2.8138316543685336, 0.040269484362780224, -8.966538965872699, 11.757025632380511, 8.72777807400877, 0.2230057567358017, -1.107761263847351, -1.9403878450393677, -1.7054916620254517, 1.565434217453003, 2.673794746398926
0.43903486252347523, -0.07866743552821209, 0.6608765688735427, -1.322776423226684, -2.8136669040952844, 0.04047540790096269, -8.617916881679562, 12.428605256577603, 9.430728062256108, 0.22292959690093994, -1.1078212261199951, -1.9404511451721191, -1.7055555582046509, 1.5654500722885132, 2.6737663745880127
0.4391488132178843, -0.07863266313117306, 0.6607396688260597, -1.322650113950387, -2.813501963244624, 0.04076272327792583, -9.929664156846343, 15.328600845220825, 10.934705437250495, 0.222993403673172, -1.1080683469772339, -1.9405121803283691, -1.7055236101150513, 1.565394401550293, 2.673790693283081
0.4392860529091833, -0.07860703072933949, 0.6605460486448467, -1.3224779670326956, -2.8131651854817816, 0.04118466034010383, -10.210058024608177, 17.045397296120747, 12.243894782676808, 0.22306127846240997, -1.108383059501648, -1.94063138961792, -1.7055517435073853, 1.565438151359558, 2.6737704277038574
0.43957207948219745, -0.07849077431936063, 0.6602040001839156, -1.3221353923304742, -2.8127005468916573, 0.041852451041722714, -10.753221865570563, 17.752963836865398, 12.835233732213258, 0.22309331595897675, -1.108893632888794, -1.940727710723877, -1.7055155038833618, 1.565446138381958, 2.673794746398926
0.43992805840900306, -0.07841471123910199, 0.6598168209728343, -1.3218490873854873, -2.8120454576374057, 0.04271161781052308, -10.890488330106274, 18.68431956242912, 13.485681347925643, 0.22310538589954376, -1.1096681356430054, -1.9408323764801025, -1.7055355310440063, 1.565474033355713, 2.6738228797912598
0.44046591328430007, -0.0782909756250009, 0.6593016721827671, -1.321372247688718, -2.8112041218138057, 0.043759106806742935, -10.678757802072699, 18.48960691754606, 13.411437801545542, 0.22309716045856476, -1.1107332706451416, -1.9408791065216064, -1.7055317163467407, 1.5654746294021606, 2.6738312244415283
0.4409982408995127, -0.07818252189051067, 0.6587929826561945, -1.3210228576518155, -2.810314899252832, 0.04491358711505439, -10.493147706501796, 18.670564065438807, 13.109751007079385, 0.2231411188840866, -1.1120731830596924, -1.9409838914871216, -1.7054835557937622, 1.5654619932174683, 2.6737825870513916
0.4417970887407354, -0.07794563150528143, 0.6580766473802266, -1.32027155827118, -2.8091083423264123, 0.046501895022440294, -10.314636613559996, 18.88796314745304, 13.884111178915301, 0.2232614904642105, -1.113776445388794, -1.9410003423690796, -1.7054954767227173, 1.5655022859573364, 2.673794746398926
0.4427362597849765, -0.07776479281683368, 0.6572272931483907, -1.3196802014212758, -2.8076189374171605, 0.04845499964444158, -9.95921939287079, 18.5295874738425, 13.919630438318084, 0.2231970578432083, -1.1154433488845825, -1.9410713911056519, -1.7055236101150513, 1.565446138381958, 2.6738028526306152
0.4437884313216954, -0.07748994703760012, 0.6561757949947389, -1.3186841469816333, -2.8058841624701016, 0.050818597527571084, -9.584373451134208, 19.067531203696234, 14.664444565750669, 0.22325706481933594, -1.117798089981079, -1.9411441087722778, -1.705471158027649, 1.5654785633087158, 2.6738028526306152
0.44498882832005726, -0.07722983273975541, 0.6550430152758226, -1.3178457345087708, -2.8039364796972643, 0.05332015390891172, -9.514623022546209, 18.411513913914852, 13.609318941667961, 0.22326064109802246, -1.1206936836242676, -1.9412363767623901, -1.705499291419983, 1.5654380321502686, 2.6737987995147705
0.4461565644458523, -0.07695614562278504, 0.6538885529162538, -1.316889565593166, -2.8020236758944232, 0.055869422198828976, -9.626232751575337, 18.477456960251786, 13.951232598770128, 0.22328902781009674, -1.123238205909729, -1.9413721561431885, -1.7054959535598755, 1.5654103755950928, 2.673794746398926
0.44754520534315806, -0.07661649397306028, 0.6524481908071159, -1.3157296973589911, -2.799591603331558, 0.0589111748113329, -9.485289827080939, 19.36807895757411, 14.311301363686583, 0.22336074709892273, -1.1258549690246582, -1.9415514469146729, -1.7055116891860962, 1.5654704570770264, 2.6738107204437256
0.4491090791499544, -0.07623049748006748, 0.6508901780419026, -1.3144356470991791, -2.7969969282316036, 0.06222626211499113, -8.724193001743192, 18.94582413640256, 13.74287966584831, 0.22337673604488373, -1.1291937828063965, -1.941776156425476, -1.7055193185806274, 1.5654746294021606, 2.6738429069519043
0.4507227153355976, -0.07586236195439382, 0.649242447391748, -1.3131086255183726, -2.794265506650467, 0.06581802610051027, -8.550779350179498, 17.91777224060754, 13.595219081974035, 0.22341659665107727, -1.1327816247940063, -1.942008137702942, -1.7054749727249146, 1.5654746294021606, 2.6738510131835938
0.45246623065452973, -0.07546637495394619, 0.6475254918024569, -1.3117318018494202, -2.7913675166371936, 0.06954105924939871, -8.700178987069418, 17.162920259664205, 13.146414130689156, 0.22345267236232758, -1.1367067098617554, -1.9421324729919434, -1.705466866493225, 1.565482497215271, 2.6737987995147705
0.45411727068218355, -0.07511761485326132, 0.6459335433651152, -1.3105790204824643, -2.7885759908285963, 0.07294404733974938, -9.060610601161729, 17.855544058245414, 13.079194714238888, 0.22334855794906616, -1.1407862901687622, -1.942176103591919, -1.7054916620254517, 1.5654704570770264, 2.673859119415283
0.45608463879056804, -0.07463171028071747, 0.6440852176406096, -1.30890093324611, -2.7855053147652855, 0.07701917551827496, -8.788452493803195, 18.435682034974064, 12.519806574165234, 0.22344447672367096, -1.145117163658142, -1.9421722888946533, -1.7054997682571411, 1.5654340982437134, 2.6738226413726807
0.4582370462608402, -0.0741454079900755, 0.6420425055828933, -1.3072261765985302, -2.7820267127335927, 0.08139897921513611, -8.512262060610347, 18.259317161981844, 10.308246443204203, 0.22339650988578796, -1.149233341217041, -1.9422045946121216, -1.7054554224014282, 1.5654823780059814, 2.6737825870513916
0.4604094536585, -0.07365628051948424, 0.6399503459472169, -1.305671344800434, -2.778603780862844, 0.08573488562241637, -8.117107158294338, 19.008420652513745, 9.474647047675454, 0.22340433299541473, -1.1540082693099976, -1.9421882629394531, -1.7053080797195435, 1.565474510192871, 2.673806667327881
0.4626596868482655, -0.07311393350392775, 0.6378992668940799, -1.304039927602505, -2.7753432833318405, 0.08987638515564712, -8.952057602486226, 19.517719868731284, 10.307745842638566, 0.22350867092609406, -1.1589243412017822, -1.9421318769454956, -1.7049003839492798, 1.5654302835464478, 2.6738028526306152
0.4650120157390334, -0.07260812277543846, 0.6357490816408695, -1.3025834660204676, -2.7719751798734795, 0.09389995243539584, -8.50599335845077, 20.57677594092107, 9.714521842930036, 0.22347258031368256, -1.1640387773513794, -1.9421480894088745, -1.7043334245681763, 1.565438151359558, 2.6737866401672363
0.4674515981563257, -0.07201697234382468, 0.6335205572460181, -1.3009508120918272, -2.7686181210666274, 0.09808373579204475, -8.374088557824194, 20.33114410641331, 8.418097605225018, 0.22344842553138733, -1.1693297624588013, -1.9421519041061401, -1.7036949396133423, 1.5654380321502686, 2.6738107204437256
0.4696379431989007, -0.07151432858652168, 0.631494467896495, -1.2994096665321158, -2.7656566816258215, 0.10182040892052677, -8.032699449840955, 20.05414853550382, 8.035040146328857, 0.22353219985961914, -1.1747840642929077, -1.9421285390853882, -1.7028361558914185, 1.565474510192871, 2.673794746398926
0.47221826050150817, -0.07090826427292017, 0.6291529275848826, -1.2979010050186517, -2.762385860779256, 0.10589647790924, -7.518690832071183, 18.87755331863788, 7.041821993628839, 0.22360828518867493, -1.1796188354492188, -1.94212007522583, -1.7018972635269165, 1.5655299425125122, 2.6737823486328125
0.4735196804028658, -0.07060117846795372, 0.6279918284481093, -1.2970311149695621, -2.7608737760057775, 0.10787112681179561, -7.50572953835983, 19.463337590564713, 6.648784904644023, 0.22359228134155273, -1.1825039386749268, -1.9420883655548096, -1.701255440711975, 1.565474510192871, 2.6738028526306152
0.475205071790869, -0.0702004107854501, 0.6264544682932249, -1.2960609364021505, -2.758772730793468, 0.1103652316250227, -8.498194218918059, 21.194360413998645, 6.476600741736977, 0.22367607057094574, -1.185988426208496, -1.9420883655548096, -1.7003289461135864, 1.5655021667480469, 2.6738147735595703
0.4775805047934048, -0.06962543920591668, 0.624348341023246, -1.2946913108410738, -2.7561584832342443, 0.11364488342521673, -8.400805084141714, 22.26026625701646, 7.496189054837859, 0.22371557354927063, -1.1910794973373413, -1.9421164989471436, -1.699043869972229, 1.5654665231704712, 2.673818826675415
0.4803789709911803, -0.06894681072105754, 0.6218852126706864, -1.2931729840663602, -2.75314151250073, 0.11730919456179852, -8.560603562553055, 22.060580920005936, 6.890581386980775, 0.22384408116340637, -1.1969645023345947, -1.9421241283416748, -1.6972109079360962, 1.5654784440994263, 2.673794746398926
0.4833146137441281, -0.06822954114015847, 0.6194296384632266, -1.29182486318094, -2.7507275491461134, 0.12037510839555658, -7.290699417783113, 21.27694396505146, 6.479040473411455, 0.22391965985298157, -1.2030428647994995, -1.942079782485962, -1.6946598291397095, 1.5655022859573364, 2.6738266944885254
0.48596060532612584, -0.06756212348521082, 0.6172377571310406, -1.2907346126233528, -2.74873806742525, 0.12285791161905701, -6.740153079702023, 20.785950624058692, 6.3423002312206975, 0.2240586280822754, -1.2091727256774902, -1.9420480728149414, -1.6916457414627075, 1.5655062198638916, 2.67383074760437
0.48912245572118773, -0.06675741588375136, 0.6146853669625381, -1.2895464810149757, -2.7468100469646615, 0.125319977277807, -6.347060319029679, 19.913520573860957, 5.339299561828009, 0.22423873841762543, -1.2155157327651978, -1.9420610666275024, -1.688015103340149, 1.5655180215835571, 2.673823118209839
0.49194410391205445, -0.06607057903731998, 0.6124783253782715, -1.2887918043266149, -2.7454071938715954, 0.1270935228733972, -7.600718063355981, 20.91248818508404, 6.669742422644026, 0.2243744432926178, -1.220310926437378, -1.9420599937438965, -1.684907078742981, 1.5654704570770264, 2.673834800720215
0.4974228260025495, -0.06470762244853766, 0.6083757615263276, -1.287626388464582, -2.7437447271216033, 0.12925988048355103, -5.0262426904202355, 18.735574616332986, 7.0298130812681405, 0.224525585770607, -1.2308320999145508, -1.9420320987701416, -1.6769648790359497, 1.565526008605957, 2.6737866401672363
0.5005662490039832, -0.06395563753188317, 0.6061867867250779, -1.2874081776928838, -2.743525769818008, 0.1296016829697866, -4.820556020797464, 18.077503972597118, 6.719043908226626, 0.22463759779930115, -1.2366178035736084, -1.9420443773269653, -1.6715580224990845, 1.5654942989349365, 2.6738266944885254
0.5042773595212277, -0.06309489204284494, 0.603701128097716, -1.2876044102101671, -2.743912485021421, 0.1291563663030023, -3.732959987928767, 16.833159670613963, 8.602994609319664, 0.22472907602787018, -1.243388295173645, -1.9421240091323853, -1.6643587350845337, 1.5655144453048706, 2.67383074760437
0.5080951090481497, -0.06219832162361427, 0.6012599007568935, -1.2879868595498385, -2.744795860172357, 0.1280599100232014, -4.278506544148287, 18.712093399300635, 8.303649158218331, 0.22478491067886353, -1.2501633167266846, -1.9420802593231201, -1.6564608812332153, 1.5655022859573364, 2.6738107204437256
0.5118454013546737, -0.06132454920276591, 0.5988671450851244, -1.2885519791608346, -2.7458806019334694, 0.12673325635707247, -3.5707697207572604, 16.72243233326063, 10.263097989207864, 0.22468827664852142, -1.2568835020065308, -1.9420759677886963, -1.6483708620071411, 1.5655181407928467, 2.6738390922546387
0.5152971634317363, -0.06057464158664069, 0.5967850964099293, -1.289295754473002, -2.7471689617593618, 0.12509871054743749, -2.647353583025669, 15.099766488512572, 9.347294281651084, 0.22472497820854187, -1.263732671737671, -1.9420520067214966, -1.639548897743225, 1.565514326095581, 2.6738147735595703
0.5192690089281955, -0.0596554381432389, 0.5943364029295983, -1.2901900214805568, -2.7491183332183136, 0.12275448359307593, -1.486916027863729, 16.21304334342758, 11.05594750441966, 0.2247607409954071, -1.2705899477005005, -1.9421638250350952, -1.6299830675125122, 1.5655062198638916, 2.673790454864502
0.523273294107426, -0.058740223980053276, 0.5919142543113098, -1.2911609698088125, -2.7509417922865285, 0.120461259793778, -1.3916180273721, 15.572815727385557, 11.409553664933918, 0.22474099695682526, -1.2767175436019897, -1.9420559406280518, -1.6217609643936157, 1.565514326095581, 2.673790454864502
0.5271441684236513, -0.05784751069876382, 0.5894269235129319, -1.2918716112278459, -2.752529644817622, 0.11848524968579867, -1.5534952049804076, 16.027869142753985, 11.065812570485628, 0.22474835813045502, -1.283585786819458, -1.9421210289001465, -1.6126738786697388, 1.5655492544174194, 2.67383074760437
0.53107228531171, -0.05696895334341143, 0.5868744816193909, -1.2928685016366075, -2.754251348695834, 0.11638299475918872, -0.04466242879133009, 13.12583016576874, 13.05383969188965, 0.22474882006645203, -1.2905107736587524, -1.942128300666809, -1.603408932685852, 1.565514326095581, 2.673790693283081
0.5349795327916238, -0.05608590140557035, 0.5842964382430362, -1.2936057704447732, -2.755705758180032, 0.11447591247001927, -0.4865176811608338, 13.598411021233822, 12.266200134436767, 0.2247808426618576, -1.2974592447280884, -1.9421324729919434, -1.5942655801773071, 1.5655295848846436, 2.6737582683563232
0.5382476482950198, -0.05535013782515628, 0.5818617987246162, -1.2939808218253288, -2.756200187436114, 0.11387827774272823, 0.07487376945980895, 14.794965782721071, 13.21396432187312, 0.22474882006645203, -1.3044875860214233, -1.9421643018722534, -1.5863295793533325, 1.5655103921890259, 2.673835039138794
0.5419625350635624, -0.05447929142808524, 0.5790096038320652, -1.2940456083028649, -2.7565447148303797, 0.11347944211698699, 0.9218285686509972, 14.552448853113022, 14.59096779002967, 0.2248212993144989, -1.3106799125671387, -1.9421523809432983, -1.5797659158706665, 1.5655579566955566, 2.6738147735595703
0.5455969682563333, -0.05363996230575984, 0.5760598113505162, -1.2940946845812693, -2.756515755237109, 0.11345134849861385, -0.5727174222682505, 17.783000824645924, 15.0130228061843, 0.22480466961860657, -1.3177076578140259, -1.9421594142913818, -1.5725542306900024, 1.5655492544174194, 2.6737825870513916
0.5491119363577676, -0.05283010698867949, 0.573036836471142, -1.293771848072435, -2.755935871530598, 0.11421981359738022, -0.5280776512144324, 17.913960990197804, 14.432101153619481, 0.22477266192436218, -1.3249108791351318, -1.9421886205673218, -1.5661269426345825, 1.5655295848846436, 2.6737987995147705
0.5525299194875012, -0.052069952630558726, 0.5697978005972515, -1.2932152092012872, -2.7544500171352135, 0.1159679588251872, -1.7340328070033122, 20.891246722139805, 11.772401978714765, 0.2248249053955078, -1.3320938348770142, -1.9421643018722534, -1.5607300996780396, 1.5655454397201538, 2.673790693283081
0.5554370973657559, -0.05139060997956639, 0.5668415059122915, -1.2923722964650264, -2.752709301716155, 0.11810164297369588, -1.7939425801243623, 20.762868307627663, 13.148341913084344, 0.22481298446655273, -1.338481068611145, -1.9421603679656982, -1.5566737651824951, 1.5655415058135986, 2.673794746398926
0.5588378146224569, -0.05059484095491704, 0.5633700639516269, -1.2913786725214083, -2.750635895310834, 0.12064207781859387, -1.7762236566113194, 22.642858309370286, 13.059343400390027, 0.22490933537483215, -1.3458905220031738, -1.9422039985656738, -1.5520808696746826, 1.5655455589294434, 2.673766613006592
0.5621940465925036, -0.049771048967156485, 0.559804670924918, -1.2903099551086603, -2.7483382163485977, 0.12316396380872162, -2.5062798383540454, 23.278003700786154, 12.746468326175988, 0.2249285876750946, -1.3534168004989624, -1.9421563148498535, -1.5475000143051147, 1.5656096935272217, 2.673835277557373
0.5657029846656167, -0.04884148971400605, 0.5561627139648484, -1.2890285445289094, -2.7462585770318824, 0.1254002276377027, -2.034589087468059, 22.623891895004554, 10.631069295639776, 0.22507211565971375, -1.361138939857483, -1.942149043083191, -1.5425872802734375, 1.5658208131790161, 2.6738271713256836
0.5693149011711387, -0.04790298089149138, 0.5524391817510701, -1.2880048910078867, -2.7444656537088434, 0.1270848793185249, -2.4813732963777295, 23.534317823957405, 9.79384350235688, 0.22529223561286926, -1.3690316677093506, -1.9420883655548096, -1.5369668006896973, 1.5661756992340088, 2.673790693283081
0.5725079182008749, -0.04701211093065843, 0.5493022808417054, -1.2871998805924412, -2.7434192739763845, 0.12800679189821174, -2.4683699547027143, 24.4752979499118, 10.711058613603324, 0.2255108654499054, -1.376954436302185, -1.9420440196990967, -1.5308592319488525, 1.5665231943130493, 2.673778772354126
0.576207479916705, -0.046017726649511495, 0.5455454799987522, -1.286468425780326, -2.742511622116952, 0.1291453410591951, -2.652001847839588, 24.406812054017138, 11.210101731836358, 0.2257618010044098, -1.3849352598190308, -1.942144513130188, -1.5241118669509888, 1.5665984153747559, 2.67380690574646
0.5801229180536055, -0.0448997364463876, 0.5419384223617396, -1.2859864735958542, -2.7427777231983357, 0.1291648283196307, -1.996001691830088, 22.671350724808203, 10.076418867603277, 0.22611713409423828, -1.3919916152954102, -1.9420918226242065, -1.5171842575073242, 1.566598892211914, 2.673794746398926
0.5843067615512595, -0.04368748457131961, 0.5382761960136881, -1.2858835833800413, -2.7440784434333856, 0.1280570861749248, -0.768147676459585, 23.205606699922996, 9.448550374421817, 0.22653678059577942, -1.4004108905792236, -1.9420878887176514, -1.5076898336410522, 1.5665783882141113, 2.6738271713256836
0.5886163700622822, -0.04244332783565247, 0.5347472689715028, -1.2862476855889828, -2.7461916536664863, 0.12577665243271444, -0.8739307806798137, 24.45267825449535, 10.591993432946841, 0.22703970968723297, -1.4086968898773193, -1.9420485496520996, -1.4969562292099, 1.566582441329956, 2.673790693283081
0.5924110915716662, -0.04127819159821286, 0.5315854780738734, -1.2864326122569512, -2.748380650247389, 0.12353523956027584, -0.11181814308453275, 23.429837143448353, 10.715453673983554, 0.2275533676147461, -1.4170863628387451, -1.9420446157455444, -1.4857112169265747, 1.5666143894195557, 2.6737422943115234
0.5952028695593256, -0.040327539678802385, 0.5294231968962764, -1.2867155412729112, -2.7506381522512764, 0.12124363809845988, 0.7130935891873629, 20.827596069432467, 11.636339122123225, 0.22799719870090485, -1.4212007522583008, -1.9420803785324097, -1.479516863822937, 1.566610336303711, 2.67380690574646
0.5997688588650544, -0.03880958731237401, 0.526023582130909, -1.2874600975251071, -2.7548411280637786, 0.11676026648844479, 0.9252852938652913, 21.750463311000797, 10.79651215916982, 0.22887387871742249, -1.4307042360305786, -1.9420197010040283, -1.4645394086837769, 1.5666143894195557, 2.6737709045410156
0.6043265965288379, -0.037173653974389397, 0.5224703699150001, -1.2878841808774475, -2.759062459568418, 0.11241272481285892, 1.75152717449647, 22.55419863300765, 12.555043814387247, 0.22985273599624634, -1.439216136932373, -1.9420878887176514, -1.451119303703308, 1.566622257232666, 2.673762798309326
0.6090099443758955, -0.0355002833316312, 0.5190815510665774, -1.28873854088622, -2.7642621819762527, 0.10692342657731291, 2.2559055781068875, 21.81634847053536, 13.636016046977394, 0.2307559996843338, -1.4465957880020142, -1.9421006441116333, -1.4383180141448975, 1.566622257232666, 2.6737866401672363
0.6136686122940987, -0.03370963075608438, 0.5155190852097093, -1.2891650861541837, -2.769039008001473, 0.10188593676579852, 2.1405016177312794, 20.515515554594696, 11.128926060116994, 0.2318914234638214, -1.455267071723938, -1.9419842958450317, -1.4241410493850708, 1.5666022300720215, 2.6737706661224365
0.6183918448786964, -0.03184671809718497, 0.5120600137641234, -1.2898144772964928, -2.7746773302636107, 0.09587228909351414, 3.1061910335825424, 17.820673958348003, 11.212661231317549, 0.23301322758197784, -1.4639936685562134, -1.9420039653778076, -1.4091144800186157, 1.5666471719741821, 2.673774480819702
0.6229613602106283, -0.02999051872991867, 0.5085856868107609, -1.2903492951140074, -2.7800446593099766, 0.09033866569907247, 1.796537374797654, 18.70319845136184, 13.182291353840746, 0.2343614250421524, -1.4724230766296387, -1.941964030265808, -1.3943873643875122, 1.566593885421753, 2.6737382411956787
0.6269228043774518, -0.028366090244604243, 0.5055690302740012, -1.2908709567380647, -2.7849732462668215, 0.08508105279973684, 2.903850466410466, 16.40551625950061, 14.289915835316732, 0.2356240153312683, -1.4808310270309448, -1.9420403242111206, -1.3794424533843994, 1.566593885421753, 2.6738152503967285
0.6314042225884932, -0.026524110505992113, 0.5019430526087231, -1.2911519278878822, -2.7898917014323774, 0.07991631398581402, 3.1129227731845983, 16.589573610149674, 12.007785538322464, 0.23686732351779938, -1.489437460899353, -1.9419926404953003, -1.3652673959732056, 1.5665943622589111, 2.6738109588623047
0.6358285303650326, -0.024686403460604682, 0.498337032278552, -1.2914576630669743, -2.794860286105526, 0.0746422192948287, 3.573483034513985, 16.627901494162426, 12.376530707481253, 0.23794645071029663, -1.4968997240066528, -1.9419636726379395, -1.352941632270813, 1.5666306018829346, 2.6737866401672363
0.6401125072228845, -0.022854722680167937, 0.49462144000186514, -1.2915461702008504, -2.7995624568946402, 0.0696544891900057, 1.874783485876255, 18.851801996499464, 13.098065146771107, 0.23919381201267242, -1.5053726434707642, -1.941991925239563, -1.338808298110962, 1.5666022300720215, 2.6737706661224365
0.6443165259925382, -0.02104709452293078, 0.4909297329788519, -1.2916368470647983, -2.803989579289388, 0.06506818993150341, 2.1462958780181016, 18.35611689880105, 11.991480215894585, 0.2404966652393341, -1.513811707496643, -1.9419677257537842, -1.3255014419555664, 1.5665979385375977, 2.673762798309326
0.6485329254911809, -0.01911390164743358, 0.48728135286283125, -1.29156550587558, -2.8088721715206297, 0.06000797944231173, 1.9447413002175988, 17.201589073433563, 10.325716748915896, 0.2418563812971115, -1.522161841392517, -1.9419604539871216, -1.3117533922195435, 1.5666022300720215, 2.6737663745880127
0.6520350954614779, -0.017546867908635463, 0.4839584233706845, -1.2914388616667605, -2.8123852535202256, 0.056272155916791126, 1.0667545563589442, 18.763768445442647, 11.049783327977732, 0.24311795830726624, -1.5305730104446411, -1.9419324398040771, -1.2988032102584839, 1.5666306018829346, 2.67380690574646
0.6560188318355356, -0.015680518298826576, 0.4802209374194631, -1.2913130420900387, -2.816912281950136, 0.05156460714945782, 0.5494048247612049, 17.898844913997237, 12.717207838399853, 0.24434611201286316, -1.5378328561782837, -1.9419842958450317, -1.287152886390686, 1.566565990447998, 2.673762321472168
0.659982309466684, -0.01376805184110978, 0.47655033913873596, -1.2909540242429192, -2.8213650230009906, 0.047019446406244385, 0.9554935673290523, 17.73797712134417, 10.20349827320159, 0.24573712050914764, -1.5460630655288696, -1.9418672323226929, -1.2740719318389893, 1.5665943622589111, 2.673834800720215
0.6638740742420695, -0.01185703794444521, 0.47294405061198697, -1.2906502221598983, -2.8257829652072193, 0.04233484552833069, 1.190675823717869, 17.645646198994324, 10.492129254184826, 0.24725224077701569, -1.5541574954986572, -1.9417076110839844, -1.2613258361816406, 1.5666182041168213, 2.673790693283081
0.6672996615072213, -0.010055025816218994, 0.4697448632463368, -1.2903057275384087, -2.830103801893675, 0.03784588968650768, 0.7153880544252522, 19.68335836875304, 9.516522395563161, 0.24876251816749573, -1.5622907876968384, -1.941696047782898, -1.2478138208389282, 1.5666182041168213, 2.673794746398926
0.6710496055270325, -0.008068792813986836, 0.46604717856867, -1.2897237657380618, -2.834515619693855, 0.03334017425241118, -1.0884004255411912, 20.814888048823413, 10.844647755853803, 0.2503255009651184, -1.570339560508728, -1.9416478872299194, -1.2350807189941406, 1.566610336303711, 2.6737825870513916
0.674794923285556, -0.005951230608064063, 0.46248780555808716, -1.289279081571855, -2.839635295059755, 0.027872257412318555, -0.562765647708216, 17.59308785189231, 9.419214651441159, 0.25177231431007385, -1.5772467851638794, -1.941664218902588, -1.2232732772827148, 1.566574215888977, 2.6738593578338623
0.6785151035848919, -0.003907096572499687, 0.4588287971706688, -1.2886875935447701, -2.8444259225372464, 0.022878474987643962, -1.5897596556718656, 19.35029893249507, 8.565178076249065, 0.25349175930023193, -1.5852357149124146, -1.9415637254714966, -1.2100160121917725, 1.566574215888977, 2.67380690574646
0.6821793405801303, -0.001762458805536704, 0.455387142924405, -1.2881891560647352, -2.8496928239178465, 0.017289234477745434, -1.1346696971330996, 18.05278915412813, 10.634555202408388, 0.25528162717819214, -1.5931340456008911, -1.9414435625076294, -1.1967116594314575, 1.5665819644927979, 2.673835039138794
0.6858165760632494, 0.00040607918597628884, 0.451897598128292, -1.2876919445661852, -2.8550837606022115, 0.011458662470369179, -2.669436380854595, 19.832369382460072, 9.485394809189591, 0.2569964826107025, -1.6008378267288208, -1.9414124488830566, -1.1828004121780396, 1.566610336303711, 2.6738147735595703
0.6888654715985089, 0.002227454831267378, 0.44885248070864747, -1.2870868213091617, -2.8595172828794286, 0.006782102811532814, -2.731819616470866, 18.77650409273515, 8.604639374334981, 0.25875115394592285, -1.6084896326065063, -1.9413244724273682, -1.1697758436203003, 1.5665624141693115, 2.6737706661224365
0.6924479919155486, 0.004422012414465742, 0.44541159081411086, -1.2866164338981156, -2.86504812559246, 0.0006672101569450913, -1.9725355815096806, 18.745470810487323, 9.385866951058636, 0.2605658173561096, -1.6162320375442505, -1.9412000179290771, -1.1559380292892456, 1.5665624141693115, 2.6738028526306152
0.6959462008045619, 0.006586473810726668, 0.4419014874419785, 1.283173532204535, 2.8637935575842306, 0.004865407874504977, -2.6452006399259917, 20.12230173947576, 8.6531285944358, 0.26214924454689026, -1.6230117082595825, -1.9410077333450317, -1.1443320512771606, 1.5665984153747559, 2.673847198486328
0.6994094844487487, 0.008725066799765391, 0.4386369544620413, 1.2786807103201443, 2.8603113039356094, 0.0111751916086507, -2.4097298517368047, 19.005752290499853, 8.883451627523597, 0.2639157474040985, -1.630545735359192, -1.9408074617385864, -1.1308159828186035, 1.5665783882141113, 2.6738388538360596
0.7027729538156481, 0.010915059351142056, 0.435346168871352, 1.2742811140764763, 2.8571630428957886, 0.017124850212609545, -2.718744818770336, 20.086016073433466, 8.656773402664054, 0.2655898630619049, -1.6380659341812134, -1.9405183792114258, -1.117425560951233, 1.56650972366333, 2.6738226413726807
0.7057140643935759, 0.012692641444092557, 0.4325399975360412, 1.2705867461076, 2.854306859110245, 0.022262357275589006, -1.6968024852143673, 18.99459263785871, 9.633434680032158, 0.2673134207725525, -1.6454440355300903, -1.9401507377624512, -1.104479432106018, 1.5665504932403564, 2.6737706661224365
0.7095114017084235, 0.015091912300452743, 0.42886219799446146, 1.2657740603576115, 2.8504526578219656, 0.029218646124316683, -2.7379958860977016, 20.271647662739664, 7.861709680739283, 0.2689307630062103, -1.652950406074524, -1.939774513244629, -1.0910332202911377, 1.5666025876998901, 2.673859119415283
0.71230975676628, 0.01684859598241659, 0.4259411778973318, 1.2624070073815576, 2.8478745849806, 0.033801000005239105, -2.5243148074957458, 20.72010291720083, 9.530396512600232, 0.27045074105262756, -1.659474492073059, -1.939410924911499, -1.0800215005874634, 1.5666062831878662, 2.6738667488098145
0.7155192051298347, 0.01898216785785046, 0.42275369875817803, 1.258048385623386, 2.84464732140419, 0.0397309769352829, -3.9033698947670943, 19.186059454715018, 8.382325189586295, 0.2721249461174011, -1.6667534112930298, -1.9389830827713013, -1.0672361850738525, 1.5665504932403564, 2.6738548278808594
0.7186430906334497, 0.021067127370526708, 0.41960451608298244, 1.253993351304637, 2.8415217252128677, 0.0453980430548047, -4.192570099494889, 20.916880948952528, 8.08707521807515, 0.2738078236579895, -1.673993706703186, -1.9385465383529663, -1.0547025203704834, 1.5665463209152222, 2.673846960067749
0.7216569260088637, 0.023114484852641975, 0.4164186030363947, 1.2499456341779207, 2.8387780015142097, 0.05053188659422832, -3.662540123563682, 20.095993174197194, 8.710808897638326, 0.2754265069961548, -1.6811295747756958, -1.93815016746521, -1.0427619218826294, 1.5665783882141113, 2.673863172531128
0.723199103381629, 0.02411380519705562, 0.4147651950175116, 1.2481071545876703, 2.8371801467806304, 0.05328010671291596, -4.014905016042043, 19.510351943581302, 7.820712597111742, 0.27636271715164185, -1.6847044229507446, -1.9379067420959473, -1.0365004539489746, 1.5665829181671143, 2.6738388538360596
0.7261051863573713, 0.026245270517665974, 0.41155282794914355, 1.243901712633535, 2.8345624628585413, 0.05841220286420117, -5.555383972175137, 21.61134809036699, 9.354210935317653, 0.27802011370658875, -1.6918121576309204, -1.9375834465026855, -1.024478793144226, 1.5665545463562012, 2.6738626956939697
0.7289757032005463, 0.028316911841320427, 0.4083093492360639, 1.2401197026475035, 2.8322714401580664, 0.06295325772568244, -5.861174701607875, 19.513673498329865, 9.300304967164804, 0.2797435224056244, -1.6988621950149536, -1.9370343685150146, -1.0134005546569824, 1.5665864944458008, 2.6738388538360596
0.7318584744722879, 0.030377224099314575, 0.4051646905304479, 1.2362210111008216, 2.8297542364304378, 0.06765233975798599, -5.202031167290251, 18.915979740067957, 8.860927160323868, 0.2816908657550812, -1.7067943811416626, -1.9362740516662598, -1.0006814002990723, 1.5665218830108643, 2.6738104820251465
0.7346610710586253, 0.03242279621320333, 0.40200838647990267, 1.2327098537896155, 2.827780269961207, 0.07180386241565964, -5.5392596366785245, 19.873633239539114, 8.166349098835763, 0.28312918543815613, -1.7129408121109009, -1.935529112815857, -0.9915230870246887, 1.566570520401001, 2.6738667488098145
0.7374629471434075, 0.0344919319533546, 0.3989476295262105, 1.2291929541590596, 2.8260635798938925, 0.0755188655708581, -6.179891235232791, 18.680995837436527, 9.655440383994627, 0.2848644256591797, -1.7198859453201294, -1.9345104694366455, -0.9818764925003052, 1.5665829181671143, 2.67384672164917
0.7402345770412901, 0.03654832858499445, 0.39592681500069987, 1.225772546222351, 2.8244698308336997, 0.0790452463946392, -6.620627337620002, 18.07936748908559, 10.851305780396888, 0.2865309715270996, -1.726784348487854, -1.9332956075668335, -0.9725295305252075, 1.5665745735168457, 2.6738667488098145
0.742942060376901, 0.038526363285978873, 0.3927424211105982, 1.222745179984842, 2.8234259865516482, 0.08174370399599779, -7.417057746456186, 20.496084159588527, 8.47738003919826, 0.28810521960258484, -1.733681321144104, -1.9320762157440186, -0.9639077186584473, 1.5665342807769775, 2.6738786697387695
0.7452268828970895, 0.04019139615055327, 0.39008720605455, 1.2203718174228486, 2.8228567986509994, 0.08364951278201134, -7.707922029069924, 20.37203726787386, 8.664722611219911, 0.28960373997688293, -1.7406002283096313, -1.9306515455245972, -0.9563213586807251, 1.5665782690048218, 2.673874616622925
0.747843697038433, 0.04217186433339076, 0.3869237415364859, 1.2177338933708959, 2.82252410944646, 0.08538377969250086, -7.889024466348995, 20.514628323271154, 9.767491213763996, 0.29098719358444214, -1.7465921640396118, -1.9292829036712646, -0.9500933885574341, 1.5665749311447144, 2.6738827228546143
0.7504537030335903, 0.04407277824557797, 0.3840199550285453, 1.2150842410194564, 2.8222274367316666, 0.08710980683674767, -8.516736777732707, 20.776321945029373, 9.777770405737163, 0.2924768328666687, -1.753377079963684, -1.9275020360946655, -0.9434272646903992, 1.5665786266326904, 2.673846483230591
0.7530394399863907, 0.04591047285437737, 0.38107605506757175, 1.2128588902584279, 2.822358778311845, 0.08809208313627236, -8.076483680484934, 20.718468129686133, 9.182681527346729, 0.29385706782341003, -1.7601319551467896, -1.9255315065383911, -0.9375545382499695, 1.5665189027786255, 2.6738827228546143
0.7552578776347177, 0.047489175439227434, 0.3783930670451598, 1.2112277007269254, 2.823002910486885, 0.08823399902012981, -7.4364758225689025, 21.757998999036104, 7.909111170898925, 0.2952459752559662, -1.7669426202774048, -1.9233784675598145, -0.932727575302124, 1.5665547847747803, 2.673902750015259
0.7581235671975081, 0.04942633174885895, 0.3750884420076058, 1.2095634765764076, 2.824435562739209, 0.08750363985026027, -7.933727008012546, 21.307899525315072, 9.858946941034088, 0.2964894473552704, -1.773643136024475, -1.9208179712295532, -0.9292373657226562, 1.5665218830108643, 2.6739227771759033
0.760307353911705, 0.05096187992512943, 0.37251354215782173, 1.2083833409569755, 2.8262226353716775, 0.0862187142914522, -8.180087191812296, 22.715260683022404, 8.630162825687226, 0.29775065183639526, -1.780401349067688, -1.9180048704147339, -0.926871120929718, 1.5665829181671143, 2.6738505363464355
0.7627732591605094, 0.05259735138435462, 0.3695966935247364, 1.2076153026281065, 2.8285649172409197, 0.08398867409304793, -8.548863942770838, 22.647303102152335, 10.085019134638856, 0.2987031936645508, -1.7862640619277954, -1.9153721332550049, -0.9256593585014343, 1.566542625427246, 2.673914670944214
0.765275974192339, 0.05425962391942196, 0.36676860377070747, 1.20702658706779, 2.831442956239923, 0.08117275140417757, -8.001954517822437, 22.52315970600297, 9.774997549765688, 0.2998242974281311, -1.7928944826126099, -1.9119224548339844, -0.9253206849098206, 1.5665466785430908, 2.673994779586792
0.7678336769584286, 0.0558315826990864, 0.3641027562350425, 1.20661879502381, 2.8341436976563092, 0.07828486904667735, -7.982421785529919, 20.91296075063516, 10.07732975137202, 0.30089008808135986, -1.7994743585586548, -1.9083354473114014, -0.9254518151283264, 1.5665466785430908, 2.674034595489502
0.7702549121686986, 0.05728117839883545, 0.36192684022299826, 1.2060760779028017, 2.8363262523954558, 0.07615367167514964, -8.160593522177038, 18.93652614052427, 9.61689335855215, 0.301914781332016, -1.806170105934143, -1.904135823249817, -0.9254832863807678, 1.5665626525878906, 2.6740386486053467
0.7729747335750515, 0.05888940317685644, 0.3594997213161485, 1.2055374024977623, 2.838697597240308, 0.07386576861452882, -7.9225617192500595, 19.805211456683995, 10.504644724847523, 0.3028724193572998, -1.8127490282058716, -1.8999720811843872, -0.9255082607269287, 1.5666110515594482, 2.6740705966949463
0.7758225621061381, 0.06051562343871118, 0.3571900929461387, 1.2048449077092214, 2.840814602259684, 0.07163214085449904, -6.854697705821868, 18.56575193656237, 10.609444238816158, 0.30370181798934937, -1.8186246156692505, -1.896063208580017, -0.9255677461624146, 1.5665669441223145, 2.674090623855591
0.7786435816147891, 0.06203444036812013, 0.354913857096936, 1.204440964654028, 2.8428784494150534, 0.06961649745385225, -7.454973556299826, 18.546179151970364, 9.86499649526194, 0.3045039474964142, -1.825156807899475, -1.8916196823120117, -0.9255677461624146, 1.5665218830108643, 2.674102783203125
0.7814958256740384, 0.06350613406924586, 0.35265140964867603, 1.20405235730575, 2.8448092564404073, 0.06770161039420637, -7.130194576308804, 18.146845554335943, 10.490358368337345, 0.30516529083251953, -1.8316890001296997, -1.8870524168014526, -0.9256283044815063, 1.5665466785430908, 2.6740705966949463
0.783963659378438, 0.06476289553913683, 0.35074833805111244, 1.2036985426656797, 2.8463504672385156, 0.06597164432340419, -6.813979443496451, 18.303438543730795, 10.778106475711635, 0.3059324324131012, -1.8381401300430298, -1.8825196027755737, -0.9256237149238586, 1.5665228366851807, 2.6740787029266357
0.7868636657165933, 0.06610330297294918, 0.3484496679405794, 1.2035682035545292, 2.848142709992558, 0.06397156501628788, -7.202323559044681, 16.764340199527695, 11.222266415570958, 0.3064623773097992, -1.8447858095169067, -1.8778645992279053, -0.9256714582443237, 1.5665147304534912, 2.674074649810791
0.7896761566848013, 0.06737589145352871, 0.3462252394136403, 1.203540715951078, 2.849889791940294, 0.062091208186794325, -7.3556733128583085, 18.085856833252944, 12.289423429572675, 0.3068724274635315, -1.8503023386001587, -1.873875617980957, -0.9257232546806335, 1.5665509700775146, 2.6740787029266357
0.7924722478247361, 0.06859444946786826, 0.34402676408602195, 1.2035191057964978, 2.8514865878612228, 0.0602080265594852, -6.339745401074035, 17.789669076995434, 10.905313780776947, 0.30734407901763916, -1.8568288087844849, -1.869356632232666, -0.9258227348327637, 1.5664945840835571, 2.6740987300872803
0.7952353936605241, 0.06975390261363547, 0.34172443387334195, 1.2036192692216683, 2.8531559471811314, 0.058305135970360245, -6.655509680339704, 18.455709951918003, 11.682877948008185, 0.307591050863266, -1.8632560968399048, -1.8648810386657715, -0.9258713722229004, 1.5665268898010254, 2.6740946769714355
0.7979889294017389, 0.07083191093789475, 0.3394218885786377, 1.2038739423129075, 2.854656243434678, 0.05637999091459027, -6.152258342100955, 18.69861334598937, 11.368995819620888, 0.3078656494617462, -1.8694926500320435, -1.8604170083999634, -0.9258630871772766, 1.5665260553359985, 2.6740827560424805
0.8003812381547555, 0.07176202987025969, 0.33749518801629563, 1.2040518227758579, 2.855909191328094, 0.054832072240471715, -6.882232165313513, 18.55429412794563, 10.881782240724688, 0.3081502616405487, -1.8758102655410767, -1.8559738397598267, -0.9258790612220764, 1.5665545463562012, 2.6740787029266357
0.8030554711730498, 0.07286698214867593, 0.3352278347498218, 1.2041347333924401, 2.857400896265599, 0.05287777559947993, -7.630709647711271, 19.378696974087024, 11.292004476028325, 0.3084008991718292, -1.8812662363052368, -1.8521407842636108, -0.9258590340614319, 1.5664986371994019, 2.674098491668701
0.8057397677406773, 0.07392002705279853, 0.3330071650644775, 1.204375979474159, 2.8587731166560224, 0.051296205805885606, -7.704054690120093, 20.074724093395698, 9.946702342021625, 0.30866771936416626, -1.8873831033706665, -1.847784399986267, -0.9258755445480347, 1.5665301084518433, 2.674062490463257
0.8084415034753921, 0.07494314679511424, 0.3308520579772388, 1.2045501750841168, 2.860090019585936, 0.04964071942603603, -7.776273609564372, 19.534313296973252, 9.712111002745319, 0.30887556076049805, -1.893438458442688, -1.8433349132537842, -0.9258304834365845, 1.5665299892425537, 2.6740386486053467
0.8111752562561542, 0.07597665634334899, 0.3288247876203131, 1.2046899064242915, 2.8612149938123053, 0.04820296484054487, -7.69647265936018, 18.93930449228473, 10.567458616052482, 0.3090590536594391, -1.8995405435562134, -1.8386824131011963, -0.9258590340614319, 1.5665228366851807, 2.6740705966949463
0.8125462041741369, 0.0764975784384069, 0.32784879570768977, 1.2047768584743006, 2.861733584771591, 0.04762194962157025, -6.917044139584027, 19.36032117678242, 9.810763161608643, 0.3091988265514374, -1.9032961130142212, -1.835793375968933, -0.9258347153663635, 1.5665382146835327, 2.6740787029266357
0.813929094867175, 0.07705790330819998, 0.3269244175603586, 1.2046427289369328, 2.8622474791970407, 0.04696576955264752, -6.43746627922428, 19.787143175672767, 9.787835489943363, 0.30929046869277954, -1.905516266822815, -1.834029197692871, -0.9259033799171448, 1.5665547847747803, 2.6740427017211914
0.8181169019685813, 0.07857723898363549, 0.3242297616234987, 1.204935717689355, 2.8634334651199493, 0.0455889772401948, -7.077947779671838, 20.933971915029485, 10.507211505459713, 0.3094734847545624, -1.914329171180725, -1.8267427682876587, -0.9258506894111633, 1.5665067434310913, 2.6740827560424805
0.8205766943569573, 0.07940049467200395, 0.32267999898497696, 1.2050950206706532, 2.864051227818736, 0.04481008507896313, -7.348776001128996, 20.562764346004602, 9.646257021880336, 0.3096019923686981, -1.9201260805130005, -1.821851134300232, -0.9258227348327637, 1.5665749311447144, 2.6740784645080566
0.8234609790240112, 0.08034561366753842, 0.3211365107890729, 1.2052266786647985, 2.864450163484686, 0.044192859487851587, -7.498677423110862, 19.363029976726274, 10.326691086302628, 0.309645414352417, -1.9250532388687134, -1.8173292875289917, -0.9258428812026978, 1.5665189027786255, 2.6740546226501465
0.8263487321507681, 0.08130390736670948, 0.31958863699624707, 1.2053237427108965, 2.864885608911891, 0.04362199469127996, -6.882859456139562, 20.64364789414089, 10.470806068145624, 0.30969783663749695, -1.9307690858840942, -1.8121533393859863, -0.9258268475532532, 1.5665301084518433, 2.674046754837036
0.8293225506306343, 0.08226716475132889, 0.3181793201489977, 1.2053501636372657, 2.865103033615728, 0.04336856071000277, -6.180592149226983, 19.948110094311165, 10.047129452400696, 0.30966097116470337, -1.9364300966262817, -1.8068493604660034, -0.9258227944374084, 1.5665466785430908, 2.6740505695343018
0.8323424479616504, 0.08323713881703715, 0.31693918085393513, 1.2053927193000038, 2.8651199625444823, 0.04338912979813698, -6.736153196824574, 19.56414573626318, 11.46952797053466, 0.3096533417701721, -1.9420844316482544, -1.8013113737106323, -0.9258304834365845, 1.5665463209152222, 2.674058675765991
0.8349885128109755, 0.08408156120104118, 0.3159322953459577, 1.2053654597190073, 2.8650553818007825, 0.0435384204996583, -7.3317280159363385, 19.649286737952615, 10.693213793354772, 0.30969783663749695, -1.9475637674331665, -1.7957205772399902, -0.9258227944374084, 1.5665949583053589, 2.674058675765991
0.8380148005240422, 0.08506675613061183, 0.3148265156453716, 1.2052284116400127, 2.864877572010573, 0.04369276203001395, -7.090557664630893, 18.902454574809706, 9.277790935978997, 0.309705525636673, -1.952377438545227, -1.7908329963684082, -0.925803005695343, 1.5665189027786255, 2.6740505695343018
0.8410638577717918, 0.08599616321537075, 0.31375950201021907, 1.2052265697184974, 2.8646596524766506, 0.04398751798943427, -7.051582423790159, 18.655325972173415, 11.105304461969851, 0.30962491035461426, -1.9577962160110474, -1.7850780487060547, -0.9258108735084534, 1.566558599472046, 2.674018621444702
0.8441159628390703, 0.08696310009321614, 0.31272613470660565, 1.2051321258922076, 2.864396792174962, 0.04435895729894227, -5.897427429284635, 17.597825031766643, 10.619328390693486, 0.30973389744758606, -1.9630495309829712, -1.7793638706207275, -0.9258144497871399, 1.5664947032928467, 2.674086570739746
0.8471479878135105, 0.08790748498790682, 0.3117935252604585, 1.2050580572404257, 2.8640029535479226, 0.04485155779098191, -4.932954615700655, 16.55564068463377, 10.681085411367128, 0.3097096085548401, -1.9683352708816528, -1.7735989093780518, -0.925842821598053, 1.5665669441223145, 2.6740665435791016
0.8497357796249906, 0.08877360381176726, 0.31097787845723046, 1.204908741681185, 2.863713137688857, 0.04530086597347651, -4.4722815723465885, 16.09667486664104, 11.757310084190994, 0.3096895217895508, -1.9735018014907837, -1.767961859703064, -0.9258423447608948, 1.5665545463562012, 2.674086570739746
0.852581627273771, 0.08963960112195096, 0.3100264009147101, 1.204771072449315, 2.8634256938945826, 0.04566932243776122, -4.199363993892426, 14.657993558102035, 10.425024451361026, 0.30972152948379517, -1.9778143167495728, -1.7631880044937134, -0.9258506894111633, 1.5665626525878906, 2.674062490463257
0.8553693680841287, 0.09057002352026391, 0.3091531007063839, 1.2045740174117041, 2.8630837931763367, 0.04621300294902324, -3.5914555599050284, 13.788061879391543, 9.206707434254092, 0.3096895217895508, -1.9826632738113403, -1.7578750848770142, -0.9258464574813843, 1.5664869546890259, 2.6740505695343018
0.8580109173007892, 0.09142776611316315, 0.30822936153570196, 1.204401624505544, 2.862829564093862, 0.0464996715528072, -2.9776924793305546, 12.470050895870505, 9.804887484247645, 0.30966097116470337, -1.9873977899551392, -1.7527927160263062, -0.9258590340614319, 1.5665466785430908, 2.674107074737549
0.8605029844997962, 0.09219989640042672, 0.30723195582523416, 1.2044262559928867, 2.862646730525642, 0.046802459264938846, -2.0015165013125897, 10.64434695969673, 8.102879850888245, 0.30970194935798645, -1.9919110536575317, -1.748047113418579, -0.9258464574813843, 1.5665147304534912, 2.6740705966949463
0.86252324175295, 0.09285141278322763, 0.30635373914112884, 1.2044199667054767, 2.8625534952655847, 0.04691963004782817, -1.422217654481145, 7.708550428182399, 6.610876862479959, 0.309689998626709, -1.9961944818496704, -1.7436461448669434, -0.9258423447608948, 1.5665466785430908, 2.674062490463257
0.8646390858131399, 0.0935374682494387, 0.30526729125875296, 1.204478787759611, 2.8626235273233775, 0.04676967980231797, -1.3433848735041534, 7.456756776297416, 6.927833500091936, 0.30965328216552734, -1.999749779701233, -1.7401071786880493, -0.925887405872345, 1.566558837890625, 2.6740705966949463
0.8665175615329267, 0.09411033231190041, 0.3041808893280806, 1.2045371500745414, 2.862783946679993, 0.04658957706336159, -0.9121845039929106, 6.644172741379179, 5.46773605176741, 0.30963680148124695, -2.0035455226898193, -1.7365448474884033, -0.9258988499641418, 1.5664869546890259, 2.6740386486053467
0.8681719993730335, 0.09461528548382425, 0.30306882972203153, 1.2046705413734957, 2.8630525506125606, 0.04613160454845257, 0.5005407074436521, 4.613125256145884, 3.5077425908391713, 0.3096735179424286, -2.007014513015747, -1.733506441116333, -0.9258549213409424, 1.5665109157562256, 2.6740827560424805
0.8696009246258782, 0.09509217957296391, 0.3019102567494749, 1.2049362908687735, 2.8634177717439595, 0.04562537118527794, -1.1775524708764786, 5.327160827769776, 2.33239686651875, 0.30963727831840515, -2.0101749897003174, -1.7308001518249512, -0.9258714318275452, 1.5665829181671143, 2.674034595489502
0.8708190607296593, 0.09545387953354698, 0.30084560817939454, 1.2051178347239546, 2.8638063516834014, 0.045054348828153346, 0.38578843688022646, 2.968968062335164, 2.3598282386695453, 0.30962127447128296, -2.0129902362823486, -1.728656530380249, -0.9258673191070557, 1.5665068626403809, 2.674074649810791
0.8721270871592963, 0.09586520003146168, 0.29946811943805113, 1.2052974824337308, 2.86446225269019, 0.04415077326203139, -1.3642395696826348, 5.022593562494062, 0.34633525014898725, 0.30964088439941406, -2.0164897441864014, -1.7261061668395996, -0.9258227944374084, 1.5665147304534912, 2.6740386486053467
0.8726481172148441, 0.09600027445465632, 0.29873711377024365, 1.2055817161926632, 2.86479497176952, 0.043572815968029414, -1.0324318105418557, 4.720842277478964, -1.264370531036503, 0.30962488055229187, -2.0176661014556885, -1.7254351377487183, -0.9258346557617188, 1.5665509700775146, 2.674058675765991
0.8730638233099377, 0.09618072894090175, 0.2981798399969499, 1.2056550704244338, 2.8651817337502137, 0.043214284733751746, -2.05443106868208, 4.851805061072712, -1.144497108818654, 0.30964919924736023, -2.018873453140259, -1.7246226072311401, -0.9258108139038086, 1.5665228366851807, 2.6740546226501465
0.8735088675510547, 0.09627923161521124, 0.2974938735563294, 1.2058523254285949, 2.865564163882044, 0.04253656641372829, -1.7273141057266215, 5.251276330764363, -0.4282495203168355, 0.30964136123657227, -2.0201847553253174, -1.7238832712173462, -0.9258387684822083, 1.5665106773376465, 2.674102783203125
0.8738552780035379, 0.09640565856830115, 0.29698813858991, 1.2059705641094274, 2.865860853554417, 0.04221214468212945, -1.7029737809558643, 4.657877741342302, -1.7002119448253492, 0.30963319540023804, -2.0211856365203857, -1.7232754230499268, -0.9258108139038086, 1.5665109157562256, 2.674062490463257
0.8740582845228924, 0.0964245216818335, 0.2967558062493253, 1.2060700780277547, 2.8659341490715944, 0.04203267137558875, -2.7367508360788344, 4.007229836840439, -1.508457077258195, 0.3095773756504059, -2.021855115890503, -1.722912073135376, -0.9257829189300537, 1.5665268898010254, 2.674062490463257
0.8742064389725004, 0.0964733246004826, 0.29656200905653873, 1.2061298175943391, 2.8660395935950524, 0.041782215940881315, -3.952694955259735, 4.55438722472548, -0.39155972240197523, 0.3096175193786621, -2.0222060680389404, -1.7226754426956177, -0.9258149266242981, 1.5665349960327148, 2.6740827560424805
0.8742111726894878, 0.09648031518395815, 0.2966188485046077, 1.2061138681667032, 2.865990613877849, 0.042000328263753176, -3.6589669392569593, 4.155387940449077, -0.4467875532286464, 0.3095974326133728, -2.0222055912017822, -1.7226758003234863, -0.9258108139038086, 1.5665630102157593, 2.6740386486053467
0.8741949004925194, 0.09645149992655608, 0.2967315167451936, 1.2061197568984439, 2.8659063507076077, 0.04207201102990187, -3.3998490966452097, 2.7380860751534684, -1.3676614218831067, 0.3096019923686981, -2.022078275680542, -1.7226320505142212, -0.9258070588111877, 1.5665342807769775, 2.674086809158325
0.8742363881611501, 0.09648034421035032, 0.29685972508339875, 1.2059503647047434, 2.865772966560322, 0.04214826574403324, -4.720438486785935, 2.9225031363033476, -1.8462012662762501, 0.3096139430999756, -2.0219790935516357, -1.7225432395935059, -0.9257796406745911, 1.5665466785430908, 2.674070358276367
0.874271002430138, 0.0964570125059295, 0.2969129266393439, 1.2060410271753184, 2.865671296671509, 0.04230365208311459, -5.604185463298704, 3.1285481161324364, -1.36281601315643, 0.30954205989837646, -2.0219948291778564, -1.7224396467208862, -0.9258109927177429, 1.5664987564086914, 2.674074649810791
0.8742847556453259, 0.09649918063856185, 0.2969591143594594, 1.2059283517993913, 2.8656562963667973, 0.04235564910735091, -6.53875469909087, 3.6378785338037436, -1.1843711153450593, 0.30961406230926514, -2.021998167037964, -1.7223917245864868, -0.9258070588111877, 1.566490888595581, 2.6740787029266357
0.8743382532005328, 0.09648956065430461, 0.29694709732461977, 1.206073686219308, 2.8656084677473848, 0.0424847559398934, -7.759725677372036, 3.2658080376227416, -0.6773300794485095, 0.30952998995780945, -2.022014856338501, -1.7222998142242432, -0.9257948398590088, 1.5664989948272705, 2.674074649810791
0.8743258258529069, 0.0964305901593787, 0.297041790235254, 1.206059410878213, 2.86550436895381, 0.042420165042256854, -8.45869242266671, 3.4099166902890325, -0.45933728858401346, 0.3095020651817322, -2.0220301151275635, -1.7222840785980225, -0.925803005695343, 1.5665349960327148, 2.6740787029266357
0.8743633432843869, 0.09649416149426829, 0.29700991809531596, 1.2059807317558895, 2.8655284100791483, 0.04250544702125194, -9.779889295503883, 4.080503154007872, -0.8342040887024363, 0.30955055356025696, -2.0220301151275635, -1.722231388092041, -0.9257829785346985, 1.5664989948272705, 2.6740827560424805
0.8744116097429244, 0.09642450157582844, 0.29711453450238257, 1.2060893916616995, 2.865352600021733, 0.04269712105052425, -10.036518539647998, 3.781140952853473, -1.1054063060837065, 0.309481680393219, -2.021986722946167, -1.7221753597259521, -0.9257950186729431, 1.5664551258087158, 2.674070358276367
0.8744171591433393, 0.09644139970152406, 0.2970760081375533, 1.2060485846836417, 2.8653971310224158, 0.04255315160217334, -11.424182073643626, 3.355981734077643, -1.1200481259384703, 0.3094780743122101, -2.0220301151275635, -1.7221152782440186, -0.9258070588111877, 1.5664632320404053, 2.6740825176239014
0.874465160953729, 0.09639102510841978, 0.29719860600297143, 1.2061179323527806, 2.8651918850031324, 0.04275252762979015, -12.317496320146207, 3.066327508947709, -1.5073717022103736, 0.3094143867492676, -2.0219790935516357, -1.7219715118408203, -0.9258070588111877, 1.5664715766906738, 2.674090623855591
0.8745437785860921, 0.0963102501142267, 0.29728094947017575, 1.206245954836975, 2.8650645924347242, 0.04288309749058796, -13.313930494450725, 2.6558705657401807, -1.879587013802896, 0.3093665838241577, -2.0220062732696533, -1.7218399047851562, -0.9257431030273438, 1.566479206085205, 2.674114942550659
0.8746225673760503, 0.09627083019039101, 0.29739077458675456, 1.2062659735208006, 2.86485138914739, 0.04301033221805839, -13.739479160892765, 2.3942076699274257, -1.9005674222272226, 0.3092222213745117, -2.0219743251800537, -1.7216681241989136, -0.925803005695343, 1.5664265155792236, 2.674090623855591
0.8747183947725813, 0.09617828572283851, 0.2975278068600462, 1.2064398779391448, 2.8645585219787137, 0.04319664308000838, -15.829409131336678, 2.217666415083736, -1.7437482287774486, 0.30907100439071655, -2.021998167037964, -1.7215311527252197, -0.9258230924606323, 1.5664310455322266, 2.674098491668701
0.8748274940048978, 0.09605066108111494, 0.29763002617634104, 1.206572608842287, 2.8643097441208853, 0.04330624576588874, -16.33184812201037, 2.0147041039813938, -1.7300919790204863, 0.30895134806632996, -2.021970510482788, -1.7212793827056885, -0.9257950186729431, 1.5663471221923828, 2.67411470413208
0.8749778364514574, 0.09587468127729311, 0.29782986263947364, 1.2067155154361249, 2.863722438861805, 0.04320472808206083, -17.553729591782336, 1.2788207922990307, -2.2692307159077862, 0.30880454182624817, -2.021998167037964, -1.7210357189178467, -0.9257796406745911, 1.565996766090393, 2.6741063594818115
0.8751010195370432, 0.09573340168597858, 0.2979322374579745, 1.2069449257705416, 2.8634094937611385, 0.043222728639879957, -17.865363500732524, 0.9779322272309463, -1.8549612143088248, 0.3085363805294037, -2.021998167037964, -1.7207201719284058, -0.9258231520652771, 1.5658601522445679, 2.67415452003479
0.8752376987756696, 0.09544031775880304, 0.2980883862197255, 1.2073577389189414, 2.862982449830826, 0.043499096381871376, -18.502860277835406, 1.2748649788778819, -1.6395105361346207, 0.3081652820110321, -2.021986722946167, -1.7204837799072266, -0.9257796406745911, 1.5658565759658813, 2.6741344928741455
0.8753870956941231, 0.09512128023933865, 0.2982397099134055, 1.2079254432565103, 2.862508561505692, 0.043731884530946126, -20.011022176397997, 0.7780814088839542, -1.6383229989400125, 0.3078059256076813, -2.021974802017212, -1.7203277349472046, -0.9257675409317017, 1.5658528804779053, 2.6741585731506348
0.8755500468934715, 0.09463335811557506, 0.29837850554963563, 1.2088920476384795, 2.8618525206234056, 0.043879025147167385, -20.963941929305975, 1.418845574092785, -1.848188720213776, 0.3071863353252411, -2.0219624042510986, -1.720031976699829, -0.9257829189300537, 1.5657615661621094, 2.674290657043457
0.8757677305632603, 0.09406979374694836, 0.2986093816522067, 1.209921890767007, 2.8609928974057532, 0.04399822694298655, -20.75446035668949, 0.591057508900171, -1.6086577262330892, 0.306653767824173, -2.021986722946167, -1.719679594039917, -0.9257828593254089, 1.565662145614624, 2.6744706630706787
0.876033125884422, 0.09345147739719274, 0.29888231417234734, 1.2110188523094911, 2.860022429376212, 0.04425052279277112, -20.336974804733046, 0.27781128596831456, -1.2811180977577779, 0.30574721097946167, -2.0219905376434326, -1.7191390991210938, -0.9258149266242981, 1.5654377937316895, 2.6746184825897217
0.8765143450246321, 0.09240445719948426, 0.2994009679114783, 1.2124432381764543, 2.858442480479411, 0.04465217975394216, -20.055154948113188, 0.09139275818640526, -0.5115711177086413, 0.3046310842037201, -2.0219943523406982, -1.7184439897537231, -0.9257870316505432, 1.5651073455810547, 2.6746022701263428
