JensOHI/Master_Thesis/record_trajectory/physical_traj_3.csv
pos_x, pos_y, pos_z, ori_x, ori_y, ori_z, f_x, f_y, f_z, q_base, q_shoulder, q_elbow, q_wrist1, q_wrist2, q_wrist3
0.6556905551742901, 0.03785790145320662, 0.33478903860620957, -1.1954001921336326, -2.8017564265275867, -0.1740268613321911, 2.8879181215112513, 0.08338002027267902, 2.7510884147468784, -0.024247948080301285, -2.0678975582122803, -1.5976003408432007, -0.9262260794639587, 1.563493251800537, 2.6727592945098877
0.6557160308495203, 0.037866911162894076, 0.3347727638383724, -1.1954370929376177, -2.801775711182209, -0.17395197828843842, 3.270501860223811, 0.1759103389837278, 2.6243375507858775, 0.29980799555778503, -1.6674424409866333, -2.114001989364624, -0.926612913608551, 1.7124474048614502, 2.674842119216919
0.6556867234303245, 0.037914815365705005, 0.33472328761756137, -1.1952879056421526, -2.801752573838606, -0.1739479509076229, 2.7094447119197484, -0.049439088173822754, 2.727226070734007, 0.29982396960258484, -1.6673780679702759, -2.1139943599700928, -0.926600992679596, 1.7124394178390503, 2.674830198287964
0.6557107807349287, 0.03789829197850113, 0.33482604777099667, -1.1953802955856945, -2.801862570040589, -0.1740961755540543, 2.493948321801632, -0.06277165347265345, 2.7384297905765096, 0.2997996509075165, -1.6674185991287231, -2.11403489112854, -0.9265976548194885, 1.7124354839324951, 2.6748499870300293
0.6557000009070991, 0.03789278963799611, 0.3347970025080322, -1.1953468243335774, -2.8018470084134597, -0.17401285662648508, 2.5401696142877332, -0.02829840658342267, 2.620549143305051, 0.2998443841934204, -1.6674104928970337, -2.114014148712158, -0.926612913608551, 1.712423324584961, 2.674842119216919
0.6557003072662693, 0.037888999038021065, 0.3348107953111237, -1.195359046464858, -2.8018732020411545, -0.17408914840403553, 2.21776993882347, -0.2293521669458705, 2.797706127721181, 0.2998642921447754, -1.6674143075942993, -2.114014148712158, -0.9266169667243958, 1.7124677896499634, 2.674854278564453
0.6556834369068978, 0.03786574361028425, 0.3347335003235862, -1.1954048543021647, -2.8017367796521246, -0.1739414863292942, 2.5917829386478535, -0.1419503364306217, 2.553880913979217, 0.2997840940952301, -1.6674262285232544, -2.114014148712158, -0.9266210198402405, 1.7124310731887817, 2.674854278564453
0.655685354595187, 0.037902824342235034, 0.3347725139840665, -1.195329520246192, -2.801809151165974, -0.17397000377044528, 2.6696125164536624, 0.12929423844933058, 2.619174677574333, 0.29985660314559937, -1.6674104928970337, -2.114046096801758, -0.926612913608551, 1.7124314308166504, 2.674870252609253
0.6556953009070046, 0.037847129042371516, 0.3348246855710771, -1.1954643855353702, -2.8018213758894364, -0.1740712093732668, 2.069301033812754, -0.22114989005729108, 2.792574271225004, 0.29977598786354065, -1.667366623878479, -2.114014148712158, -0.9266169667243958, 1.712435245513916, 2.674854278564453
0.6556860157616546, 0.03791189422780622, 0.3348070267167856, -1.1953240569764598, -2.8018658217302526, -0.17397392394818526, 2.6717371605528, -0.27441487694083166, 2.6964896969047603, 0.2998161017894745, -1.6674104928970337, -2.114042043685913, -0.9265695214271545, 1.7124758958816528, 2.6748945713043213
0.6557132367103286, 0.03792355443696487, 0.3347620518330139, -1.19528853664123, -2.8018509180132583, -0.17394192883416484, 2.6019236855614127, -0.1656058754585614, 2.858400089229803, 0.29984405636787415, -1.6674104928970337, -2.1140544414520264, -0.9266530871391296, 1.7124273777008057, 2.6748743057250977
0.6556899129926367, 0.037880480072094595, 0.33477073040613853, -1.195399832032401, -2.8017651403065402, -0.17396822605376555, 2.1763162714689197, -0.4515928985786848, 3.0339008559921776, 0.2998647689819336, -1.6673976182937622, -2.114042043685913, -0.9266169667243958, 1.7124512195587158, 2.674870252609253
0.6556952969817025, 0.03785635983871891, 0.3347448319271387, -1.195384145772156, -2.801770060243921, -0.17393076500446913, 2.7642990323520094, -0.013581475331788828, 2.5622078462045903, 0.2998400032520294, -1.667434811592102, -2.114018440246582, -0.926577627658844, 1.7123955488204956, 2.674870252609253
0.6557005407804541, 0.037836443258876834, 0.33474459695322206, -1.1954576545694255, -2.8017664373985207, -0.17387309607218326, 2.473656008562414, -0.08161060516787672, 2.54791392762175, 0.2997675836086273, -1.6674667596817017, -2.1140389442443848, -0.9266249537467957, 1.7123794555664062, 2.6748461723327637
0.6557095794265841, 0.03793601151416385, 0.3348497176268965, -1.1952804927459362, -2.801929811853107, -0.17409503560363956, 2.7375662744117117, 0.1083632879916506, 2.7389892310558834, 0.29989972710609436, -1.6674104928970337, -2.114014148712158, -0.9265815019607544, 1.7124273777008057, 2.6748783588409424
0.6557238701586388, 0.03790055282692262, 0.3347564523684401, -1.1953638390698471, -2.801777099136207, -0.17398959724748164, 2.4192946922405434, -0.032313910017434555, 2.5258434970830788, 0.29984402656555176, -1.6674185991287231, -2.114030599594116, -0.9265856146812439, 1.7124074697494507, 2.6748743057250977
0.6557054761116768, 0.037908550384508764, 0.3348169459564194, -1.195320422236572, -2.8019315071268154, -0.17407638670380032, 2.895020655912243, 0.47341788729249357, 2.511058396455862, 0.29987967014312744, -1.6673856973648071, -2.1139986515045166, -0.9266210794448853, 1.7124470472335815, 2.6748862266540527
0.6556788356060403, 0.037881023705084296, 0.3347970807047399, -1.1953791686791126, -2.8018024672284416, -0.17398070518622014, 2.335402692010771, 0.07699567924943437, 2.6974761377455585, 0.29983577132225037, -1.6673775911331177, -2.114042043685913, -0.9266530275344849, 1.7124273777008057, 2.6748621463775635
0.6556971481122279, 0.037885171950247876, 0.33478120742805473, -1.1953570369543214, -2.8018457229450253, -0.17394812147363525, 2.602477292306213, -0.17181959253038914, 2.3815759291449634, 0.2998400032520294, -1.6674224138259888, -2.1140265464782715, -0.9266169667243958, 1.7123914957046509, 2.674842119216919
0.6557110339537991, 0.03789576821422781, 0.3348099762373162, -1.1953602958623017, -2.8018868419767795, -0.1740217871724216, 2.332552764718852, 0.4113698393787706, 2.670350404288344, 0.29983165860176086, -1.66749107837677, -2.114030599594116, -0.9266130328178406, 1.7124353647232056, 2.6748461723327637
0.6557159393861802, 0.03784973490242964, 0.3348086387940956, -1.1954913148441408, -2.8018514916753534, -0.17401521936599884, 2.9566689894614884, 0.5923049390659734, 2.734359503846576, 0.29982802271842957, -1.6674305200576782, -2.1139862537384033, -0.9266130328178406, 1.7124512195587158, 2.674870252609253
0.6556918451139692, 0.037889216879862464, 0.33475309686906524, -1.1953888001809656, -2.8017713725395863, -0.1739701179956873, 2.5419715905774973, 0.051924779951993266, 2.870255361674671, 0.2998961806297302, -1.6675230264663696, -2.11403489112854, -0.9266050457954407, 1.7123914957046509, 2.6748459339141846
0.6557033774793694, 0.03792418546430945, 0.33482093401333296, -1.195346482274725, -2.8018207734045113, -0.17410023674632177, 2.6724671839031147, 0.03974224836930196, 2.7120768296958935, 0.2998920977115631, -1.6673976182937622, -2.1140265464782715, -0.9265856146812439, 1.7124433517456055, 2.6748783588409424
0.6557117079525981, 0.03791988402721681, 0.33481142307628453, -1.1952981240333913, -2.801886976569565, -0.17407314640261876, 2.838299160678669, 0.1391694117050854, 2.9129937214206416, 0.29982802271842957, -1.6673976182937622, -2.1140544414520264, -0.9266169667243958, 1.7124273777008057, 2.6748783588409424
0.6557035763327796, 0.037902642982672395, 0.33478791485539433, -1.195344262918622, -2.80180924733474, -0.17407421937819414, 3.077141985948634, -0.03272399780253171, 2.7528400231599717, 0.2998684048652649, -1.6674185991287231, -2.1140379905700684, -0.9266329407691956, 1.7124273777008057, 2.6748623847961426
0.6557090130914697, 0.03787809175039088, 0.33478680939331085, -1.1954682392430638, -2.8018021024136126, -0.17400461769694334, 2.411189762456866, 0.37609275955135657, 2.663974336970922, 0.29987668991088867, -1.6673856973648071, -2.11403489112854, -0.9265936017036438, 1.7123914957046509, 2.674830198287964
0.655699163559355, 0.03791703742059516, 0.3347578634153249, -1.1953733905246793, -2.801780256790788, -0.17395662490305525, 2.9122978899985883, 0.34506180408897685, 2.8144461407392876, 0.2997877597808838, -1.6674386262893677, -2.1140265464782715, -0.9266169667243958, 1.7124074697494507, 2.674898624420166
0.6556936848507046, 0.03792809092142605, 0.3347846698485918, -1.1952918669103885, -2.8018504212326985, -0.1739864036619867, 3.101209532610397, 0.020973611955847987, 2.8230919859506423, 0.2998848557472229, -1.667389988899231, -2.114030599594116, -0.9266210198402405, 1.7124472856521606, 2.674838066101074
0.6556953828209257, 0.03789277813714402, 0.3347375251349776, -1.1953517696669371, -2.80177248447998, -0.17394186760610122, 2.1972897862507974, 0.3001835742690738, 3.0017646878547257, 0.29983994364738464, -1.6674062013626099, -2.114014148712158, -0.9266169667243958, 1.7124632596969604, 2.6748743057250977
0.6556896763856125, 0.0378809239224987, 0.33479469050120814, -1.195432139781116, -2.80177154598499, -0.17400418588143424, 2.4642198613410558, 0.19021367836934203, 2.6761084445410876, 0.2998036742210388, -1.6674867868423462, -2.1139779090881348, -0.9266089797019958, 1.7123994827270508, 2.674870252609253
0.6557022178215329, 0.037900240038201014, 0.33473601549309184, -1.1953265985939372, -2.801743212800694, -0.1739844733164777, 2.7094855686123096, -0.018894518464959265, 2.9021587739354344, 0.299835741519928, -1.6674343347549438, -2.1139862537384033, -0.9265927672386169, 1.7123875617980957, 2.674866199493408
0.6556935871647113, 0.03787581853457831, 0.334767949611406, -1.1953886880128073, -2.8018443499970473, -0.17396405104760546, 2.655635139602059, -0.03171367647168541, 2.6392016418995436, 0.2998276948928833, -1.6674305200576782, -2.1140503883361816, -0.9265696406364441, 1.7123914957046509, 2.6748502254486084
0.655708671667612, 0.037886818275718236, 0.33480392633978223, -1.1953764403017897, -2.801861474721421, -0.1740407387812696, 3.1919687685832434, -1.2676401253111915, 0.8569651971682314, 0.29986074566841125, -1.6674267053604126, -2.114018440246582, -0.9266210794448853, 1.7124433517456055, 2.6748623847961426
0.655718302986577, 0.03790094272489867, 0.33484844248950624, -1.1953927584436737, -2.8019030335147406, -0.17411421571676428, 3.4908494115385937, -1.6059283087568024, 0.2511458110315354, 0.2998000979423523, -1.667434811592102, -2.1139943599700928, -0.9266089797019958, 1.7124314308166504, 2.674854278564453
0.6557119670208236, 0.037916484088739516, 0.33479710319009404, -1.1953196749487427, -2.801824944220576, -0.17413296483269397, 3.1910943335844504, -1.1973664440270224, 0.5524066017122188, 0.2998683750629425, -1.6674748659133911, -2.11403489112854, -0.9266249537467957, 1.7124195098876953, 2.674842119216919
0.6557102441462109, 0.03788113645152452, 0.33479173762726916, -1.1953957689335795, -2.801834171149113, -0.17400652224923127, 2.9428470280755263, -1.1039769864705546, 0.5304229182672867, 0.299811989068985, -1.6673423051834106, -2.114006757736206, -0.9266173243522644, 1.7124234437942505, 2.674842119216919
0.655697377329803, 0.03789143041196087, 0.33478161137076967, -1.1953728094093774, -2.8017851103825357, -0.17398836033864964, 2.69246019577683, -0.8599318130125502, 0.7927368121061369, 0.2998441159725189, -1.6674467325210571, -2.1139943599700928, -0.9266332983970642, 1.7124433517456055, 2.6748781204223633
0.6557004422724136, 0.03790475842841415, 0.33479516243693797, -1.1953465653491615, -2.801850820213948, -0.17403537623050805, 3.067743598684025, -0.7926023291657956, 1.4513007844153054, 0.29987290501594543, -1.6674143075942993, -2.114034652709961, -0.9266050457954407, 1.7124717235565186, 2.674838066101074
0.655678917407672, 0.03787221280297511, 0.33479924661498717, -1.1953845067672064, -2.8018040877719015, -0.17401995398369238, 1.9457368031079032, -0.9391647283685716, 1.9740235462288047, 0.2998920679092407, -1.6673856973648071, -2.114046096801758, -0.9265896677970886, 1.7124552726745605, 2.6748459339141846
0.6556906461999553, 0.03784845678961796, 0.3347985035025091, -1.195421634079094, -2.8018159819900856, -0.17399675086038358, 2.1718212880689354, -0.146928386263641, 2.1189276871052543, 0.299780011177063, -1.6673980951309204, -2.1140027046203613, -0.9265816807746887, 1.7124512195587158, 2.6748461723327637
0.6557188634653592, 0.03787556032188069, 0.33478230154959593, -1.1954398611640975, -2.8018124469738743, -0.17399412294262892, 2.717201131981225, -0.7512054275317096, 1.171833665119863, 0.29988083243370056, -1.6674591302871704, -2.114018201828003, -0.9265968799591064, 1.7124956846237183, 2.674858331680298
0.6557081124913205, 0.03791698665339286, 0.3347397152250937, -1.1952715629713409, -2.801806592538031, -0.1739674851722809, 2.3542646378748984, -0.5890017031141163, 1.519309451512615, 0.29987263679504395, -1.6674948930740356, -2.1140265464782715, -0.9265855550765991, 1.7124472856521606, 2.674830198287964
0.6556834019333292, 0.03790946108633589, 0.334821453393347, -1.195353034200244, -2.8018451975845307, -0.17411878602234873, 2.894991164977952, -0.5606324989411582, 1.187248133448172, 0.2998403310775757, -1.6673704385757446, -2.1140544414520264, -0.9266409277915955, 1.7124313116073608, 2.674858331680298
0.6557028735323644, 0.03789314604823825, 0.33479952462191015, -1.1953374374832193, -2.8018173957856267, -0.1740110728392733, 2.836785705632165, -0.9525737057887221, 0.6211423234025591, 0.29979193210601807, -1.667422890663147, -2.1139657497406006, -0.9266050457954407, 1.7123875617980957, 2.6748461723327637
0.6557128795974391, 0.03794252031219615, 0.3348006063825499, -1.195262459120446, -2.8018841657964164, -0.17402358411981897, 3.7990922731858245, -0.28330107207910427, 1.2342547890314535, 0.2998683750629425, -1.667366623878479, -2.114006757736206, -0.9265936017036438, 1.7124472856521606, 2.6748623847961426
0.6557013648481145, 0.03787577405309744, 0.3348065510653744, -1.1954527799505952, -2.801840100145771, -0.17404702018727883, 4.000308271571922, -1.4387641055041955, 0.9342659909677208, 0.2998197078704834, -1.6673980951309204, -2.114018440246582, -0.9265775680541992, 1.7124154567718506, 2.6748862266540527
0.6556892252390731, 0.03785252471548216, 0.3347874486994249, -1.1954254813654765, -2.801798132393392, -0.17405217574744242, 5.708429627238605, -3.921334754539177, -1.1423101298155391, 0.2998357117176056, -1.667401909828186, -2.114001989364624, -0.9266210794448853, 1.7124392986297607, 2.6748783588409424
0.6556934636296742, 0.03786064173476658, 0.3348053099223565, -1.1954190140562888, -2.801787388446054, -0.17411310941814567, 7.991104961545024, -5.866863451356802, -3.8111130076935247, 0.299787700176239, -1.6673909425735474, -2.1140265464782715, -0.9265968799591064, 1.7124876976013184, 2.6748461723327637
0.655699976836075, 0.03789368515307641, 0.3348748668953981, -1.19540513027314, -2.8018937804738653, -0.17417777512864763, 9.958193492687451, -7.323137495567809, -5.9691455710630414, 0.29983213543891907, -1.6673146486282349, -2.1139984130859375, -0.9265609383583069, 1.7124271392822266, 2.6748461723327637
0.6556711658749466, 0.03788484042997282, 0.33486312013397246, -1.1953724723618975, -2.8018959044943696, -0.17421437202972775, 10.500067084129498, -6.7139434361711245, -5.486510931689782, 0.299835741519928, -1.6672874689102173, -2.114046096801758, -0.9265696406364441, 1.712479591369629, 2.6748461723327637
0.6556848990844331, 0.037912767405167504, 0.3350330072068195, -1.1953808693734789, -2.8021042781199217, -0.17448136425068517, 8.69388338934322, -5.130124347293845, -5.013624282125334, 0.29980796575546265, -1.667160153388977, -2.1139583587646484, -0.9265650510787964, 1.7124794721603394, 2.6748461723327637
0.6556757301897922, 0.0378987902218121, 0.3350097339824516, -1.1954317849236795, -2.8020579510994725, -0.17444013748252524, 7.562138070894894, -3.9151921738114153, -4.0516817266059615, 0.29985660314559937, -1.6671191453933716, -2.1139779090881348, -0.9265692830085754, 1.7124677896499634, 2.6748783588409424
0.6556823694012086, 0.03791314202502472, 0.334988467662174, -1.1953378302232902, -2.8020677310512676, -0.1743296272676154, 5.922236548659082, -2.634582052382514, -3.4699261114152193, 0.2997956871986389, -1.6671959161758423, -2.113990306854248, -0.9265733361244202, 1.7124677896499634, 2.674826145172119
0.6556946407497539, 0.03785236653500863, 0.3349814950948341, -1.1955084868668489, -2.8020340671335124, -0.1743378374395954, 5.560045655455509, -1.730754027851553, -3.630947993782658, 0.2998402714729309, -1.6672078371047974, -2.1139984130859375, -0.9265533089637756, 1.7124512195587158, 2.674838066101074
0.6556742275100023, 0.037871409444940635, 0.33498669447408663, -1.195445102230042, -2.8020620084021104, -0.17435690214237326, 6.851449584435061, -5.7254238824907855, -4.801539066498828, 0.2998197376728058, -1.667155385017395, -2.1139779090881348, -0.9265816807746887, 1.712463140487671, 2.674858331680298
0.6556758939438528, 0.037842047549299235, 0.3349776550936794, -1.1955427306087627, -2.8019875204672524, -0.17435543066168707, 10.291822399341733, -10.541248182408435, -7.0978061429407475, 0.2998688519001007, -1.6671077013015747, -2.11403489112854, -0.9266173243522644, 1.7124392986297607, 2.674854278564453
0.6556496076101631, 0.037911694746452784, 0.33500725763511063, -1.1953417620965419, -2.8020683619138524, -0.17440281039526337, 13.694866910480014, -13.430137440552246, -7.527051841138729, 0.2998879849910736, -1.6670833826065063, -2.114014148712158, -0.9266050457954407, 1.7124677896499634, 2.6748502254486084
0.6556317943744419, 0.03788672421401637, 0.33503337124616356, -1.19539743183989, -2.8020518624372595, -0.17443829267971148, 15.29596093461323, -15.046875773022563, -7.748953636175684, 0.29985663294792175, -1.6670233011245728, -2.114030599594116, -0.9266288876533508, 1.7124797105789185, 2.674858331680298
0.6556086486771294, 0.03789143536737674, 0.3350414822121109, -1.195353445916981, -2.8020946593644904, -0.17444331329855595, 16.35165239540212, -16.194643736743668, -7.549741453344044, 0.29987671971321106, -1.667012333869934, -2.1140618324279785, -0.9266248345375061, 1.7124193906784058, 2.674854278564453
0.6555710059948268, 0.03783056359394692, 0.3351092368226638, -1.195491581933115, -2.802121252192281, -0.17444597614505558, 18.21427780011565, -17.35524219069179, -7.389625587514927, 0.2998879849910736, -1.6669331789016724, -2.114074230194092, -0.9266443848609924, 1.7124717235565186, 2.6748461723327637
0.6555462906748335, 0.03782459416074601, 0.33514675939799643, -1.1954637047537058, -2.8021876294472476, -0.17455284903057625, 18.782555829248686, -17.767706043084303, -7.1040157771936965, 0.2998117208480835, -1.6667448282241821, -2.114137649536133, -0.9266403317451477, 1.7124313116073608, 2.674830198287964
0.6554612656879149, 0.0378192196688478, 0.3351698160292195, -1.1954289874320108, -2.8021776625557733, -0.17450316289432447, 21.683730707778142, -19.0250867039015, -7.802811655536081, 0.29984432458877563, -1.666585087776184, -2.114257574081421, -0.9267169237136841, 1.7124234437942505, 2.674842119216919
0.6553179093878969, 0.037784172346931676, 0.3352281094187397, -1.195430969241703, -2.8021780483133267, -0.17457350338821082, 25.564888274329803, -20.7239515228908, -9.04888872082699, 0.29982778429985046, -1.6663628816604614, -2.1144213676452637, -0.9267568588256836, 1.7124512195587158, 2.6748623847961426
0.6551551297432643, 0.03774585813515005, 0.3353145574190791, -1.195366120084871, -2.802285309866873, -0.17466231187638875, 25.924757029833714, -22.18444304480973, -9.548973081299604, 0.29987168312072754, -1.6659280061721802, -2.114717483520508, -0.9267848134040833, 1.7124470472335815, 2.674813985824585
0.6548988016364561, 0.037686411309930404, 0.33550010911746714, -1.1953668383832972, -2.802466284661275, -0.17492407560495474, 28.564763722127523, -21.974299530787, -9.748560376545068, 0.2999155819416046, -1.6653858423233032, -2.1150481700897217, -0.9267770051956177, 1.7125028371810913, 2.674866199493408
0.6547527865706518, 0.037655076187430206, 0.33567067975811815, -1.1954459949616774, -2.8025966106036084, -0.1752043045939324, 28.089280217035075, -21.83916323718188, -9.972002550411668, 0.2999151647090912, -1.6648637056350708, -2.1152708530426025, -0.9268008470535278, 1.7124836444854736, 2.6748623847961426
0.6545727008896027, 0.03758929744996079, 0.33583859326485843, -1.1955100081023222, -2.802723652563854, -0.17536798255244068, 29.197174306381267, -22.811758124163557, -9.914625869381895, 0.2999356985092163, -1.6644612550735474, -2.1154627799987793, -0.926824688911438, 1.712463617324829, 2.674882173538208
0.6543868706100947, 0.03753807934475091, 0.3360617190934812, -1.1955311319070712, -2.8030516081239116, -0.1756888145833222, 30.255305049990923, -23.022278892444916, -10.097998515582777, 0.29992344975471497, -1.6638046503067017, -2.1157538890838623, -0.926816463470459, 1.712403416633606, 2.6748461723327637
0.6541373451017373, 0.03747623355275891, 0.3363504806259517, -1.195640063315087, -2.8032451236970406, -0.1761415099579285, 30.843499302751393, -23.743544557915104, -10.21347388175895, 0.29990333318710327, -1.663241982460022, -2.116025447845459, -0.9268486499786377, 1.7124558687210083, 2.6748502254486084
0.6535876747909912, 0.03734322052943905, 0.33691824581154495, -1.195631951965572, -2.80383321017593, -0.17700196983307112, 31.79139469830743, -24.578848563525693, -10.963235617924251, 0.2999839782714844, -1.661512017250061, -2.116774797439575, -0.926908552646637, 1.7124989032745361, 2.674854278564453
0.6528381154842807, 0.037107796609936156, 0.3375636009245807, -1.195819929016549, -2.804472504848619, -0.1778999021828946, 33.604414417009984, -23.844120480696603, -11.986219274217248, 0.29998350143432617, -1.659535527229309, -2.117820978164673, -0.9269283413887024, 1.7124677896499634, 2.674870252609253
0.6518762443732031, 0.03684920257736254, 0.3382899263220968, -1.1958782541359303, -2.805240552315361, -0.17898122816710688, 35.708967151309196, -24.255268075022997, -12.946663131790716, 0.3000316619873047, -1.6575552225112915, -2.119008779525757, -0.9269205331802368, 1.7125147581100464, 2.6748743057250977
0.6506641027231075, 0.03652738863882363, 0.3389850608953931, -1.1959924162785716, -2.8059039558939434, -0.17993872210269715, 35.655753635400686, -24.28364441354605, -11.589531243005675, 0.30003076791763306, -1.6546941995620728, -2.120816469192505, -0.9268719553947449, 1.7124907970428467, 2.6748862266540527
0.6493053046540717, 0.03620254214681272, 0.3399901004792398, -1.1960051260919902, -2.8069612073755636, -0.18136901584381804, 36.54269583344814, -24.675231664564247, -11.20457383713065, 0.3002548813819885, -1.6514030694961548, -2.122795581817627, -0.9269485473632812, 1.712486982345581, 2.674882411956787
0.6477328554760622, 0.03576811621126336, 0.34098062238812493, -1.1961052508936278, -2.807976669541729, -0.18282908475897192, 36.678837830823454, -21.99393165776302, -12.068607606385719, 0.30036675930023193, -1.6477967500686646, -2.124981164932251, -0.9269531965255737, 1.7125226259231567, 2.674842119216919
0.6461931372429837, 0.03542738635651319, 0.3419534943826562, -1.1960952623579117, -2.809009605448826, -0.18423745687535484, 37.62795375667894, -22.48318022874048, -11.843736958406126, 0.30048230290412903, -1.6441227197647095, -2.1272828578948975, -0.9269158840179443, 1.712440013885498, 2.674842119216919
0.6442997459846308, 0.03496214051048934, 0.3431773998023505, -1.1960822314525525, -2.8103184249830804, -0.18610439002876678, 37.08653225215061, -23.383614839321293, -10.040389096853602, 0.3006777763366699, -1.6396514177322388, -2.1299996376037598, -0.9269686937332153, 1.712486982345581, 2.6748902797698975
0.6422011268598997, 0.03442635316271904, 0.34444404168507436, -1.1960992446391039, -2.8117282003777366, -0.18792093749949698, 35.93342200925861, -20.30861533614877, -10.119553313918729, 0.3009534180164337, -1.6347824335098267, -2.133023500442505, -0.9269324541091919, 1.712486982345581, 2.6749303340911865
0.6399305632284001, 0.03392822273858792, 0.3457412294721211, -1.1960242650655484, -2.8131817975101274, -0.1898558861106814, 37.8528732598506, -22.522627290652533, -10.235096902822614, 0.3011041283607483, -1.629562497138977, -2.1363468170166016, -0.9269846677780151, 1.7124830484390259, 2.674854278564453
0.6374446441929609, 0.033368927531603275, 0.3471326098859311, -1.1959185365186142, -2.8147521642217113, -0.19189424085582457, 35.80936523053031, -19.99362441918449, -10.345240260850773, 0.30145907402038574, -1.623867154121399, -2.1399879455566406, -0.9269241094589233, 1.7125028371810913, 2.6748461723327637
0.6351396110841859, 0.03287425909005122, 0.3483108835479305, -1.1957144910700266, -2.816124497517427, -0.19369545626316653, 35.32578510056965, -20.98631556921447, -9.758317583238325, 0.30188655853271484, -1.6179720163345337, -2.1439383029937744, -0.9269449710845947, 1.7124989032745361, 2.6748743057250977
0.6323128389606327, 0.03237308794716909, 0.34978161540819735, -1.1952130594150139, -2.81803280745661, -0.19589452078985123, 33.563258757398955, -20.19645865174592, -9.72461293167268, 0.30248570442199707, -1.6115590333938599, -2.148146152496338, -0.9269241094589233, 1.7124394178390503, 2.6748502254486084
0.6293580919041262, 0.03182046381658291, 0.35112393502787015, -1.194693930933539, -2.8196794224767894, -0.19797506440472443, 33.62634995273265, -19.587490252293108, -9.876700658636356, 0.30295634269714355, -1.6058684587478638, -2.1520473957061768, -0.9269199967384338, 1.7124907970428467, 2.6749062538146973
0.6263292765144715, 0.03135187107621509, 0.3525565748057435, -1.194083634240256, -2.8215740469531956, -0.20024572272814267, 33.59580057938943, -18.118648833836907, -8.531289161339508, 0.3036975562572479, -1.5991917848587036, -2.156583309173584, -0.9269526600837708, 1.7124794721603394, 2.6748862266540527
0.623607269668335, 0.030968841012761743, 0.3538479083899039, -1.1932586362723336, -2.8233901539613044, -0.20232246041777233, 33.634867989148226, -16.78453616003576, -9.171801833594339, 0.3045395314693451, -1.5922523736953735, -2.1611785888671875, -0.9269526600837708, 1.712506651878357, 2.6748342514038086
0.6203849401043362, 0.030630005154055458, 0.35537495702731076, -1.1922239953131026, -2.8256137252729094, -0.20480419234131766, 33.09366900392593, -16.915251441040866, -9.19102776390753, 0.30560946464538574, -1.5850363969802856, -2.1659512519836426, -0.9269324541091919, 1.7124947309494019, 2.6749022006988525
0.6171200381387892, 0.030353824311588888, 0.35703327481316643, -1.190869489147427, -2.828174009189005, -0.20752126880893096, 31.77337054029687, -18.510281699075165, -9.060635755432338, 0.3066100478172302, -1.5785995721817017, -2.170102119445801, -0.9269325137138367, 1.712448000907898, 2.674870252609253
0.6137701123672712, 0.030197584136525034, 0.3586019763281812, -1.1892334431492912, -2.8307126526439337, -0.2101761181159363, 31.752832326662435, -16.487373628867395, -9.902049063186706, 0.3080505430698395, -1.5709983110427856, -2.174978017807007, -0.926948606967926, 1.712510585784912, 2.6749181747436523
0.6103705748925156, 0.030163340250348426, 0.3601881195345062, -1.1872088537043881, -2.8334319581184713, -0.21292642724515998, 31.359888235844327, -15.966680579081281, -9.25498001277878, 0.3097347915172577, -1.563330888748169, -2.179905891418457, -0.9269526600837708, 1.7124755382537842, 2.674910068511963
0.6069769124981741, 0.030230102174345564, 0.3619536076827583, -1.1850789565461313, -2.836472640975452, -0.21601581640656575, 30.353874794522376, -15.337048346225064, -9.485957321177377, 0.3115815818309784, -1.5554988384246826, -2.1848387718200684, -0.9269449710845947, 1.7124836444854736, 2.674910306930542
0.6040028654643748, 0.0303825627825104, 0.36348927325977265, -1.1828607665453512, -2.8393119481660647, -0.21877622158992852, 30.975797954191655, -14.928769367184811, -8.725921166465168, 0.3136323392391205, -1.5475852489471436, -2.1895978450775146, -0.9269325733184814, 1.712463617324829, 2.674882411956787
0.6006342844105523, 0.030669702681234742, 0.3653440051819221, -1.1801650507886703, -2.8427207197343836, -0.22215298412356554, 31.889217256664388, -16.713294715445308, -8.863870575172065, 0.3155950605869293, -1.5406557321548462, -2.1936731338500977, -0.9269846081733704, 1.7125147581100464, 2.674922227859497
0.5972807929235204, 0.03100131768700349, 0.36729334544822195, -1.1773135395826875, -2.8463426921249844, -0.22569091855928666, 30.43481297605859, -16.23053068948049, -8.33424261152725, 0.3179645240306854, -1.532485008239746, -2.1983108520507812, -0.9269924759864807, 1.7124794721603394, 2.6749181747436523
0.5938734088741761, 0.031456881582431484, 0.3692012428348852, -1.1741157638635138, -2.850081886818758, -0.22929449187416154, 30.58745118477949, -17.723840825713552, -9.149810820960708, 0.3205666244029999, -1.5243629217147827, -2.2028908729553223, -0.9269404411315918, 1.712447166442871, 2.6749062538146973
0.5904364283832942, 0.03198046987068194, 0.3711775894035128, -1.1706397260785273, -2.853985377688369, -0.23312895654826743, 28.845232197744906, -17.898252275894112, -9.964950281450543, 0.3232744038105011, -1.5160728693008423, -2.2075440883636475, -0.9269765019416809, 1.712455153465271, 2.6749463081359863
0.5870117733239189, 0.0324890233177061, 0.37313799516440205, -1.167256049431713, -2.857861815967799, -0.23699607394891126, 30.376723613820253, -19.58616333397405, -8.7168271804466, 0.32605066895484924, -1.5076292753219604, -2.2121455669403076, -0.9270122647285461, 1.7124749422073364, 2.674962043762207
0.5835395726330828, 0.03304693175473557, 0.37505284777448566, -1.1638424066300173, -2.861590392491019, -0.24067167540178022, 29.28783040841511, -16.660728175494988, -7.398042228583539, 0.3289197087287903, -1.4992890357971191, -2.216742753982544, -0.9272038340568542, 1.712463617324829, 2.6751620769500732
0.5804434275029967, 0.03348031218484433, 0.37667838417913435, -1.160665174921087, -2.864780164754644, -0.24375656574202284, 28.634302094769563, -17.34336775133587, -8.843669053207982, 0.3318191170692444, -1.4908431768417358, -2.2213776111602783, -0.9275995492935181, 1.7124717235565186, 2.6752820014953613
0.5769670056433743, 0.03397802955354823, 0.37855976637143957, -1.1569205305450867, -2.8686170501129737, -0.2472567714729937, 29.034681771405477, -17.713334724614718, -8.940846435005907, 0.3343850076198578, -1.483455777168274, -2.225388288497925, -0.9279984831809998, 1.712403655052185, 2.6752700805664062
0.5734270673292045, 0.03451990219675713, 0.38031164030938847, -1.1529760813017174, -2.872156131599736, -0.25053097530364493, 29.339921335331205, -18.31355179863062, -9.949232010459623, 0.33732035756111145, -1.4750856161117554, -2.229947328567505, -0.928551971912384, 1.7124074697494507, 2.675286293029785
0.5699204781934212, 0.03505934634304237, 0.38208654903265454, -1.1488910968344834, -2.8757244881958837, -0.25372982245850845, 29.309721105064103, -18.80821892591426, -8.729451654856566, 0.34035274386405945, -1.46668541431427, -2.2344648838043213, -0.929454505443573, 1.7124035358428955, 2.675273895263672
0.5663000305285377, 0.0355328069799217, 0.3838570692587149, -1.1449001252983266, -2.8791615658799965, -0.2568095955075924, 28.091491483676773, -18.99530024251635, -9.14733159016333, 0.34343209862709045, -1.4580549001693726, -2.239008665084839, -0.9304841756820679, 1.7124193906784058, 2.675297975540161
0.5626099038465513, 0.03597646003713741, 0.38551889088877767, -1.1407528460418417, -2.8821807614121546, -0.2592741721202741, 30.39706570981662, -19.485331660210882, -9.13511520458702, 0.3465403616428375, -1.4494013786315918, -2.2436306476593018, -0.9321206212043762, 1.7124154567718506, 2.675342082977295
0.5588968753202049, 0.03641679779182083, 0.387073622356499, -1.1364654655078237, -2.8849034230795665, -0.26106352714097947, 29.13072994553492, -18.055261167604993, -8.7862113650576, 0.34962356090545654, -1.440740704536438, -2.248185157775879, -0.9344191551208496, 1.7124075889587402, 2.6754019260406494
0.5546440226092528, 0.03689257704230561, 0.38867697758870423, -1.131446609739548, -2.8874003262863503, -0.26251289695499036, 28.882681638362474, -17.691097139439123, -8.121994784759075, 0.35313093662261963, -1.431078314781189, -2.2532269954681396, -0.9375519156455994, 1.7123996019363403, 2.675421953201294
0.5513260943564536, 0.03721749502935093, 0.3899398070551294, -1.1275470538568089, -2.8891159552265955, -0.26306294787355333, 27.42229083535905, -17.177276497306515, -8.534833313804263, 0.35588234663009644, -1.423486590385437, -2.25717830657959, -0.9406844973564148, 1.7124313116073608, 2.6754698753356934
0.5475000654341499, 0.037471562167565114, 0.3912893787994968, -1.1231755748475702, -2.890587279320153, -0.26305292828442445, 29.75127954872032, -17.105652841974138, -8.610209283920918, 0.3589138090610504, -1.4147926568984985, -2.261385202407837, -0.9449253082275391, 1.712443232536316, 2.675489902496338
0.5437095728003798, 0.03776559610397966, 0.3926547411599345, -1.1186888416026641, -2.891818070271551, -0.2625785398492378, 29.07475677934903, -17.421619853172214, -8.174589179507983, 0.3619786500930786, -1.4060224294662476, -2.2654881477355957, -0.9497925639152527, 1.7124273777008057, 2.675569772720337
0.5403352629282667, 0.03797937637007421, 0.3938450447784304, -1.1145267477494818, -2.8927448323813527, -0.2617361683101144, 29.174769061501575, -16.736211171849927, -8.534754785835663, 0.36502546072006226, -1.397346019744873, -2.2695043087005615, -0.9552927017211914, 1.712403655052185, 2.675569534301758
0.5364444105148299, 0.03821165853359425, 0.3951114958266387, -1.1097358318052737, -2.893111731873122, -0.25997951334192737, 29.89512756547021, -16.143212309378587, -7.825972254518565, 0.36811602115631104, -1.3886054754257202, -2.273355007171631, -0.9617893099784851, 1.7124913930892944, 2.6756060123443604
0.5325744391479368, 0.03846757830042517, 0.3963043705034124, -1.1046516501394084, -2.8929743827637244, -0.2570246926111062, 29.472874866109972, -14.830407168697437, -9.45856020217858, 0.3708377778530121, -1.381001353263855, -2.2763986587524414, -0.9683640003204346, 1.7124794721603394, 2.675569534301758
0.5286979821421414, 0.03871809833348605, 0.3975771533835486, -1.0994186116260924, -2.892341994159473, -0.2531237998143239, 29.008976433499054, -14.776728639617897, -8.791832351462125, 0.3741481304168701, -1.3724565505981445, -2.279730796813965, -0.9771808385848999, 1.712483525276184, 2.675569534301758
0.5248136143304688, 0.03903610921678077, 0.3988438864884875, -1.093865512936716, -2.8912793233559926, -0.248514599748463, 28.911834826772132, -14.452367428939205, -8.279494393940775, 0.37746235728263855, -1.3637330532073975, -2.2826671600341797, -0.9868679046630859, 1.7124394178390503, 2.6756463050842285
0.5214643879717445, 0.0393113412085445, 0.40001144583234555, -1.088893900170631, -2.890146880760912, -0.24419676980799085, 29.648288961871234, -16.325574917758825, -7.627852671073045, 0.38089606165885925, -1.3550853729248047, -2.2852914333343506, -0.9973824620246887, 1.7124989032745361, 2.6756060123443604
0.5176650687220589, 0.03968994336241165, 0.40145353003077155, -1.0829958288757113, -2.8883844094752793, -0.23821384204260576, 28.943630754724136, -14.897552273027182, -8.683824479945091, 0.3844453990459442, -1.34645676612854, -2.2874038219451904, -1.0092058181762695, 1.7124751806259155, 2.675642251968384
0.5139046139821047, 0.040171910814747316, 0.4029680320061084, -1.076634184394845, -2.886657004262536, -0.2321353220499014, 28.207697999459107, -14.426849748029655, -5.595228278356784, 0.38768792152404785, -1.3388899564743042, -2.28904390335083, -1.0198860168457031, 1.712510585784912, 2.6756019592285156
0.5102416947890902, 0.040577640513115326, 0.4046889183083097, -1.0705655927185915, -2.8845567978318094, -0.22552954297665384, 28.173391542651867, -12.030778343259417, -5.656077669074773, 0.3913857638835907, -1.3303498029708862, -2.2904045581817627, -1.0327529907226562, 1.7124791145324707, 2.6756019592285156
0.506688701500932, 0.041142115845563945, 0.4064833537365302, -1.0640193186625153, -2.8821678113547033, -0.2182438543136262, 29.024591828766912, -13.003303083281276, -5.922664692860312, 0.3951359689235687, -1.3219009637832642, -2.2912888526916504, -1.046869158744812, 1.7125587463378906, 2.675581455230713
0.5036606303864903, 0.04162112870856783, 0.40820341564136065, -1.0584225761219803, -2.880037385806516, -0.21205366927479333, 27.788736610603564, -13.255057072918433, -5.084864298036911, 0.3989773690700531, -1.3136389255523682, -2.291651725769043, -1.0611140727996826, 1.7125266790390015, 2.6756060123443604
0.5002161894293761, 0.04223114614233821, 0.4102852322863735, -1.0516466376338682, -2.87714530331574, -0.20396811337201665, 26.985233529233508, -11.325786491856999, -4.514075676178129, 0.4024721682071686, -1.3064318895339966, -2.2915596961975098, -1.074791669845581, 1.7125422954559326, 2.675586223602295
0.4963602973085813, 0.043025755423691206, 0.41262504161721325, -1.0436578723246819, -2.874187946285747, -0.19501080300900528, 25.900828512328363, -10.023446552312501, -7.4886107286161225, 0.40705689787864685, -1.2972043752670288, -2.291424036026001, -1.0920660495758057, 1.7125505208969116, 2.6755897998809814
0.4933195743409443, 0.043579607935683176, 0.41428354631329034, -1.0374792853542427, -2.8712820927000764, -0.18716461144965368, 26.638133061342437, -10.20025814685116, -7.56140245319774, 0.4107413589954376, -1.290150761604309, -2.2912354469299316, -1.106244683265686, 1.7125465869903564, 2.6755294799804688
0.4898426919109, 0.044414063437898596, 0.41616603087801396, -1.029763519905598, -2.8684142376630746, -0.17870677051038125, 24.369499394140323, -8.862736277496216, -6.896059234179933, 0.4152396619319916, -1.2822035551071167, -2.291123628616333, -1.1218420267105103, 1.7126147747039795, 2.6755857467651367
0.48627940816402704, 0.04517126525372198, 0.4179376316253342, -1.02210328524472, -2.8650074086811768, -0.16943389991813126, 23.009265041714634, -7.237274217357641, -6.254095791901584, 0.41984838247299194, -1.274288535118103, -2.2909557819366455, -1.138138771057129, 1.712602138519287, 2.6755456924438477
0.4832430819078846, 0.0459369754269172, 0.4195648996496481, -1.0151649041788604, -2.862729649508896, -0.16219656530327115, 23.012843931996624, -7.003904870523421, -7.017464770431009, 0.4246065020561218, -1.2664347887039185, -2.2908480167388916, -1.1535090208053589, 1.7126826047897339, 2.6755857467651367
0.47976412656823264, 0.046743833353779365, 0.4213582543007889, -1.0073011401263343, -2.8597302928797528, -0.15316843860928325, 22.592820075995302, -7.564265136837486, -8.23895480271203, 0.42935147881507874, -1.2587236166000366, -2.2905869483947754, -1.1693888902664185, 1.7126193046569824, 2.675593852996826
0.4764010785282329, 0.04761416756431748, 0.4232109526955613, -0.9994620831397735, -2.857255703069631, -0.1452062040722987, 23.769798730953056, -8.618011447904397, -7.1938745595376385, 0.43354323506355286, -1.2520841360092163, -2.2903435230255127, -1.182370662689209, 1.712686538696289, 2.6755897998809814
0.47303042361607356, 0.04845248329882843, 0.4250691527092121, -0.9915716921614557, -2.854507753467768, -0.1367711006212339, 22.53000395937951, -6.744792991446181, -7.777410686440378, 0.43839311599731445, -1.2445359230041504, -2.2899270057678223, -1.1976815462112427, 1.7127184867858887, 2.6756179332733154
0.46971625172757914, 0.04938293094737293, 0.4270009855110385, -0.9835217436802862, -2.852437990416678, -0.12925080492836527, 24.081583365743036, -8.456538375951284, -6.424789183490266, 0.4433099031448364, -1.23704993724823, -2.2894227504730225, -1.212328553199768, 1.7127225399017334, 2.6756019592285156
0.4668947771569065, 0.05022695072992023, 0.428777955327332, -0.9763521620650597, -2.8506960670566546, -0.12267046307401062, 22.529987398106325, -7.277296407799837, -7.9481488531731115, 0.44843432307243347, -1.229755163192749, -2.288774013519287, -1.2268359661102295, 1.7127065658569336, 2.675593852996826
0.4637190238393712, 0.05112281812624038, 0.43081474256321756, -0.968539281279211, -2.848823440731767, -0.11553924283235145, 23.693752972441548, -7.7503159008004285, -6.3872977555858075, 0.452785462141037, -1.2233655452728271, -2.2881264686584473, -1.2392057180404663, 1.7127430438995361, 2.675638198852539
0.4606943414332818, 0.052081090835411153, 0.4329052873677388, -0.9606395161500998, -2.847440933274649, -0.1091885130885886, 21.90405892103342, -5.922256718587027, -7.768754020618369, 0.4577341377735138, -1.2163759469985962, -2.287346363067627, -1.2525591850280762, 1.7127220630645752, 2.6756179332733154
0.45767550360053016, 0.05301680508801161, 0.43495067814623894, -0.9527951366518668, -2.8460684854757137, -0.10272025687469434, 20.878892304861353, -4.470993374416556, -7.562836372522165, 0.46271222829818726, -1.2093214988708496, -2.2864813804626465, -1.265971302986145, 1.7127909660339355, 2.675541400909424
0.4558480130010882, 0.05357516723949709, 0.4363425100999302, -0.948138334451052, -2.845618617188846, -0.09958526279167591, 20.813811623642756, -4.807664384554765, -6.805733876886044, 0.4658149182796478, -1.205033779144287, -2.285921096801758, -1.2736656665802002, 1.7127543687820435, 2.675597906112671
0.4529710818125336, 0.05452131520799182, 0.43848703596186017, -0.9404545372798022, -2.845013762126971, -0.09456010828356179, 20.786430073787407, -5.172608324394172, -7.865978725190242, 0.47076326608657837, -1.1981369256973267, -2.285024881362915, -1.2855054140090942, 1.7127503156661987, 2.675609827041626
0.45021669115548807, 0.055500760617496606, 0.4408338005417358, -0.9329353557226172, -2.844887088965261, -0.09033409675097195, 22.130699238974533, -6.6809571786008295, -6.608912935111501, 0.4763016998767853, -1.1905213594436646, -2.283836603164673, -1.2983242273330688, 1.7128263711929321, 2.675593852996826
0.44761002424303836, 0.056524297523854225, 0.4433120588309905, -0.9255733945108963, -2.84529430657694, -0.08725655330002828, 22.497903079984354, -6.274178267959992, -7.225537589269795, 0.48056530952453613, -1.1847153902053833, -2.2827529907226562, -1.3074758052825928, 1.712922215461731, 2.6756138801574707
0.44413886999161656, 0.05787149854864808, 0.446886964293382, -0.9157570662784301, -2.846055405357679, -0.083808427591785, 23.914752563625182, -6.439245715785642, -7.521086683033501, 0.4871746003627777, -1.1756454706192017, -2.28079891204834, -1.3213237524032593, 1.7132371664047241, 2.6756460666656494
0.4417177691689798, 0.05892369442761401, 0.4496457227541848, -0.9086643988231479, -2.8469387117880083, -0.08241672656202491, 26.164892915849933, -8.87897360523711, -8.176072814307652, 0.49199071526527405, -1.1691428422927856, -2.2791764736175537, -1.3308594226837158, 1.7136518955230713, 2.6755974292755127
0.4393423989512054, 0.05998578091670836, 0.45245531839474423, -0.9016384571577314, -2.848043943099917, -0.08187359644617935, 28.804778095971695, -10.578235534265216, -6.863812690911495, 0.4967353343963623, -1.1627191305160522, -2.2775187492370605, -1.339656114578247, 1.7143745422363281, 2.6756176948547363
0.4369797415237922, 0.06104723034102663, 0.45530476395972114, -0.894556062865891, -2.8489054046437357, -0.08118054749793584, 29.634518542570987, -9.328755402964454, -6.229081653532442, 0.5015284419059753, -1.1562614440917969, -2.2756567001342773, -1.3487207889556885, 1.7152241468429565, 2.6756339073181152
0.43455991578294456, 0.06211070867483459, 0.4581648502922378, -0.8872906030577172, -2.8497318544843413, -0.0802197416581521, 30.37857435499147, -10.811168804099864, -6.171713365711051, 0.5063176155090332, -1.1498713493347168, -2.273715019226074, -1.3580833673477173, 1.715965986251831, 2.675589084625244
0.4324106186799547, 0.06308293028238718, 0.4606960496779122, -0.8807075251022267, -2.8504675952846776, -0.07997119124242025, 29.138286191754318, -11.109599921724389, -5.239886923172083, 0.5113145112991333, -1.1434311866760254, -2.2718284130096436, -1.3671927452087402, 1.7169831991195679, 2.675621509552002
0.4299150733683699, 0.06414371127060219, 0.4635423100583401, -0.8733497773711857, -2.8511650873381407, -0.07962446355543969, 28.391566491442852, -10.51852101028059, -5.649369061598234, 0.5162710547447205, -1.1369651556015015, -2.2699954509735107, -1.3763034343719482, 1.718100666999817, 2.675665855407715
0.4273628501567596, 0.06522930425552144, 0.4663870951156419, -0.8656301667632398, -2.851294965499963, -0.078590339553708, 27.953136768860897, -9.04493838349104, -5.367060451433124, 0.5206551551818848, -1.1313952207565308, -2.2682340145111084, -1.3850585222244263, 1.719220519065857, 2.6756174564361572
0.4247626639958693, 0.06630148511185197, 0.46911408028641466, -0.8579645714963744, -2.851091113364609, -0.07794465339186071, 26.72171537496567, -9.634423251611517, -4.766792274453793, 0.525712788105011, -1.1250642538070679, -2.2662477493286133, -1.3948308229446411, 1.7208362817764282, 2.675689935684204
0.4221143164169605, 0.06735527857509287, 0.4719298212289679, -0.850213900026127, -2.850790118888804, -0.07758421778721178, 24.90880972448241, -11.347090541730832, -4.933222811165554, 0.5308576226234436, -1.1186866760253906, -2.2643215656280518, -1.404628872871399, 1.7226994037628174, 2.675705909729004
0.4197715306172748, 0.0682772291183687, 0.4743443302189472, -0.8433254238745258, -2.8502194076444356, -0.07635634372874314, 22.60371935172904, -10.295918114370915, -4.366750473279566, 0.5360298156738281, -1.1124175786972046, -2.2622039318084717, -1.415213704109192, 1.7244502305984497, 2.6757259368896484
0.41706784357488036, 0.0692973414870583, 0.47707690363852445, -0.8353033916513032, -2.8496982411779936, -0.07484918449020925, 22.947375819733885, -10.207026308413079, -4.144994318357778, 0.5412850975990295, -1.1061508655548096, -2.2601027488708496, -1.4257879257202148, 1.7260487079620361, 2.6757097244262695
0.41444778268648846, 0.07020997216273904, 0.4797893257753887, -0.8276717441459581, -2.849409476093903, -0.07323123669637013, 19.964934947341135, -7.937902772011959, -2.332698971291963, 0.5457003116607666, -1.100786805152893, -2.2582168579101562, -1.4347584247589111, 1.7272144556045532, 2.675733804702759
0.41186505020494446, 0.07104028987628115, 0.48247844493097886, -0.8201657933984917, -2.8491246052608767, -0.07065903949729126, 18.848307688793266, -5.3335314609685796, -1.764505944169918, 0.5506912469863892, -1.0947668552398682, -2.2559757232666016, -1.445475697517395, 1.7281032800674438, 2.675758123397827
0.409629240568381, 0.07160993443675644, 0.48473598604733453, -0.8138973933187066, -2.8490791101149053, -0.06761040530297734, 19.539347080980082, -8.599003273103152, -2.981588424191665, 0.555582582950592, -1.088948369026184, -2.253706455230713, -1.4563003778457642, 1.7283542156219482, 2.675745725631714
0.40721604937189876, 0.07226282444363932, 0.48735783872732485, -0.8069996528637474, -2.849455277806025, -0.06448136083617878, 17.419546080164174, -7.579301992614865, -1.3234008294782917, 0.5603328347206116, -1.0832971334457397, -2.2513651847839355, -1.4665182828903198, 1.7283382415771484, 2.675814151763916
0.4047648281025206, 0.07282681494505819, 0.4899176568670004, -0.8001300160841578, -2.8493867323405393, -0.060696472329808286, 14.705942494769772, -6.306238245785019, -2.369411571791972, 0.5649842619895935, -1.0777404308319092, -2.2489521503448486, -1.477331280708313, 1.7283422946929932, 2.675830125808716
0.4024039549828608, 0.07330847403157828, 0.49225790034645506, -0.7935504154246231, -2.848982035913305, -0.056506148305258595, 14.116832323769255, -8.4934696031219, -0.5658384905167084, 0.5688918828964233, -1.0731940269470215, -2.246950149536133, -1.4867057800292969, 1.7283101081848145, 2.6757898330688477
0.40018223302734607, 0.07384717031657169, 0.49461487401169885, -0.7870623892985591, -2.848893587403061, -0.05281040754157616, 11.064020086363097, -5.5513493001563265, 0.11419933164411677, 0.5732245445251465, -1.068337082862854, -2.2445971965789795, -1.496821641921997, 1.7283260822296143, 2.6757655143737793
0.3980036411001815, 0.07419622145386288, 0.49667548984641907, -0.7811931822675485, -2.8477953561247973, -0.04795767853834641, 7.636734928311476, -3.254946733647446, -0.28218875858523274, 0.5771885514259338, -1.0637555122375488, -2.242295980453491, -1.507338285446167, 1.7282662391662598, 2.6757736206054688
0.3959600603774045, 0.07444744017783435, 0.4986011658745658, -0.7757768193291164, -2.8467227191199536, -0.043149747488409246, 5.915941868106374, -2.8362151361230628, 1.7303632456863036, 0.58082515001297, -1.0594629049301147, -2.240135431289673, -1.5176259279251099, 1.728242039680481, 2.675826072692871
0.3940760763410733, 0.074679028826349, 0.5004087387738178, -0.770821931627525, -2.845655309951629, -0.0386127259761046, 2.7727722454989867, -1.338910012230554, 1.8105164180571833, 0.584154486656189, -1.0555751323699951, -2.2379889488220215, -1.5272427797317505, 1.7282342910766602, 2.675809860229492
0.39249276041710524, 0.07474426956738635, 0.5017857865758151, -0.7670506986600917, -2.8442919755059894, -0.034343313589782605, 0.8662557324610303, -1.1221481604599437, -0.017092816533549715, 0.5867578983306885, -1.0525035858154297, -2.2362191677093506, -1.5354533195495605, 1.7282185554504395, 2.6758177280426025
0.39080496958113065, 0.0747698470525437, 0.5031077060679502, -0.763071797436273, -2.842353385395421, -0.028999863814821104, -1.5171241673056348, -1.0092868148274892, 1.0259988946250833, 0.5893639922142029, -1.0494606494903564, -2.2344741821289062, -1.5447458028793335, 1.7281787395477295, 2.675809860229492
0.38929498465726964, 0.07475400871232694, 0.5043216255708918, -0.7595548068525999, -2.8406320006151167, -0.02410840381384648, -3.133361915994235, -0.4572685027847663, 2.047928738980352, 0.591728150844574, -1.0466328859329224, -2.2327957153320312, -1.553331732749939, 1.7281626462936401, 2.6757938861846924
0.38800506649636257, 0.0747571534843641, 0.5053342084676264, -0.7564747054926102, -2.8387605883066747, -0.019454414906524404, -4.389304613739627, -0.46127638276717475, 1.5052820928081352, 0.5935872197151184, -1.044363260269165, -2.2312777042388916, -1.5610088109970093, 1.7281789779663086, 2.6757898330688477
0.38698153512735106, 0.0746419853673987, 0.505988976496086, -0.7543740896136067, -2.836945883851455, -0.01513178449135517, -5.135073645965566, 0.6958892755644339, 1.6034182255747909, 0.595236599445343, -1.042525053024292, -2.230023145675659, -1.5683352947235107, 1.7280948162078857, 2.6757938861846924
0.38596405020833685, 0.07447506163041875, 0.5064688036687186, -0.7524344003911093, -2.834510162071629, -0.010048362599875994, -7.1507882820154665, 0.494600649562432, 1.1836026027291093, 0.596290111541748, -1.0412601232528687, -2.2291483879089355, -1.5743786096572876, 1.7280511856079102, 2.6758298873901367
0.38510970870151895, 0.07425905308622091, 0.5066643314030964, -0.7510052092493579, -2.8320719215111447, -0.0051264270645695505, -7.260813845192918, 0.4679855692997821, 1.982874879515707, 0.5972039699554443, -1.0402705669403076, -2.228365182876587, -1.5803347826004028, 1.7279465198516846, 2.6757657527923584
0.3845157591844107, 0.07405296804183661, 0.5066705565405447, -0.7499756004782814, -2.82992313717871, -0.0008232948871242938, -8.087306272189863, 1.8526923637797945, 1.7558196265704287, 0.5977395176887512, -1.0396664142608643, -2.227914333343506, -1.5852657556533813, 1.7279157638549805, 2.6757616996765137
0.38418355805493837, 0.07382388660192955, 0.5065333472500764, -0.7498242658000238, -2.8280780887644497, 0.002532489728863566, -8.519244887400912, 2.0502298147282647, 1.9226225250990672, 0.5978190302848816, -1.0394339561462402, -2.2276551723480225, -1.5886880159378052, 1.7277517318725586, 2.675781726837158
0.38409544782797406, 0.07373358034968452, 0.5063978063734894, -0.7498326613422733, -2.82732608925812, 0.0038216589068929205, -8.657376064915738, 2.3991835902439345, 1.7737378339382714, 0.5977789759635925, -1.039546012878418, -2.227578639984131, -1.5898276567459106, 1.727687954902649, 2.6757497787475586
0.38402205738032463, 0.07364679162303824, 0.5063187252468253, -0.7498863281002768, -2.8268748896870077, 0.004645916517935666, -9.991078418265477, 2.5317313724715325, 2.670920797654265, 0.5976863503456116, -1.0396264791488647, -2.2276511192321777, -1.5906153917312622, 1.72763991355896, 2.6757938861846924
0.38405196499109573, 0.07365879643327768, 0.5060842331634521, -0.7499083303408335, -2.8264674709977164, 0.005707706734345742, -11.727785271311035, 2.694469100528503, 4.447603446123756, 0.5977029800415039, -1.0398825407028198, -2.2277705669403076, -1.5911585092544556, 1.7274925708770752, 2.6758382320404053
0.3841601200956284, 0.07369663174975256, 0.5059465072223996, -0.749850496040903, -2.826524014744812, 0.006116332002994181, -13.214438822168399, 3.2645618603251534, 3.295949138732138, 0.5976905822753906, -1.0401946306228638, -2.2278311252593994, -1.590973973274231, 1.7272735834121704, 2.6757776737213135
0.3843670317503748, 0.07379382565378843, 0.5057865258416581, -0.749777168241556, -2.8265728100244703, 0.006881074530352444, -13.028989110928551, 4.3003589450758355, 1.3340910703279576, 0.5976585745811462, -1.040807843208313, -2.2277629375457764, -1.5908185243606567, 1.7269943952560425, 2.675729274749756
0.38446199166345213, 0.07385413534446382, 0.5056035363349963, -0.7497956529081652, -2.8262805447714223, 0.007358820918842941, -13.790750695339378, 3.9107946174384307, 1.7726793014672628, 0.5976306200027466, -1.0411161184310913, -2.2277581691741943, -1.590762734413147, 1.7269222736358643, 2.675769805908203
0.38456701109427527, 0.07392286828953747, 0.5055117349557958, -0.749865782745179, -2.8260206567511323, 0.007599373159416013, -13.259096627411623, 3.150534959722316, 1.221517130500998, 0.5976265668869019, -1.0414519309997559, -2.2277824878692627, -1.5907422304153442, 1.726906180381775, 2.6757538318634033
0.384657171590299, 0.07396146734439332, 0.5054360542616898, -0.7498808442608786, -2.8259054447471255, 0.007914081054638504, -13.92442841635248, 3.329507182770053, 1.0381540439058488, 0.5976388454437256, -1.0418083667755127, -2.227750778198242, -1.5907546281814575, 1.7269065380096436, 2.675773859024048
0.384779105083121, 0.07403626177045375, 0.5053057505322599, -0.7498930965625673, -2.8256292599035726, 0.008344904944658747, -13.928839532332773, 3.627004368705747, 0.5611494373709456, 0.5976629853248596, -1.0421327352523804, -2.227734327316284, -1.590734601020813, 1.7268579006195068, 2.6757538318634033
0.3848683195630464, 0.07411764567382076, 0.5051453671041191, -0.7497378988139779, -2.8254749129673002, 0.008810272135482187, -14.85104199976773, 3.648890452888617, 1.1632800514862423, 0.5976629853248596, -1.0425291061401367, -2.2277743816375732, -1.5907264947891235, 1.7268340587615967, 2.6757898330688477
0.3849736345434416, 0.0741740809326289, 0.5050031079933794, -0.7497508541369192, -2.82525694794038, 0.009317909608009543, -14.886215464665968, 2.9460787995283986, 0.6441322098855493, 0.5976306796073914, -1.0429539680480957, -2.227734327316284, -1.5907026529312134, 1.7268345355987549, 2.6757538318634033
0.3850556475318848, 0.07419622669163586, 0.5048708582016954, -0.7498707360593017, -2.8250232316053894, 0.009643933552314798, -14.70861740100607, 3.0954976568379906, 0.37078435003154864, 0.5975988507270813, -1.0432664155960083, -2.227818727493286, -1.5906826257705688, 1.7267704010009766, 2.675773859024048
0.385221198307279, 0.07429525500737186, 0.5046814542591226, -0.7498447317916651, -2.824680275154586, 0.010337370655861185, -14.886681618021585, 3.1856697474923696, 0.7554013361432395, 0.5975384712219238, -1.0437548160552979, -2.2277743816375732, -1.5906983613967896, 1.7267029285430908, 2.675757884979248
0.385343757076655, 0.07437031880757815, 0.5045652312545752, -0.7498321917857887, -2.8245064674233893, 0.010756876013712323, -15.013620033033119, 3.3927969907914526, 0.584804119980368, 0.5976148247718811, -1.044231653213501, -2.227794885635376, -1.5906659364700317, 1.7266592979431152, 2.675773859024048
0.3854989681958538, 0.07445823650720497, 0.5043318900917171, -0.7498000008557648, -2.8242273628309045, 0.011476989575423206, -16.02698715572072, 3.0755098453031677, 0.8979908089558193, 0.5976315140724182, -1.044715404510498, -2.2278270721435547, -1.5906425714492798, 1.7266234159469604, 2.6757619380950928
0.3856696164710169, 0.07457411358285464, 0.5041224791846785, -0.7497413203382, -2.8238035102657126, 0.012100446253028689, -14.909895645861997, 3.1609452278073324, 1.3850163744577286, 0.5975266098976135, -1.0453366041183472, -2.227782726287842, -1.5906826257705688, 1.7265232801437378, 2.6757214069366455
0.38582731335534665, 0.07464734166298226, 0.5038779502771508, -0.7498262187302964, -2.823358732923943, 0.012842659569523249, -16.229073209600084, 3.1665350171955384, 1.8083081144302664, 0.5975508093833923, -1.045965313911438, -2.2277991771698, -1.5906301736831665, 1.7265194654464722, 2.6756772994995117
0.3859663312417418, 0.0747612877828918, 0.5036778937446378, -0.749666229704614, -2.8230825270628683, 0.013588973932707676, -16.52948593345685, 3.2236760466802474, 2.296629137748998, 0.5975589752197266, -1.046546459197998, -2.22784686088562, -1.59066641330719, 1.7264316082000732, 2.6757497787475586
0.3861590784705994, 0.07485836461933419, 0.503446770678322, -0.7497130272856787, -2.8227643521067427, 0.014369637510680012, -17.334556915313033, 2.7867736385184885, 1.8362715447981417, 0.5975914001464844, -1.047142505645752, -2.2278354167938232, -1.5906826257705688, 1.7263597249984741, 2.6757538318634033
0.3863185146217689, 0.07493057016515399, 0.5032820074987856, -0.7497103754749131, -2.822554464666515, 0.01514663281310089, -16.816758282692184, 2.5475292513244456, 1.553184670194999, 0.597498893737793, -1.047690749168396, -2.227818727493286, -1.5906983613967896, 1.7261642217636108, 2.6757619380950928
0.38653903425978914, 0.07496291244138571, 0.5029997714919303, -0.7499435304165042, -2.822330701865621, 0.016342091955012635, -15.619641772923865, 2.4888409212942415, 2.0932254204134804, 0.5974791049957275, -1.0484238862991333, -2.2278270721435547, -1.5906583070755005, 1.7257728576660156, 2.675774335861206
0.3867976102445889, 0.07502818672366461, 0.5026585965646978, -0.7499076253081426, -2.8223681914847036, 0.018090519821986863, -16.051059223610018, 2.215175003688528, 2.4627161141567093, 0.5974595546722412, -1.0492407083511353, -2.22782301902771, -1.590694546699524, 1.7249953746795654, 2.6757421493530273
0.38708474141626187, 0.07505340490823793, 0.5023500343308114, -0.7500275272693874, -2.822618800220098, 0.02006928903243366, -17.703675798499273, 1.5547153594632157, 2.524104062316963, 0.5973750948905945, -1.0500296354293823, -2.227806568145752, -1.590694546699524, 1.7238736152648926, 2.6757378578186035
0.38738197634425725, 0.07511808641896954, 0.5020289271995299, -0.7500493548939919, -2.822782573408785, 0.021930162158425245, -17.51670052667344, 1.3717785851796864, 2.4133786132584985, 0.5973635315895081, -1.050902009010315, -2.2278106212615967, -1.5906621217727661, 1.7229207754135132, 2.675741672515869
0.38776423487672285, 0.07514084205114475, 0.5016616463281804, -0.7502601991076735, -2.8232564524428243, 0.024497935806834768, -18.73154040234484, 1.503232909532449, 2.7442138638056734, 0.5973158478736877, -1.0518602132797241, -2.2278146743774414, -1.590694546699524, 1.7214490175247192, 2.675729751586914
0.38811065056807365, 0.07511594491193137, 0.5011835925758399, -0.7503210756047638, -2.8238110694981726, 0.02752096205165873, -19.635898802309377, 1.6648105053364644, 3.5892031676137512, 0.5972433686256409, -1.0529131889343262, -2.2278387546539307, -1.5907107591629028, 1.7196776866912842, 2.675773859024048
0.3885719801825315, 0.07504135368630967, 0.5007830916555263, -0.7506138546115332, -2.82480012248015, 0.03091848335070988, -20.78573174681398, 1.0812154610095468, 3.0046593907039014, 0.5971238613128662, -1.0540060997009277, -2.2278623580932617, -1.5906826257705688, 1.7173758745193481, 2.675729751586914
0.3891041760989107, 0.07490088575407851, 0.5002928381567258, -0.7510197453494, -2.826253454616572, 0.03527178947320096, -21.25162419382914, 1.500442913959909, 2.3162242241377022, 0.5969560146331787, -1.055103063583374, -2.2278189659118652, -1.590694546699524, 1.7144278287887573, 2.6757657527923584
0.3895811684268644, 0.07469449119531958, 0.49982197188187355, -0.7514140812090174, -2.8279721195701506, 0.039713439632459636, -22.76232957578296, 1.0305675682112696, 2.8263697441359312, 0.5968170166015625, -1.0563325881958008, -2.227874755859375, -1.5906740427017212, 1.710606336593628, 2.6757538318634033
0.3902782406051229, 0.07438577913963172, 0.4992712658967158, -0.7520900864912066, -2.8304506042025794, 0.045724614821612386, -23.80565630999644, 1.317921919596606, 2.518533988720641, 0.5965845584869385, -1.0575298070907593, -2.2278223037719727, -1.590678334236145, 1.7065131664276123, 2.675830364227295
0.39101889738610746, 0.07395746150452515, 0.49864127422821747, -0.7528243640961293, -2.8335619562052603, 0.05283208680146281, -25.29818628515833, 0.852916175208866, 2.670588452653007, 0.5962374210357666, -1.0589349269866943, -2.2278223037719727, -1.5906983613967896, 1.7010045051574707, 2.6757094860076904
0.39186104598379873, 0.07338632183094633, 0.4979778917545214, -0.753817371411003, -2.837463836154082, 0.06137617324916985, -25.202483778594058, 0.5081177035383039, 3.162586879154735, 0.5958941578865051, -1.0604294538497925, -2.2278099060058594, -1.5906702280044556, 1.6941903829574585, 2.675741672515869
0.3928809450449198, 0.07268507990039992, 0.4973221365681402, -0.7547926334312299, -2.8427387318385158, 0.07162969079054092, -24.61882285944278, 0.3161449626015973, 3.5702366365467304, 0.595447301864624, -1.0620344877243042, -2.2278542518615723, -1.59066641330719, 1.6856555938720703, 2.6757616996765137
0.3940011646491655, 0.0718114988624516, 0.49650433157571033, -0.7559370763984847, -2.8488156121757324, 0.08381699906496272, -25.29168850555451, 0.25906516541942215, 3.962237785921472, 0.5949671268463135, -1.0636764764785767, -2.227846145629883, -1.5906258821487427, 1.6754423379898071, 2.6757376194000244
0.3946023046184963, 0.07135644382119678, 0.49608948031918865, -0.7565316438275625, -2.852156716391494, 0.09036067471323052, -24.774258463503923, -0.08617360085149606, 4.1610425096652754, 0.5947566628456116, -1.0648854970932007, -2.22790265083313, -1.5906425714492798, 1.6685633659362793, 2.675830125808716
0.3952447893903843, 0.0708345771715652, 0.4957323193761358, -0.757079377948108, -2.8558003319630387, 0.09716061625005022, -25.886986611007696, 0.5583369942384498, 4.333965612897834, 0.5945608615875244, -1.0655220746994019, -2.2278666496276855, -1.5906583070755005, 1.6641521453857422, 2.675785779953003
0.3958926684173705, 0.07028778034428247, 0.49531278571462833, -0.7577289845827843, -2.8596610521500563, 0.10459141612958169, -25.89206713653129, 0.6101949123961155, 4.647241584540339, 0.5942447185516357, -1.0666993856430054, -2.2278623580932617, -1.59066641330719, 1.6562325954437256, 2.6757776737213135
0.3966196269881398, 0.06968070084440074, 0.49485100966900125, -0.7584510672584762, -2.863793870160828, 0.11259022290447353, -25.862001394189427, 0.9510671581130217, 5.254462897243048, 0.5939293503761292, -1.0677368640899658, -2.2278871536254883, -1.5906258821487427, 1.6493440866470337, 2.6757736206054688
0.39807875675626186, 0.068456739209963, 0.4939974236425405, -0.7597666417174276, -2.872457645817361, 0.12920187252403526, -26.23918052424085, 1.259786438124207, 5.055806508408116, 0.5934463143348694, -1.069734811782837, -2.227874755859375, -1.5906506776809692, 1.6350157260894775, 2.6758341789245605
0.3997102392055093, 0.06705103183509335, 0.493084301693144, -0.7611997230884227, -2.8818429466803503, 0.14731521426754696, -25.37904976857228, 1.8747958536635208, 5.4191559699855585, 0.5927114486694336, -1.071955680847168, -2.2278666496276855, -1.5905581712722778, 1.619372844696045, 2.67574143409729
0.40140330278508846, 0.06556575708725543, 0.4921059282658494, -0.762789684529661, -2.89144101500653, 0.16675734939235518, -25.969668518758834, 2.9969136250929385, 6.200569897069925, 0.5920689105987549, -1.0740466117858887, -2.227898597717285, -1.5905705690383911, 1.604982614517212, 2.6757900714874268
0.4032614434452472, 0.06395632201019134, 0.4911792533082631, -0.7643867351296011, -2.9018365978700875, 0.18737235888636342, -26.599134856559104, 3.3742355588438784, 5.974725308368946, 0.5911623239517212, -1.076491355895996, -2.2278387546539307, -1.5905147790908813, 1.5874414443969727, 2.6757497787475586
0.4051668881077406, 0.06226874788695696, 0.49017214945343046, -0.7660910357593695, -2.912097122973872, 0.208727740057264, -27.521995616122723, 4.3818088995927615, 7.0075658193336405, 0.5902045965194702, -1.0791114568710327, -2.227834701538086, -1.5903421640396118, 1.5694901943206787, 2.6757616996765137
0.40694542101165043, 0.0606997452392818, 0.48932577140440425, -0.7676745437958118, -2.9215521208019677, 0.22847863787454134, -26.73764096165357, 5.802588112367275, 7.156726289824189, 0.5890864729881287, -1.0818160772323608, -2.227862596511841, -1.5901418924331665, 1.550536036491394, 2.6757616996765137
0.40902701792543356, 0.05893732945414918, 0.48829549211020995, -0.7693623093443462, -2.931888227667565, 0.2513737294002307, -26.850433083007914, 6.94411005222092, 6.461778674471834, 0.5879243016242981, -1.0848042964935303, -2.2278425693511963, -1.5899745225906372, 1.531616449356079, 2.675769567489624
0.41118037877284, 0.05708910860862075, 0.48729748722413146, -0.7710183245202077, -2.9426120629994768, 0.27532702121136476, -26.91890202088575, 5.965788102418003, 8.058919963576042, 0.586826741695404, -1.0873724222183228, -2.227834463119507, -1.5897537469863892, 1.5142109394073486, 2.675785779953003
0.4133773715940352, 0.0551867150911131, 0.4862786987055749, -0.7726749530833905, -2.9530703410996706, 0.2996196117719264, -25.867867620184285, 7.628750319091749, 8.381795969196293, 0.5855017304420471, -1.090571641921997, -2.2278831005096436, -1.5894981622695923, 1.4945849180221558, 2.67574143409729
0.4155761007868846, 0.05330945478184032, 0.4852800260573643, -0.7743775801305139, -2.963002716000037, 0.32361555498313327, -27.198280544660133, 8.14797903851989, 9.126019977081754, 0.5841070413589478, -1.093809962272644, -2.227874755859375, -1.5891906023025513, 1.474977731704712, 2.6757657527923584
0.41758859754324745, 0.051674877251028095, 0.4844431642830589, -0.7757044630188742, -2.9719222472851885, 0.34518087190818064, -26.33418129293158, 9.23162075614748, 9.158690653768963, 0.5826827883720398, -1.0971450805664062, -2.2278025150299072, -1.588706612586975, 1.4551960229873657, 2.6758182048797607
0.41987532694915325, 0.04983164806295047, 0.48350416297883736, -0.7773196740784569, -2.981557609865103, 0.36883661920172844, -25.869277964340597, 10.558864528955734, 10.645964401679189, 0.5810976624488831, -1.100530743598938, -2.2278025150299072, -1.587865948677063, 1.4360650777816772, 2.675769805908203
0.42227120388300615, 0.0481004915597998, 0.4826106445801979, -0.7790035855168999, -2.991333224187108, 0.391926457360398, -25.844782871907803, 10.25355923809302, 12.561325074481811, 0.5797561407089233, -1.1036865711212158, -2.22784686088562, -1.5865942239761353, 1.4194129705429077, 2.6758060455322266
0.4247030675625163, 0.04646059385903409, 0.4816669517792185, -0.7808729400923323, -3.000487182772645, 0.4140159325124874, -24.68432408535022, 11.746624384355208, 12.723902775153228, 0.5781112909317017, -1.1073447465896606, -2.2278263568878174, -1.584621548652649, 1.4012670516967773, 2.675797939300537
0.42718103890816317, 0.04489513917178879, 0.480817551173282, -0.7829272852776772, -3.0094263876140768, 0.4347980374796588, -24.785465495956785, 10.821696117928102, 13.472378427382534, 0.57635498046875, -1.1111366748809814, -2.2278664112091064, -1.5821930170059204, 1.3836216926574707, 2.6758058071136475
0.42939402845365227, 0.04360724225715826, 0.48001410003016043, 0.780668658294681, 3.000837533323922, -0.45007378880888005, -22.965190612195734, 9.603048306272097, 13.294728818963625, 0.5745261907577515, -1.1151418685913086, -2.227834463119507, -1.579184651374817, 1.3668116331100464, 2.675841808319092
0.4319493318183988, 0.042241358663697694, 0.4790457892522813, 0.7773801025912762, 2.9879249524972655, -0.4657456164345098, -23.445507972163934, 10.01741786466768, 14.073740745457975, 0.572614312171936, -1.119362235069275, -2.227874755859375, -1.5758363008499146, 1.350951075553894, 2.6757452487945557
0.4344943457824602, 0.040902087712324245, 0.4781505725693628, 0.774924851212669, 2.9753697585204772, -0.4801642385683282, -20.20959368735208, 11.21558409606112, 13.723576089901721, 0.5705252289772034, -1.1235857009887695, -2.227830648422241, -1.5722604990005493, 1.3359488248825073, 2.675826072692871
0.4370075217737728, 0.03969693120355974, 0.47718150901276823, 0.7725952858653055, 2.963644787890961, -0.49345966681035475, -21.554780526311248, 10.774661554462169, 14.223155773361405, 0.5687608122825623, -1.1273996829986572, -2.2278263568878174, -1.5688315629959106, 1.3236232995986938, 2.6757898330688477
0.43947426472325796, 0.038632149556915865, 0.47611329441797684, 0.7706144102809515, 2.9529357255978317, -0.5060315950215403, -20.31249875008334, 11.408243160978788, 14.085448962375882, 0.566676676273346, -1.1318674087524414, -2.2278542518615723, -1.5651201009750366, 1.3106930255889893, 2.675797939300537
0.44161933691344657, 0.037717152183999826, 0.4751584005988956, 0.7692881570281083, 2.944017694659809, -0.5165565560731781, -19.62130393253966, 9.980426732892123, 13.85164720477337, 0.564628541469574, -1.1364634037017822, -2.227874755859375, -1.561370849609375, 1.2984318733215332, 2.675801992416382
0.44399545341687396, 0.03680583857041371, 0.47402412636671126, 0.7681837941619559, 2.935001632368253, -0.5273049323510414, -20.865871329044822, 10.966857903857143, 14.895281115446856, 0.5625132322311401, -1.1411261558532715, -2.2278428077697754, -1.5575934648513794, 1.2876298427581787, 2.6757657527923584
0.44633615510061514, 0.03598159973808487, 0.47279027784326555, 0.7673021163002754, 2.9266535605401156, -0.5376268289014245, -20.964389593931678, 10.493768209406777, 15.290473236461718, 0.5606642365455627, -1.1453824043273926, -2.2278025150299072, -1.5543239116668701, 1.2787954807281494, 2.675785779953003
0.4486894704821111, 0.035235539866662086, 0.4714493550270155, 0.7666466209618046, 2.9189500876564485, -0.5474393377523392, -21.013560909694686, 10.570808072398464, 16.49145449400403, 0.558556318283081, -1.1503894329071045, -2.227842092514038, -1.550486445426941, 1.269209861755371, 2.6757898330688477
0.4509705729376178, 0.03459664011271598, 0.4700435455507565, 0.7665308578644471, 2.912206813667281, -0.5563587636125639, -22.02527448975791, 12.066100938236282, 17.705125028661364, 0.5565120577812195, -1.1554205417633057, -2.227862596511841, -1.5466289520263672, 1.2609175443649292, 2.675801992416382
0.4529303126398249, 0.034142333531123316, 0.46874638728629325, 0.7665917966313096, 2.907093372742736, -0.5634882161097168, -21.947828361499397, 12.85506045183779, 17.920577003946423, 0.5544565320014954, -1.1605256795883179, -2.227895498275757, -1.5428357124328613, 1.2535825967788696, 2.675801992416382
0.45516697786809607, 0.03374189584263267, 0.4672009747148838, 0.7667876765305911, 2.9019928951296516, -0.571144060145979, -21.61868824692088, 13.444730542408397, 17.388614650757123, 0.5524762868881226, -1.1658815145492554, -2.227834701538086, -1.5390584468841553, 1.2470940351486206, 2.675773859024048
0.4576016950027137, 0.03337658282827539, 0.46526448206710813, 0.7675725280892226, 2.897422216012287, -0.5790989590245436, -21.84771558377801, 13.150606457078094, 18.559149082135573, 0.5504883527755737, -1.1713670492172241, -2.2277984619140625, -1.5353211164474487, 1.241614818572998, 2.675797939300537
0.459454346041671, 0.03321799013497689, 0.46362578482727795, 0.7684970346329658, 2.8949587805614745, -0.584613899110699, -22.5782148417643, 11.975883214169508, 19.080348295170825, 0.5487108826637268, -1.1763756275177002, -2.227858543395996, -1.5321595668792725, 1.2378695011138916, 2.6757497787475586
0.46155782654898847, 0.03311793507086728, 0.4617002013571674, 0.7700615182064489, 2.893227590745349, -0.590167190453089, -23.94535549727126, 13.358102671553397, 18.031983451351962, 0.5466545820236206, -1.1822608709335327, -2.227810859680176, -1.5286344289779663, 1.2347407341003418, 2.675797939300537
0.4635649532058841, 0.03306572055923878, 0.45962696629667293, 0.7722768246750882, 2.8924621211068042, -0.5948087632038291, -26.028996550494334, 15.605525021009473, 20.07122987293428, 0.5444666147232056, -1.1881663799285889, -2.2278664112091064, -1.5251655578613281, 1.2328300476074219, 2.6757776737213135
0.465610008887581, 0.033107260850565146, 0.45740988097783686, 0.775166754347899, 2.8924491754843973, -0.5983890562893098, -25.381931789133755, 14.160044621955288, 19.583123188916748, 0.5423396229743958, -1.1943374872207642, -2.227814197540283, -1.5211710929870605, 1.2319684028625488, 2.675785779953003
0.466682658071729, 0.0331954653079665, 0.45628866371177357, 0.7766988717775476, 2.8927541480097996, -0.5996204974743221, -25.9378976671969, 13.462323487152624, 18.18271226436209, 0.5411409735679626, -1.1975202560424805, -2.22782301902771, -1.5189768075942993, 1.2319650650024414, 2.6758060455322266
0.4688560856494572, 0.03332411862919978, 0.4540365205992094, 0.7802916505840011, 2.8929638482627373, -0.6013441740294122, -24.988691369491395, 13.71102737976367, 17.808634661687115, 0.5387062430381775, -1.2040352821350098, -2.2278149127960205, -1.5138429403305054, 1.2321484088897705, 2.6757497787475586
0.4725331433356294, 0.03366900941159641, 0.45067300545406175, 0.7859273097627469, 2.8922118255368856, -0.6019562870921762, -24.404880987658803, 10.84228794158211, 18.161278657195854, 0.5350174903869629, -1.2141486406326294, -2.227810859680176, -1.5040695667266846, 1.232116460800171, 2.675745725631714
0.4750871534460778, 0.03388227789954005, 0.44843082807856904, 0.7899715880847797, 2.891276129362325, -0.6012827686075423, -25.526146269164375, 12.350333227263913, 18.422522855010968, 0.532384991645813, -1.2210183143615723, -2.2278428077697754, -1.49653160572052, 1.2321524620056152, 2.6757497787475586
0.47780539822400164, 0.03410044924867991, 0.44621463098424213, 0.7943344108098461, 2.8898092286682275, -0.599801113309954, -25.95561048420848, 10.02214250811814, 19.3328003748979, 0.5296319723129272, -1.228104591369629, -2.2278263568878174, -1.4881227016448975, 1.2320919036865234, 2.6757657527923584
0.48034250606928086, 0.03432557025617352, 0.44428653871774265, 0.7983677515616264, 2.8880605052457096, -0.5973171855625796, -26.177777319774684, 9.872347453749352, 20.595756698776434, 0.5268083810806274, -1.2353355884552002, -2.227806568145752, -1.4783568382263184, 1.232083797454834, 2.6757616996765137
0.483756669731156, 0.034613045007846184, 0.4417576412750827, 0.8039450753550932, 2.8853030840084095, -0.5929125045223507, -25.758111251235345, 10.0062453929004, 19.92926103556264, 0.523851215839386, -1.2428219318389893, -2.2278223037719727, -1.4673186540603638, 1.2321364879608154, 2.6757616996765137
0.4865184666566979, 0.03484789266109022, 0.439833871725519, 0.8083660094439123, 2.8829314715710503, -0.5892706571874766, -25.294653192740476, 9.842623011155563, 18.345909265196095, 0.5211426019668579, -1.2494405508041382, -2.227782726287842, -1.4576131105422974, 1.2321079969406128, 2.6757659912109375
0.48971666973635575, 0.034989524791672166, 0.4375568940312934, 0.8139439194241345, 2.8797669953262774, -0.5841490037596038, -23.03484036544764, 10.517248709087005, 19.99552213125856, 0.5179382562637329, -1.2569438219070435, -2.2278707027435303, -1.4454410076141357, 1.2321648597717285, 2.675729751586914
0.4930269075519372, 0.03515839344384076, 0.43532193158035537, 0.8194495082207927, 2.8764067655076437, -0.5787377042641249, -21.20651930214909, 10.96124153474241, 17.922296058909144, 0.5145495533943176, -1.264703631401062, -2.2278189659118652, -1.4327932596206665, 1.2321406602859497, 2.6756858825683594
0.49597444510854366, 0.03523248312933654, 0.4333654246520901, 0.8246107943689025, 2.873258803669344, -0.5738246755337045, -22.208297826996937, 12.207196367788537, 17.305065474553015, 0.5110927820205688, -1.272570252418518, -2.2277185916900635, -1.4200361967086792, 1.232128381729126, 2.67571759223938
0.4994386272762472, 0.035273803901840706, 0.4310406409640497, 0.8307421325529591, 2.869254423471408, -0.5673332181661521, -21.506687160162777, 9.861026115403556, 17.16971765075678, 0.5074482560157776, -1.2805771827697754, -2.227766275405884, -1.4061483144760132, 1.2321521043777466, 2.6756978034973145
0.5028763204854712, 0.03528627741708933, 0.42873332189341945, 0.8366394186116993, 2.865281942924249, -0.5608445609938864, -23.966805156110922, 10.96392515389992, 17.29384265493925, 0.503829300403595, -1.2885323762893677, -2.227782726287842, -1.392319679260254, 1.2321841716766357, 2.6755499839782715
0.5064224880650845, 0.03520026612942702, 0.4265232463750906, 0.8431766914258283, 2.860586957456652, -0.5532828020807384, -22.15539013995989, 6.546618546373965, 14.025192249945334, 0.5004029870033264, -1.295548677444458, -2.2277228832244873, -1.3794788122177124, 1.2321960926055908, 2.6755459308624268
0.5100158095731506, 0.0350792088978147, 0.4242759137594149, 0.8497195260539446, 2.8558736725215628, -0.5459010025659546, -22.341867578225248, 9.624380328723436, 14.799599152876663, 0.4965502619743347, -1.3036553859710693, -2.2276718616485596, -1.364793300628662, 1.232224702835083, 2.6755378246307373
0.5132282921012268, 0.03498164159289925, 0.4223088947729342, 0.855596246524467, 2.851338112256583, -0.5385512373796826, -20.96211452402765, 8.640397803458749, 15.274500038444474, 0.4930652678012848, -1.3107677698135376, -2.227591037750244, -1.3511877059936523, 1.232296347618103, 2.6755099296569824
0.516859618641808, 0.034798999660821985, 0.4200887462747718, 0.8622692516282116, 2.8460311178595044, -0.5301390724937336, -21.371265335922836, 9.025082423507442, 14.471450007741497, 0.4886452257633209, -1.3198258876800537, -2.227567195892334, -1.3334684371948242, 1.2323200702667236, 2.6755378246307373
0.5205483565359477, 0.03462294190842993, 0.4180216320712683, 0.8690130671812237, 2.8402142729495874, -0.5206034058684819, -20.083070733496196, 7.885742544451737, 13.631203128993215, 0.4851604104042053, -1.3268120288848877, -2.227487325668335, -1.3191924095153809, 1.232432246208191, 2.675525665283203
0.5242415485693599, 0.03435773037933549, 0.4159816427240737, 0.8758886032920857, 2.83425009930945, -0.5113301332269353, -20.956588363724897, 8.983303597877939, 14.327481645717267, 0.48109170794487, -1.3347656726837158, -2.2273030281066895, -1.3028141260147095, 1.2325079441070557, 2.675557851791382
0.5274682535511382, 0.03403965895217736, 0.4141639666925895, 0.8819125500290099, 2.828868036301269, -0.5030330195494843, -20.588119215824026, 8.101665880897924, 14.77570999253626, 0.4769672751426697, -1.342739224433899, -2.227159023284912, -1.2862861156463623, 1.2325235605239868, 2.6754939556121826
0.5311200146017182, 0.033564806564658926, 0.412178423754891, 0.8889182337192147, 2.8225750453860194, -0.49358176713994517, -21.081923620498387, 10.053012740071242, 15.068323577974793, 0.47268402576446533, -1.3505780696868896, -2.2269558906555176, -1.2698864936828613, 1.2325433492660522, 2.6754379272460938
0.5347921607448481, 0.03308211086201222, 0.4102213993430387, 0.8959764809909666, 2.816032764849102, -0.48380514610641256, -20.254346511790832, 8.12406932661698, 13.974248704356588, 0.4684211015701294, -1.3584303855895996, -2.226719856262207, -1.2532099485397339, 1.2325994968414307, 2.675450086593628
0.5383847410763603, 0.032433783338009184, 0.40820142097378953, 0.9029657596842698, 2.809813735324084, -0.47496849796020996, -19.84483326383735, 9.800209163891585, 14.659659361001292, 0.4640015959739685, -1.3662872314453125, -2.226435899734497, -1.2372832298278809, 1.232607364654541, 2.675337553024292
0.541930483053666, 0.03181236357428089, 0.4061963136123002, 0.9097568616941382, 2.803459387567974, -0.46602930583896546, -19.565689509755362, 7.34651828115109, 14.479858025260166, 0.4602740705013275, -1.373158574104309, -2.2261955738067627, -1.2232352495193481, 1.2326029539108276, 2.6753344535827637
0.5453477802802889, 0.031073183267052447, 0.40410361066526646, 0.9166582435062367, 2.7974647607578036, -0.4578899648952932, -20.344781017160923, 10.194265681638562, 13.798024145172079, 0.45588627457618713, -1.3808526992797852, -2.225980758666992, -1.207962155342102, 1.2326029539108276, 2.675246000289917
0.5487472304582529, 0.03026157272627142, 0.4020262706422687, 0.9233814403621751, 2.791392981083944, -0.4499888566902267, -17.576339023357917, 8.281864552149317, 12.930553637302602, 0.45154353976249695, -1.3885071277618408, -2.2257654666900635, -1.1927798986434937, 1.2327038049697876, 2.675166130065918
0.5520269726322531, 0.02939788904562289, 0.39984244199413566, 0.9300758934322547, 2.7857704519023168, -0.44271610623245977, -20.337706687922676, 11.100956879747088, 12.886155808510765, 0.4473053216934204, -1.3961230516433716, -2.225484848022461, -1.1781643629074097, 1.2326470613479614, 2.6751861572265625
0.5548197409651855, 0.028545321367802738, 0.3978786242017548, 0.9360017362243369, 2.780925919080506, -0.43689065908072894, -20.042459483389013, 10.194465953577629, 14.155977684546537, 0.4428975284099579, -1.4037855863571167, -2.225358009338379, -1.1641184091567993, 1.2327070236206055, 2.6751620769500732
0.5580312685659201, 0.027607393482580858, 0.3957195381626828, 0.9425319906718773, 2.775287384660355, -0.43008012976995447, -22.709896334907864, 11.893931168067086, 12.435064233326287, 0.4391213059425354, -1.4103444814682007, -2.2251179218292236, -1.1516979932785034, 1.2327308654785156, 2.675126075744629
0.5606861199806349, 0.02665792730091187, 0.39376740724325743, 0.9482438804151742, 2.7707512152311056, -0.42494756319641785, -22.498635928539482, 13.009941880265622, 12.998438504532421, 0.43480587005615234, -1.417851448059082, -2.224857807159424, -1.1385724544525146, 1.2326951026916504, 2.6750781536102295
0.5638209125729593, 0.025703676996314137, 0.3917116876512655, 0.9545397920268335, 2.765101575238917, -0.4182149483249194, -23.41433495592403, 10.615908014658213, 12.807124168569217, 0.4306425452232361, -1.4252424240112305, -2.22444224357605, -1.1248611211776733, 1.2326991558074951, 2.675042152404785
0.5669271957820974, 0.024732814055068532, 0.389630260417541, 0.96070917412904, 2.7598530316721868, -0.41229775503286864, -23.975164220476966, 12.712520018649206, 11.828399400395714, 0.42651933431625366, -1.4326963424682617, -2.2238352298736572, -1.1119893789291382, 1.2326951026916504, 2.6750102043151855
0.5701136619454827, 0.023751314286149988, 0.38781061520689225, 0.9669510114639516, 2.7540560198262636, -0.40566161890873964, -23.15254046168995, 10.61040322086273, 12.421043510343283, 0.4223681390285492, -1.4399925470352173, -2.222968339920044, -1.0988142490386963, 1.2326552867889404, 2.6750102043151855
0.5721439301987505, 0.02310781821117279, 0.38673285810209396, 0.9709265768395919, 2.7504138456180662, -0.4013992473083801, -22.987393563887817, 12.130241412950621, 12.905734000387573, 0.4202183485031128, -1.443622350692749, -2.2224366664886475, -1.0922526121139526, 1.2326593399047852, 2.6749818325042725
0.5754769481391373, 0.02211523082091034, 0.38515467911340784, 0.9772267798393688, 2.7447074829849587, -0.39511852306585454, -22.142977301798872, 10.964672224224415, 12.410616311081053, 0.4159621000289917, -1.4510172605514526, -2.2209055423736572, -1.0798370838165283, 1.2327114343643188, 2.674990177154541
0.5807776204114055, 0.020614502350712556, 0.383329210797855, 0.9868158765096248, 2.735396646430534, -0.3846449700502533, -21.900906340164163, 10.740889593582823, 12.527256267127306, 0.4094902575016022, -1.4620225429534912, -2.2178421020507812, -1.0613752603530884, 1.2326831817626953, 2.6750104427337646
0.5842970267809336, 0.019568759240780158, 0.38227691084986104, 0.9930776156974798, 2.729588249998143, -0.37852325658317953, -22.94077855083299, 10.900809576972943, 13.533224424049191, 0.40522000193595886, -1.4693299531936646, -2.2153754234313965, -1.050172209739685, 1.2326912879943848, 2.6749942302703857
0.5874468823138985, 0.01861810212293096, 0.3815135467278088, 0.9986510802103208, 2.7243561475967195, -0.3730370338507802, -21.005979599475204, 9.037026758494559, 14.508452533182457, 0.40085160732269287, -1.476393699645996, -2.212440252304077, -1.039290189743042, 1.2326912879943848, 2.6749582290649414
0.5911354837932704, 0.017595805922330496, 0.3808764317608237, 1.0048860198153133, 2.7182423589950977, -0.36652169917737254, -21.59093217431935, 10.4996205117988, 12.37551378510195, 0.396545946598053, -1.483427882194519, -2.209172248840332, -1.028714656829834, 1.232718825340271, 2.674950122833252
0.594816169527733, 0.016530413645007735, 0.3801537150250084, 1.0110296705214687, 2.71276813720805, -0.3613145467046287, -21.29213414539776, 9.060075142739985, 14.269262926578977, 0.39274442195892334, -1.4897429943084717, -2.2061572074890137, -1.0205285549163818, 1.232715129852295, 2.674938201904297
0.5985549057068358, 0.015458359033841691, 0.37956089549970834, 1.0171942709198283, 2.7074443686475695, -0.356257968426486, -21.152488063149878, 9.916067155258812, 14.125796006431521, 0.3884384036064148, -1.4968425035476685, -2.2022695541381836, -1.0117422342300415, 1.2326910495758057, 2.674933910369873
0.6022963603169443, 0.014263586295201587, 0.3790125049485461, 1.0235162279252257, 2.7021342831640416, -0.35160713522513787, -19.1697608698769, 9.9063981044101, 15.00739439119889, 0.3840259313583374, -1.5039339065551758, -2.1982576847076416, -1.0033540725708008, 1.2326991558074951, 2.67499041557312
0.6055730366092478, 0.01316203192580545, 0.378605437681361, 1.0290242210567877, 2.697792026335487, -0.3480472973617765, -18.648211871905147, 10.49633594718912, 13.605120625249866, 0.3795083165168762, -1.5109455585479736, -2.193966865539551, -0.9959411025047302, 1.2326910495758057, 2.674910068511963
0.6092744829300809, 0.011915310653479491, 0.3781372493738445, 1.0352422821154346, 2.6934129974493035, -0.3449686252544073, -18.96912322312497, 12.363990847971184, 15.08924525561292, 0.3750901222229004, -1.517907738685608, -2.1894123554229736, -0.9898020029067993, 1.2326749563217163, 2.6749422550201416
0.6129454218346089, 0.010617068582800239, 0.37754432643083224, 1.0414119873773828, 2.6897366674204877, -0.3428741670170778, -20.005988446727976, 10.035144879585575, 13.699237367111067, 0.37064582109451294, -1.5249742269515991, -2.184709072113037, -0.9846911430358887, 1.2327311038970947, 2.6749181747436523
0.6165591178944757, 0.009313572281200194, 0.37705914050431144, 1.0474795143817428, 2.6865259055015374, -0.341692909849548, -21.309804048262368, 9.575584575740557, 14.318986686828705, 0.3668765127658844, -1.5309442281723022, -2.1803383827209473, -0.9813322424888611, 1.2326831817626953, 2.6749422550201416
0.6201346448706051, 0.008040787628821454, 0.3765157136520799, 1.053286341103643, 2.684138207894017, -0.34163836048859136, -22.17792084528638, 11.573226174330898, 15.076611082680316, 0.362537682056427, -1.5378302335739136, -2.175135612487793, -0.9786052703857422, 1.2327110767364502, 2.6749582290649414
0.623632096940558, 0.006625196286264942, 0.3759284469650258, 1.059357619112223, 2.6825882723502392, -0.34304194694213475, -23.239461271577188, 11.695570091500324, 13.281757165375982, 0.3582770824432373, -1.5446205139160156, -2.169677495956421, -0.9775901436805725, 1.232715129852295, 2.6749422550201416
0.6266868944880561, 0.005359477831869484, 0.37553055291298953, 1.0646269028888486, 2.6815941831640764, -0.34481410287964787, -23.190798475088183, 12.49335913619975, 14.342533957360981, 0.3538675308227539, -1.5513663291931152, -2.1638941764831543, -0.9779670238494873, 1.2326912879943848, 2.6749463081359863
0.6302978568823917, 0.0038763041007004173, 0.3750198075712688, 1.0707577383640305, 2.6805378322413658, -0.3470210223358517, -21.73670622188658, 11.912935363183598, 15.272643903941393, 0.3499657213687897, -1.5573298931121826, -2.1586077213287354, -0.9784027934074402, 1.2327114343643188, 2.674905776977539
0.633564054214032, 0.002501395287543201, 0.3748531281924198, 1.0763052622569957, 2.679048608961087, -0.3482849145944074, -22.033561845679138, 12.147815861759609, 14.882209640186462, 0.34537890553474426, -1.5641711950302124, -2.1522464752197266, -0.9786467552185059, 1.2326712608337402, 2.6749300956726074
0.6379305717386099, 0.0007503290066365118, 0.3747811519680997, 1.0834498573424227, 2.676804610828146, -0.3494057555470637, -21.95033929122528, 12.182990914711732, 14.63139048468536, 0.34065431356430054, -1.5709706544876099, -2.145599365234375, -0.9785865545272827, 1.2326831817626953, 2.6749422550201416
0.6419251381657571, -0.0008319919963908351, 0.37481087825698367, 1.0898730951795725, 2.6746302021354538, -0.3501349919901369, -21.494202821606386, 12.037317831431356, 15.319412560473001, 0.33604732155799866, -1.5777350664138794, -2.138641119003296, -0.9785906672477722, 1.232675313949585, 2.674938201904297
0.6454408978881049, -0.0022046840777369334, 0.3748949134987916, 1.095457269411002, 2.6726563619495196, -0.3506307734447723, -20.394096791818615, 11.04701046133221, 15.701973516831561, 0.3314920663833618, -1.5846267938613892, -2.131645679473877, -0.9786269068717957, 1.2326676845550537, 2.6749541759490967
0.6495988041583556, -0.0038241066943601465, 0.37504756751347984, 1.1019315000866496, 2.6702933764876904, -0.35109780646871386, -20.413055075032087, 11.56615796960296, 15.622342903385517, 0.3267878592014313, -1.5915714502334595, -2.124312400817871, -0.9786705374717712, 1.232695460319519, 2.674954414367676
0.6538007728972529, -0.005468596859708359, 0.3753173474247353, 1.1083736035880358, 2.66770669670523, -0.3513183389378704, -19.91826148861177, 12.943700639391237, 16.28202900855352, 0.3227234184741974, -1.5976310968399048, -2.1177380084991455, -0.9787188172340393, 1.2326831817626953, 2.674910068511963
0.6580360647635486, -0.007154159514642558, 0.3756423086596821, 1.1147331985151625, 2.6651570493177075, -0.3514275143577057, -17.83925219448704, 13.501159939806383, 15.075510499562505, 0.317920446395874, -1.6044069528579712, -2.110145330429077, -0.978706955909729, 1.2327110767364502, 2.674894332885742
0.6623342841732698, -0.008895368663505689, 0.3759672066459072, 1.1208781549416156, 2.6625607166390854, -0.3515861535731683, -18.31850412914803, 12.335511760724547, 15.700424918942225, 0.3131810128688812, -1.6113916635513306, -2.1024656295776367, -0.978691041469574, 1.2327072620391846, 2.674574136734009
0.6661756504114438, -0.010428030998507455, 0.3760958086412648, 1.1262771196085584, 2.6604667983416626, -0.35189080758138724, -18.346801922473965, 12.443674395043137, 16.254062652931076, 0.3084065914154053, -1.6184841394424438, -2.0946786403656006, -0.9788344502449036, 1.23272705078125, 2.6742939949035645
0.6704866464687437, -0.01216277302330316, 0.3762669917977814, 1.1324584597618372, 2.657972862226407, -0.35223113335605505, -18.743281788818656, 12.802760056782306, 16.35319949772305, 0.3037545084953308, -1.6255279779434204, -2.0869555473327637, -0.9789745807647705, 1.2327032089233398, 2.6741585731506348
0.6748011639475414, -0.013889455007532338, 0.3763110600388715, 1.1386022497902586, 2.6555587917853316, -0.3526701407382789, -19.14323263782236, 13.81216443463553, 17.164610087645286, 0.29917100071907043, -1.6326857805252075, -2.0792789459228516, -0.9790788888931274, 1.23268723487854, 2.6740665435791016
0.6790999145891317, -0.015690077876929345, 0.37631141104904064, 1.144901237961968, 2.6530870749029405, -0.35304791175644545, -18.778716405005316, 13.537720686631898, 16.465621039269504, 0.29513368010520935, -1.6389614343643188, -2.0725934505462646, -0.9791105389595032, 1.2327110767364502, 2.6740264892578125
0.6834194303794638, -0.017487685302519228, 0.3761964440277098, 1.1510099371896299, 2.6507171718498155, -0.3535513082983921, -18.197850680677774, 13.501319451666012, 18.171243128108223, 0.29057633876800537, -1.646196961402893, -2.06498122215271, -0.9791745543479919, 1.2326910495758057, 2.6739587783813477
0.6877542948917267, -0.019265256509427578, 0.3758087759120689, 1.1569696722901832, 2.6486782672231692, -0.3544926832790405, -17.824409745517407, 13.74841912843041, 18.05366793797983, 0.28602734208106995, -1.6536880731582642, -2.0574216842651367, -0.9791746139526367, 1.2326991558074951, 2.6738429069519043
0.6914995368269906, -0.020813845765892937, 0.37543173743779357, 1.162112361075226, 2.646920058232363, -0.35525398857364426, -18.607435363922235, 14.64065343967204, 18.534546142838284, 0.28160691261291504, -1.6612430810928345, -2.0499308109283447, -0.9792506098747253, 1.2327032089233398, 2.6736791133880615
0.6957056483120416, -0.022667021627473027, 0.374815974596872, 1.167788858618498, 2.645158006142127, -0.35644603355805504, -19.06137049255008, 14.911405824496734, 17.72317330396962, 0.27716192603111267, -1.6687899827957153, -2.0426788330078125, -0.9792744517326355, 1.2326831817626953, 2.6733665466308594
0.6999108461206458, -0.024542634918599343, 0.3740916394294893, 1.1735012073908002, 2.6434139422287726, -0.3576701446048701, -20.203237645415108, 14.507287254335166, 18.078938885482962, 0.272736519575119, -1.6764203310012817, -2.0354700088500977, -0.9792307615280151, 1.232675313949585, 2.6730990409851074
0.7025061386465808, -0.025719006318969777, 0.3734877294551592, 1.1770817232703066, 2.6425221226503486, -0.3586964179155781, -20.05105301544403, 14.156419684305138, 18.453885104211693, 0.27056658267974854, -1.6802889108657837, -2.031933069229126, -0.9792863130569458, 1.232675313949585, 2.672983169555664
0.7067247663059654, -0.027487602373221915, 0.3724909075496797, 1.1826675190581106, 2.6410599783733097, -0.36013999817351294, -20.28199588284498, 15.60545928916879, 17.508808081554456, 0.2662576138973236, -1.6881591081619263, -2.0247743129730225, -0.9792584776878357, 1.2326712608337402, 2.6728272438049316
0.7109243297523065, -0.029363138368716134, 0.37133723785860356, 1.1884719884197075, 2.639573180110565, -0.36182960144242465, -19.544933246852228, 16.349059907111776, 17.173259676313602, 0.2615177035331726, -1.6971670389175415, -2.0168442726135254, -0.9792545437812805, 1.2327032089233398, 2.672755718231201
0.7151417617482048, -0.03126340999900597, 0.37012302158608756, 1.194263986018007, 2.6380904669649596, -0.363524506722685, -19.191604937104053, 16.02417937247746, 16.09773925169249, 0.2572416365146637, -1.7052260637283325, -2.0097453594207764, -0.9792101979255676, 1.2326836585998535, 2.6726951599121094
0.7194127430972358, -0.03316210653306184, 0.3687617823620632, 1.200056609708957, 2.6367510852368126, -0.3653830903405686, -19.220459429468036, 15.511017507642222, 16.972208076389133, 0.2535029649734497, -1.712408185005188, -2.0035147666931152, -0.9792625904083252, 1.232715129852295, 2.6726512908935547
0.723726893805711, -0.03506799686586931, 0.36744669500502136, 1.2058022297201207, 2.635294761687101, -0.36710914220405894, -19.185321273294676, 16.4371503931567, 17.64035925792568, 0.24930325150489807, -1.7207013368606567, -1.9961930513381958, -0.9792421460151672, 1.2326951026916504, 2.672619342803955
0.7280253848064324, -0.03690626966027559, 0.36610171272304015, 1.2112572703142275, 2.6339294171167897, -0.3687768301232098, -19.636457765206284, 16.511984787038692, 16.69536725422866, 0.24518989026546478, -1.728983998298645, -1.9888670444488525, -0.979206383228302, 1.2326791286468506, 2.672551393508911
0.7318745438789566, -0.03851693740116553, 0.3647845723643504, 1.21617876642598, 2.6328089019424006, -0.3702434811254062, -19.408431500070392, 16.359285782237727, 15.408345164588495, 0.2411445677280426, -1.7374402284622192, -1.9814883470535278, -0.9791983962059021, 1.2327072620391846, 2.6725072860717773
0.7363266234107338, -0.04025048420054521, 0.36338754995319705, 1.2214535035705647, 2.6314032158386738, -0.37174088018935486, -21.007830589159678, 15.508596344678557, 15.342091986825865, 0.23725982010364532, -1.7458926439285278, -1.9739094972610474, -0.979138195514679, 1.2326912879943848, 2.672459840774536
0.7409073067631506, -0.04196728113614024, 0.3620674009892053, 1.2266379904673543, 2.629893436718921, -0.3730908419905827, -19.57394883730483, 15.607581011501956, 14.94614021855312, 0.23392663896083832, -1.7533379793167114, -1.966995120048523, -0.9791706204414368, 1.232675313949585, 2.6723389625549316
0.7454945587399087, -0.043605508735886575, 0.36079829148853704, 1.2316919200218444, 2.62836950675806, -0.3742734793606437, -18.843235951059555, 14.43733618745431, 15.00682508345903, 0.23012115061283112, -1.761780858039856, -1.959072470664978, -0.9791825413703918, 1.2326953411102295, 2.6723430156707764
0.7501966819855953, -0.045299749630678225, 0.35960042362810263, 1.2367390748865756, 2.6266869339142094, -0.3751951260907187, -17.471821105377312, 12.773484277848958, 12.939936481899707, 0.22641827166080475, -1.7703644037246704, -1.9508291482925415, -0.9791628122329712, 1.232679009437561, 2.6723315715789795
0.7543209275126213, -0.0468001117200986, 0.35856776536970725, 1.2412028237356185, 2.625132082694981, -0.3758969007335541, -17.31984526995935, 12.557581453677361, 13.60536054052237, 0.22263559699058533, -1.7788621187210083, -1.9425514936447144, -0.9791865348815918, 1.2327032089233398, 2.672243595123291
0.7590610570344163, -0.048456988093961276, 0.35752143271923925, 1.2460375169109108, 2.623175905081299, -0.37652181984503424, -18.598376873403573, 12.24558904365728, 13.364124208684247, 0.21900242567062378, -1.7872329950332642, -1.934132695198059, -0.9791587591171265, 1.2326385974884033, 2.672175407409668
0.7637620883233369, -0.05018794452522495, 0.35657577338802515, 1.250985422494327, 2.6210858811867137, -0.37687539657236185, -18.292246435852782, 11.453243825543861, 12.624960883528045, 0.21531613171100616, -1.7954217195510864, -1.9256919622421265, -0.9791428446769714, 1.2326551675796509, 2.6721315383911133
0.7685449967847219, -0.05186290282261834, 0.3557576205891869, 1.2558316153827687, 2.6188766166496946, -0.3769413284395974, -18.007758594890408, 11.41687529198258, 11.882491500787193, 0.2122611403465271, -1.8025676012039185, -1.9180867671966553, -0.9791746139526367, 1.2327114343643188, 2.672063112258911
0.7733022667441426, -0.05351404860021015, 0.35488730647910777, 1.260442389964283, 2.616724790864503, -0.3770895185517172, -17.849807732700725, 11.321526105748383, 13.369901561732188, 0.20867449045181274, -1.81067955493927, -1.9094529151916504, -0.979206383228302, 1.2326831817626953, 2.672055721282959
0.7780444723304858, -0.055194173114663556, 0.3541601245774748, 1.2650551734948532, 2.6143403901806987, -0.3770273257944109, -17.30687125383188, 10.329005868888189, 13.949489428351763, 0.20514002442359924, -1.8185487985610962, -1.9007748365402222, -0.979222297668457, 1.2326226234436035, 2.6719915866851807
0.7821167049095009, -0.05669369699344401, 0.3535839141182135, 1.2690640301411493, 2.612178223067056, -0.37676933778011706, -16.50392345740502, 9.982779690393198, 12.852813087601842, 0.20169395208358765, -1.8264180421829224, -1.8921457529067993, -0.9791666865348816, 1.2326511144638062, 2.671931743621826
0.7867058403862187, -0.058541610640441166, 0.3527989704955707, 1.2737633199678493, 2.6098163628305406, -0.3766504427810545, -16.117969248822494, 9.961832884284458, 12.668189811991004, 0.1980992555618286, -1.8341728448867798, -1.8836673498153687, -0.9791547060012817, 1.2326836585998535, 2.6718273162841797
0.7912947632226671, -0.06033407766614785, 0.35219982310517545, 1.2783599130810248, 2.6072624398444026, -0.3762770677170669, -15.763473307273946, 10.071580447132447, 14.394164179212304, 0.19462116062641144, -1.8417192697525024, -1.8750736713409424, -0.979210376739502, 1.232695460319519, 2.6717913150787354
0.7957897209461109, -0.06216961409536126, 0.35147881877784837, 1.2829602401447597, 2.604769220428259, -0.37603746299877, -16.124223862381232, 9.6167113455062, 14.418349902468655, 0.19154900312423706, -1.848340630531311, -1.8677294254302979, -0.979210376739502, 1.2326226234436035, 2.6717636585235596
