JensOHI/Master_Thesis/record_trajectory/test.csv
pos_x, pos_y, pos_z, ori_x, ori_y, ori_z, f_x, f_y, f_z, q_base, q_shoulder, q_elbow, q_wrist1, q_wrist2, q_wrist3
0.6995025677347722, 0.1561775429013142, 0.26510173301500856, -0.9646958026218406, 2.971541595890626, -0.03514974578907366, 0.46754522538336935, 0.4551286092399419, 3.4997343415921147, -0.3113716244697571, -1.7466365098953247, -2.1086928844451904, -0.8000918030738831, 1.6588237285614014, 1.4091050624847412
0.6995014690726005, 0.1561887740353887, 0.26510531714598784, -0.9647438949542888, 2.97152422870192, -0.035199832186390126, 0.7337002361191708, 0.022159599917464037, 3.2974375762932784, -0.3113716244697571, -1.7466365098953247, -2.1086928844451904, -0.8000918030738831, 1.6588237285614014, 1.4091050624847412
0.6995032948426686, 0.15621492549136604, 0.26509127428860546, -0.9648429154961994, 2.971487906367624, -0.03523064616520645, 0.19392000166673729, -0.021122137730861995, 3.1294885365543177, 0.46958398818969727, -1.8324834108352661, -2.0671544075012207, -0.7991884350776672, 1.5423047542572021, 1.409125804901123
0.6995186208320698, 0.15618930417819432, 0.2650960695084671, -0.9647069787143642, 2.9714970415865274, -0.03517172991422177, 0.2621260761013667, -0.1582856477576224, 3.42595681103495, 0.46953582763671875, -1.8324915170669556, -2.067142963409424, -0.7991523742675781, 1.5423367023468018, 1.4091618061065674
0.6995026380593361, 0.1561950822753006, 0.2651577185703007, -0.964695243174073, 2.9714434583385, -0.03522012979913155, 0.3257782104553458, -0.35731607103318386, 3.4153789657107994, 0.46951591968536377, -1.8324557542800903, -2.067178249359131, -0.7991605401039124, 1.5423328876495361, 1.4091417789459229
0.6994886856663156, 0.15618405688367903, 0.26510510648382835, -0.9647398617344735, 2.9715323234736637, -0.03509942986999967, 0.2349640708603838, -0.0645924538126212, 3.636895844637359, 0.4695397615432739, -1.8324395418167114, -2.0671823024749756, -0.7992002964019775, 1.5423892736434937, 1.409153699874878
0.6994955147704216, 0.15620489059050727, 0.26509390992304893, -0.9647964247936247, 2.9715042901238977, -0.035155016125776824, 0.5798552627397439, -0.1606325726235498, 3.3426892580536447, 0.4695602059364319, -1.832459568977356, -2.0671749114990234, -0.799140453338623, 1.542357325553894, 1.4091417789459229
0.6995126102510144, 0.15616203871952475, 0.26516511634064666, -0.9646097365844791, 2.9714248017790155, -0.035140176401179224, 0.13282090621350393, -0.29643325813882515, 3.2940265340978643, 0.46952390670776367, -1.8324471712112427, -2.0671348571777344, -0.799192488193512, 1.5423212051391602, 1.4091131687164307
0.6994923452827522, 0.15617598772126243, 0.2650825536757724, -0.9648032365985031, 2.971524373959263, -0.03522418483879126, 0.4307133520625238, 0.03366219974396453, 3.2326669139423285, 0.46955233812332153, -1.8324958086013794, -2.0671141147613525, -0.7992003560066223, 1.5423047542572021, 1.4091377258300781
0.6994977466342486, 0.1562054687045188, 0.26510169751534196, -0.9648014517684622, 2.971484475973465, -0.035232503670903755, 0.3728276660146677, 0.2958366962002043, 3.6165419634905023, 0.469515860080719, -1.832515835762024, -2.0671544075012207, -0.7992006540298462, 1.5423412322998047, 1.4091132879257202
0.6994736814331086, 0.1561969168024172, 0.2650777910741152, -0.9648466465761846, 2.9715543094444965, -0.03520888303213827, 0.5273136726663725, -0.622465912674803, 3.3080935496857813, 0.4694960415363312, -1.8324834108352661, -2.0671749114990234, -0.7992085218429565, 1.5423046350479126, 1.4091458320617676
0.6995018675084237, 0.1562194770741183, 0.26512630896670486, -0.9648677905713269, 2.971442319716224, -0.03515796789089715, 0.5053402627488839, -0.1637941877414831, 3.510145070953611, 0.46958404779434204, -1.8324395418167114, -2.067142963409424, -0.7992003560066223, 1.5423449277877808, 1.4091014862060547
0.6995112272894882, 0.15620811021542447, 0.26511105869831436, -0.9648456597662511, 2.971453729473742, -0.035165971848356015, 0.041324736797690484, 0.04971420843226514, 3.3489562089211833, 0.4695601463317871, -1.832476258277893, -2.0671544075012207, -0.7992163300514221, 1.5422886610031128, 1.4091298580169678
0.6995151690251296, 0.15617471090872764, 0.2651070917201278, -0.9647882802725336, 2.971479383206854, -0.03518106219740268, 0.35675257768618285, -0.2989392715248729, 3.5912440650366833, 0.4695199728012085, -1.8324681520462036, -2.0671463012695312, -0.7991805672645569, 1.542332649230957, 1.4090931415557861
0.6995043467735579, 0.15616238998190668, 0.2651162649943891, -0.9647147557656007, 2.971500912384127, -0.03530114202689427, 0.3437269004733177, 0.008904381668377925, 3.6810386948594958, 0.4695602059364319, -1.8324557542800903, -2.0671749114990234, -0.7992245554924011, 1.5422968864440918, 1.4091050624847412
0.6994989837136169, 0.1561746093602269, 0.2650993632809807, -0.9647378258051349, 2.971493131836231, -0.03519242881645934, 0.23865376451646633, -0.20835826573603541, 3.119220572085761, 0.46953171491622925, -1.8324557542800903, -2.0671823024749756, -0.7991564273834229, 1.5423247814178467, 1.4091382026672363
0.6995081798567354, 0.15617624894778778, 0.26506876699704846, -0.9647131072511197, 2.9715920387690082, -0.03521402851991347, 0.16093113262705927, -0.08812618014309795, 3.2599102023622524, 0.4695403277873993, -1.8324476480484009, -2.0671627521514893, -0.7991322875022888, 1.5423489809036255, 1.4091501235961914
0.6995083604644438, 0.1561721996957815, 0.2651021524720299, -0.9647817329547658, 2.9714989643497574, -0.03521062723501304, -0.208264205970279, -0.5294758255098191, 3.4093720204752054, 0.4695562720298767, -1.8325239419937134, -2.067150354385376, -0.7992084622383118, 1.5423330068588257, 1.4091010093688965
0.6995353257397425, 0.15617607793793745, 0.26508760874411075, -0.964742560116243, 2.971502616277479, -0.03521435848860895, 0.3322324081769163, -0.1534511719038078, 3.1027196584045744, 0.46958404779434204, -1.8324037790298462, -2.06716251373291, -0.7991805672645569, 1.542267918586731, 1.4091131687164307
0.6995129217032664, 0.1562171923857771, 0.2651111437921509, -0.9648172204978303, 2.9714524566751, -0.0352135619225292, 0.33710467359174245, -0.02516587223012777, 3.2443321196360495, 0.4695799648761749, -1.8324719667434692, -2.0671348571777344, -0.7991764545440674, 1.5423088073730469, 1.4091298580169678
0.6995096694813762, 0.15618422813783728, 0.26509649879402697, -0.9647948780897203, 2.97148091245309, -0.03521945140686901, 0.5188507748443653, 0.08965575731280055, 3.523135231917173, 0.4695397615432739, -1.832476258277893, -2.0671584606170654, -0.7991683483123779, 1.5423088073730469, 1.409109115600586
0.6995132161603382, 0.15616087280116034, 0.26508628401990486, -0.9647752085128732, 2.9715364355390204, -0.03520002755678304, 0.26758985826983717, -0.16398739033622847, 3.4683483443766936, 0.4695760905742645, -1.8324638605117798, -2.0671463012695312, -0.7992323040962219, 1.5423448085784912, 1.409109115600586
0.6994906790638326, 0.15619121687315626, 0.26515786025948707, -0.964799762851078, 2.971454051167815, -0.03516766512993668, 0.1528771336049721, -0.5286127857873651, 3.3905467587996645, 0.4695080518722534, -1.8324233293533325, -2.067150354385376, -0.7991803288459778, 1.5423247814178467, 1.4090932607650757
0.6994961897355509, 0.1561865814992889, 0.2650866372047467, -0.9647425939290154, 2.971521088002392, -0.03519276640434977, -0.3538744065002447, -0.203173607767345, 2.9173988847199506, 0.46954822540283203, -1.8324719667434692, -2.0671823024749756, -0.7991684079170227, 1.5423288345336914, 1.4091577529907227
0.6994991349083238, 0.1561747489718327, 0.2650802037698905, -0.9647527598307716, 2.9715170851975703, -0.03523778013181263, 0.042774333869341874, -0.036715154083382565, 3.177834207057133, 0.4694763123989105, -1.832459568977356, -2.0671584606170654, -0.7991803288459778, 1.5423367023468018, 1.4091577529907227
0.6995162709037428, 0.15622506731951175, 0.26514200966576296, -0.9648114342661537, 2.971379023256634, -0.0351952660524121, 0.05459310665018705, -0.28967128850557455, 3.2886485271710337, 0.46958792209625244, -1.8324395418167114, -2.067126512527466, -0.7991445660591125, 1.5423088073730469, 1.409125804901123
0.6995201154879025, 0.15619101064569554, 0.2651184586958837, -0.9647479297033644, 2.971479503642485, -0.03524013972119861, -0.09171295200980899, -0.25435235656086425, 3.3950666246857457, 0.46953171491622925, -1.83234703540802, -2.067126512527466, -0.7991724610328674, 1.5423367023468018, 1.4091174602508545
0.6995382378287422, 0.15617650428109475, 0.26513801249184915, -0.9646698972046188, 2.9714488068771607, -0.03520810900952215, 1.2655688534927485, 0.039092777081435104, 3.4942759826298344, 0.46950408816337585, -1.8325201272964478, -2.0671708583831787, -0.7991724610328674, 1.5422601699829102, 1.409109115600586
0.6994905172891137, 0.15621106851951164, 0.26510200509360987, -0.9648088638023282, 2.971465525148375, -0.03519071921589029, 0.32198154329615974, -0.12178924371343952, 3.5991846560268743, 0.46955233812332153, -1.8324795961380005, -2.0671823024749756, -0.7992084622383118, 1.5423247814178467, 1.4091501235961914
0.6995005856436147, 0.1561667846100028, 0.26511464859076944, -0.9648002339693302, 2.971495001225511, -0.03523004454044623, 0.5986401676827198, -1.4089164594437809, 2.8020152707164603, 0.4695640802383423, -1.832476258277893, -2.0671627521514893, -0.7991724610328674, 1.5423288345336914, 1.4091417789459229
0.6995044627998475, 0.15621196720151176, 0.2651013366401262, -0.9647791695423971, 2.9714958278115606, -0.03519549992778331, 0.31336777045117853, -1.6168389945655912, 2.7697596139488474, 0.46950000524520874, -1.8324638605117798, -2.0671262741088867, -0.7991843819618225, 1.5423531532287598, 1.4091500043869019
0.6995119689578445, 0.1561544583351367, 0.26511127671240886, -0.9646914094587402, 2.9715097645168864, -0.03521831020433801, 0.4981060760148386, -1.6247931991535474, 2.5274794179504663, 0.4695602059364319, -1.8324352502822876, -2.067142963409424, -0.799192488193512, 1.54227614402771, 1.4091737270355225
0.6995207182630954, 0.1561738772777913, 0.2651134346175764, -0.9647068461195063, 2.9714957371172273, -0.03518414309069129, 1.0070052594732661, -1.7750848747789327, 2.6876654792659718, 0.46949613094329834, -1.832443356513977, -2.0671348571777344, -0.7991684079170227, 1.5423247814178467, 1.4091417789459229
0.6995089702776338, 0.15617718564925487, 0.26509204897173466, -0.964799374613194, 2.9714750132981216, -0.03518681936986128, 0.8913977630046949, -3.321975803278458, 1.932573410779297, 0.46952784061431885, -1.8324795961380005, -2.067166805267334, -0.7991486191749573, 1.542328953742981, 1.4090932607650757
0.6995090673156724, 0.15614887712655598, 0.26514438518874806, -0.9646594576831755, 2.9714567499346347, -0.03521537790432055, 2.8783029833075577, -3.355768266085111, 1.4797736537890642, 0.4695397615432739, -1.832431435585022, -2.0671584606170654, -0.7992003560066223, 1.542292833328247, 1.4091174602508545
0.699487226142176, 0.15614151006479726, 0.26506236204047057, -0.9647783157524442, 2.9715650921180496, -0.03524488841625822, 5.2311502483766095, -3.279051791881771, 1.2897197764206751, 0.4694564938545227, -1.832431435585022, -2.067166805267334, -0.7992203831672668, 1.542320728302002, 1.4091458320617676
0.699492095834105, 0.15612225376868377, 0.26507903551475964, -0.9646695652444461, 2.971558224491112, -0.035235346514237896, 5.114319650274827, -3.5117654115587387, 1.846997789692301, 0.4695039987564087, -1.8324114084243774, -2.0671989917755127, -0.7991963028907776, 1.542292833328247, 1.4091014862060547
0.6994892846153928, 0.15615440899273375, 0.2651032084079864, -0.9647496021617343, 2.9715605339338445, -0.035209745141883804, 5.192129328662742, -2.9504275720791493, 1.9983132387735694, 0.46948421001434326, -1.8324638605117798, -2.0671658515930176, -0.7991963028907776, 1.5422927141189575, 1.4091659784317017
0.6994813201554618, 0.1561646998348467, 0.2651100012658586, -0.9648004433532764, 2.9714964896393408, -0.03517320574901849, 4.651041809809975, -1.7335759263044201, 2.01049529885558, 0.46953174471855164, -1.83248770236969, -2.067150354385376, -0.7992082238197327, 1.5423247814178467, 1.4090932607650757
0.699495038373568, 0.15613408225794065, 0.2650628210954768, -0.9647282789469577, 2.9715945541227216, -0.035274131449766, 2.605815316627377, -1.240046741494527, 1.91582670490935, 0.4694882035255432, -1.8324834108352661, -2.0672030448913574, -0.7992084622383118, 1.5422886610031128, 1.4091217517852783
0.6995000533242406, 0.1561871456136425, 0.26508234365897815, -0.9648212743693696, 2.971519796601494, -0.035173861759779525, 2.5783474738428307, -0.9598386357166426, 1.6386235263859341, 0.46955162286758423, -1.8323832750320435, -2.0671792030334473, -0.7991843819618225, 1.5423169136047363, 1.409125804901123
0.6995123594169514, 0.15616350688853003, 0.2650949856280131, -0.9646921618667782, 2.971530127230764, -0.03519141280504953, 2.0533211554941584, -0.9666300962890823, 1.2936711941706065, 0.4695080518722534, -1.832476258277893, -2.0671584606170654, -0.7991803288459778, 1.5423288345336914, 1.4091500043869019
0.6995063831302709, 0.15612442783877686, 0.26505788176995804, -0.9647086104787777, 2.97160970137171, -0.03520052535177063, 2.408699343306316, -0.3706199914415088, 0.6559338685077811, 0.4695119857788086, -1.832476258277893, -2.0672144889831543, -0.7991843819618225, 1.5423407554626465, 1.4091458320617676
0.6995082457558397, 0.1561346553509849, 0.2650832883615355, -0.9646994181267946, 2.971567621684306, -0.03522701444361167, 2.006327087743613, -0.7081473218088379, 0.32317983434232617, 0.46949613094329834, -1.8324719667434692, -2.067190408706665, -0.7992404103279114, 1.5423572063446045, 1.4090973138809204
0.6995071654736881, 0.15622158380808615, 0.2651260232001552, -0.96483195853711, 2.971415965248122, -0.03515534488132384, 2.6677821752337323, -0.8036592760824773, -0.11292822320186913, 0.4695199728012085, -1.8323875665664673, -2.067105770111084, -0.7992203831672668, 1.5422641038894653, 1.4091417789459229
0.6995137088695824, 0.15619660285824918, 0.26515841422757797, -0.9647362487258503, 2.9714097262567103, -0.03514612536578953, 4.194068972916344, -0.7615298047652795, 0.233401089549257, 0.46954765915870667, -1.8324075937271118, -2.0671308040618896, -0.7991724610328674, 1.542340874671936, 1.4091377258300781
0.6995191888928893, 0.15619060852003083, 0.26517861982267876, -0.9646857088164807, 2.971396932952082, -0.03513249268065822, 4.36562084893965, -1.1749774105964186, -0.047825862652298254, 0.46955156326293945, -1.832476258277893, -2.0672144889831543, -0.7991843819618225, 1.5423407554626465, 1.4091500043869019
0.6994910520358509, 0.15618152571942298, 0.265087210396868, -0.9647449573903084, 2.971530656063105, -0.035144599758368755, 5.31070017814527, -1.184638310833183, -0.5956258631299555, 0.4695080816745758, -1.8324514627456665, -2.067142963409424, -0.799192488193512, 1.5423166751861572, 1.4091616868972778
0.6995144195692165, 0.1561578571052274, 0.2651210974088475, -0.9647036539334302, 2.9715048434756666, -0.03519274866649067, 6.762757392167107, -1.466769703321757, -0.5354038366711606, 0.46949997544288635, -1.8324238061904907, -2.0672104358673096, -0.799204409122467, 1.5423128604888916, 1.4090973138809204
0.6994857068689283, 0.15609493551841644, 0.2650468464315595, -0.9646497371180435, 2.9716923608710974, -0.03525351833263631, 8.161599902075343, -1.787790660228322, -0.10172347231503232, 0.46948421001434326, -1.83248770236969, -2.0672144889831543, -0.7992157936096191, 1.5423009395599365, 1.409145712852478
0.6994650318504481, 0.1561436273875762, 0.26506113381983853, -0.964743646047773, 2.9716389021179745, -0.035285317925080426, 8.115007971028982, -2.414941006946939, 0.5867423536298014, 0.46947231888771057, -1.8324357271194458, -2.0672507286071777, -0.7992448806762695, 1.5423288345336914, 1.409153699874878
0.6994955636012472, 0.15611385249253854, 0.2651008316087095, -0.9646249988481731, 2.9715994782794226, -0.03517787295829532, 7.5558821150304585, -2.9489357850215634, 1.7729929519943786, 0.46947622299194336, -1.8324075937271118, -2.0672309398651123, -0.7992199659347534, 1.5423489809036255, 1.409125804901123
0.6994727759034957, 0.15613877922142683, 0.2650596539418773, -0.9647125371485729, 2.9716625393118337, -0.035244216694981005, 6.897835526388215, -3.91405041864313, 2.6215142846712607, 0.46948426961898804, -1.8324352502822876, -2.0672342777252197, -0.7992574572563171, 1.542292833328247, 1.409153699874878
0.6994611082894255, 0.15614665333180502, 0.2650574313626154, -0.9648192773135411, 2.971629828492745, -0.03530280768527089, 7.315637202374236, -5.129636813953965, 3.3537813917713795, 0.46945613622665405, -1.8324915170669556, -2.0672547817230225, -0.7991755604743958, 1.5422842502593994, 1.409153699874878
0.699454974828509, 0.15608292359106243, 0.26506382936197376, -0.964686769222213, 2.971667026862445, -0.035321009902036044, 7.5150691346764225, -6.990313373703058, 3.4530177591341475, 0.4694845676422119, -1.832459568977356, -2.0672426223754883, -0.7992408275604248, 1.5422968864440918, 1.4091377258300781
0.6994737040895406, 0.1560676608504891, 0.2650319603358323, -0.964632179402492, 2.971697010753952, -0.035368367697654085, 7.103246655933765, -8.800333153746934, 3.4452542088574916, 0.46940878033638, -1.8324834108352661, -2.067218542098999, -0.7992532253265381, 1.5422642230987549, 1.409165620803833
0.6995106793639224, 0.15601614757795107, 0.2651014668221679, -0.9643827966857169, 2.9716639610739253, -0.035245463971441786, 6.335572565256105, -10.164524680047572, 3.1587666548062963, 0.4693244993686676, -1.832419991493225, -2.0672104358673096, -0.7992199659347534, 1.542300820350647, 1.4091817140579224
0.6995238433053357, 0.15595513243736375, 0.2650279753381528, -0.964336918838498, 2.971797013782856, -0.035307426443016265, 6.174593232318312, -11.127268261167533, 4.220836837594664, 0.4692409336566925, -1.8325124979019165, -2.067225933074951, -0.7992282509803772, 1.542280673980713, 1.409153699874878
0.699530921417882, 0.15583200000783856, 0.26504382660850045, -0.9640936941410493, 2.9718751890765778, -0.03534056733148079, 5.640917995710097, -11.546999150211265, 5.09436584177352, 0.469134122133255, -1.8324557542800903, -2.0672383308410645, -0.7992449402809143, 1.5422801971435547, 1.4091259241104126
0.6995653982073123, 0.15570497202308756, 0.26500450459583924, -0.9638180096161695, 2.9720147622402444, -0.035291002526874456, 3.575046666654538, -12.419213721979228, 5.48464863282821, 0.4689215421676636, -1.832431435585022, -2.0672547817230225, -0.7992408275604248, 1.542280673980713, 1.409153699874878
0.69957932382052, 0.15561859135002956, 0.26508386068979917, -0.9635949928012213, 2.9719969169860097, -0.03527676487150682, 2.291284319089116, -13.30804294486418, 5.714630117033198, 0.4688062369823456, -1.8324514627456665, -2.0672144889831543, -0.799248993396759, 1.542264699935913, 1.409133791923523
0.6995836298274344, 0.15552804521777874, 0.2650716528767231, -0.9634718270571542, 2.9720595569146444, -0.03535972484809733, 1.5935147295582488, -14.757387623433333, 5.900764352102996, 0.4687025845050812, -1.8324395418167114, -2.0672144889831543, -0.799248993396759, 1.542309045791626, 1.4091378450393677
0.6996219822297975, 0.15544405084324037, 0.2650482953249405, -0.9632300662113253, 2.9721783532721657, -0.03538293052305821, 2.0339832522597976, -14.58780429516795, 6.073114037492047, 0.46852707862854004, -1.8324638605117798, -2.0672383308410645, -0.7992852330207825, 1.542240858078003, 1.4091893434524536
0.6996561943853407, 0.1553014928827935, 0.2650390518571332, -0.962942852879742, 2.9722634828701984, -0.03536461251566164, 1.4252390981945096, -14.846006873741977, 5.590356531668453, 0.46831971406936646, -1.8324795961380005, -2.067242383956909, -0.7992532253265381, 1.542252779006958, 1.4091734886169434
0.6997134801236261, 0.15509871948478116, 0.2650814579284117, -0.9625405070739713, 2.9723025607992404, -0.0352956741324636, 2.160140143792675, -14.544206164098815, 5.301542728562292, 0.468068391084671, -1.832443356513977, -2.0671823024749756, -0.7992365956306458, 1.542288899421692, 1.4092013835906982
0.6997709332877653, 0.1548663870217686, 0.2650421832351176, -0.9620231425429326, 2.972539212984585, -0.03540450619509064, 2.548388090828069, -15.695409072855224, 4.383722324764769, 0.46764126420021057, -1.8324352502822876, -2.067218542098999, -0.7992323637008667, 1.5422766208648682, 1.4091577529907227
0.6998220472987151, 0.15460509552931687, 0.26500433608828927, -0.9614234514196436, 2.972823459055755, -0.03537250858732735, 2.6932195147964526, -16.946868002322336, 4.4063810714866545, 0.46727845072746277, -1.8324271440505981, -2.067218542098999, -0.799248993396759, 1.542280673980713, 1.4091418981552124
0.6998986647995384, 0.15428109882102795, 0.26509202640104346, -0.960756228878302, 2.9728396423647996, -0.03533008106728065, 1.868061232683453, -17.85967006445372, 4.256760396023877, 0.4668996334075928, -1.8324719667434692, -2.067174196243286, -0.7992282509803772, 1.5422569513320923, 1.4091734886169434
0.6999812133662019, 0.1539465131376831, 0.26506861472736587, -0.9599972820245929, 2.9731840502886357, -0.03539607173847262, 1.8914870565746174, -18.382217114016857, 4.345522336290404, 0.4664047360420227, -1.8325120210647583, -2.0672061443328857, -0.7992894649505615, 1.5422766208648682, 1.4091933965682983
0.7001072206724256, 0.15343846205305714, 0.2651219159549726, -0.9588905385146174, 2.9734338114650654, -0.035391228902356776, 1.9991060376922276, -18.24310804275093, 5.056149194565099, 0.46574294567108154, -1.8324834108352661, -2.067194700241089, -0.7992575168609619, 1.542252779006958, 1.4091695547103882
0.7002156214952021, 0.15282614432113045, 0.26507324257947956, -0.9576702853996656, 2.973946040421974, -0.03539726937117299, 1.7062364656933775, -17.204405796243847, 5.2737012363312665, 0.4648694097995758, -1.8325001001358032, -2.067178249359131, -0.7992116212844849, 1.542280673980713, 1.4091417789459229
0.7003653992889017, 0.1521171467993988, 0.26509649688739817, -0.956185387569824, 2.974413327287878, -0.035418360796285873, 1.8869177775248491, -17.044091699575223, 4.858606861130373, 0.46388038992881775, -1.832443356513977, -2.0671825408935547, -0.7992692589759827, 1.542264699935913, 1.4091417789459229
0.7005774158447459, 0.15127866380677918, 0.26513321392911, -0.9543175695508103, 2.9749270893923137, -0.03536014674564925, 2.963386067437375, -18.10597864414669, 4.275498456176342, 0.46275556087493896, -1.8324357271194458, -2.0672390460968018, -0.7991997003555298, 1.5422766208648682, 1.409165620803833
0.7007246628366589, 0.15044862482387858, 0.26507115641811557, -0.9526867968901671, 2.9755852286469535, -0.035411746346573895, 2.696903061125936, -17.580856959031472, 4.635100234086935, 0.46147915720939636, -1.832403302192688, -2.067190647125244, -0.7992615699768066, 1.5422446727752686, 1.409177541732788
0.7009753351584309, 0.14930778536518155, 0.2650690774165149, -0.9502724807921263, 2.9764383250632918, -0.035416240371034254, 2.612421367792192, -17.47165244607348, 5.865721065093231, 0.4599801003932953, -1.832459568977356, -2.0671865940093994, -0.7992282509803772, 1.542264699935913, 1.4091893434524536
0.7012495820048752, 0.14806806138115747, 0.2650755372681525, -0.9476149350665145, 2.9772158215603426, -0.03542550158372942, 3.155472645680175, -18.787056719901344, 6.104075172611433, 0.4582410752773285, -1.8324915170669556, -2.0672104358673096, -0.7992734909057617, 1.5422725677490234, 1.4091695547103882
0.7015155768496273, 0.1466585477084989, 0.2650495381181076, -0.9445141389984913, 2.978295679381659, -0.035434876883198074, 3.0930094777648205, -19.841362847086216, 6.359663575365793, 0.4562629163265228, -1.8324919939041138, -2.067218542098999, -0.7992449402809143, 1.542292594909668, 1.409177541732788
0.7018142187647617, 0.14531331338859793, 0.26504065695359713, -0.9417512257501252, 2.979175244411862, -0.03550892579306003, 3.0971704818137544, -19.647015725966536, 5.986578984878815, 0.454052209854126, -1.832499623298645, -2.0672225952148438, -0.7992122769355774, 1.5422766208648682, 1.4091737270355225
0.7021670767793622, 0.14356961738316273, 0.26506218432047157, -0.9380670100931487, 2.980371412885911, -0.03554929593822545, 2.6645575931337677, -19.254299746209885, 6.02542681959159, 0.4519350528717041, -1.8324557542800903, -2.0671658515930176, -0.7992116212844849, 1.5422606468200684, 1.4091696739196777
0.7025521342398503, 0.14169265598544892, 0.2650873955245615, -0.9341135817793036, 2.9815736250348435, -0.03547956912561041, 2.735818661197512, -18.941612119727576, 5.697944365811212, 0.4492155909538269, -1.8325353860855103, -2.0672144889831543, -0.7992894649505615, 1.5422801971435547, 1.409153699874878
0.7030242338033843, 0.13950485085826075, 0.2650673911938978, -0.929433721030723, 2.9831039559621497, -0.03567492003533029, 1.9834323385871298, -18.798417792148626, 5.981460119663709, 0.4462284743785858, -1.8324676752090454, -2.067166805267334, -0.7992081642150879, 1.5422885417938232, 1.4091575145721436
0.7030630303539501, 0.13923981958193019, 0.26511021212978286, -0.9288555895905443, 2.9831972985607207, -0.03564051943038454, 2.365188344339744, -19.065031911061684, 6.225110334665334, 0.44576942920684814, -1.8325082063674927, -2.0671544075012207, -0.7992448806762695, 1.542236328125, 1.4091660976409912
0.7034638370808752, 0.13716073061588366, 0.265057993894005, -0.9245266712454075, 2.984689279829281, -0.035673700772937585, 1.011400849983447, -17.765334615314867, 6.4306253660186, 0.4424441158771515, -1.8324919939041138, -2.067194700241089, -0.7992364168167114, 1.5422682762145996, 1.4091417789459229
0.7039542251110896, 0.13461600747391034, 0.26508230410250094, -0.9190838294010529, 2.9863509623734563, -0.035688936245170784, 1.2428915235078168, -18.016283080528464, 6.006996212656695, 0.43882662057876587, -1.8324600458145142, -2.0671980381011963, -0.7992039322853088, 1.5422801971435547, 1.4091660976409912
0.7045218623229965, 0.1315691432974147, 0.26512090358099627, -0.9127012004677133, 2.9882977498793895, -0.03575855837094594, 1.05870320738016, -16.91424307020215, 5.376092652124741, 0.4349527955055237, -1.8324791193008423, -2.067174196243286, -0.7991324067115784, 1.5423009395599365, 1.4091217517852783
0.7049999272219891, 0.12911968032277268, 0.2651177802079512, -0.9074927947456716, 2.98994498083736, -0.035707060780078424, 0.4646322451526357, -17.20055506902145, 5.019749917193415, 0.4315364360809326, -1.8324514627456665, -2.067173957824707, -0.7992282509803772, 1.5423206090927124, 1.4091417789459229
0.7055509904254338, 0.12618339571818057, 0.26511095829316134, -0.9012581829245705, 2.9918469525344853, -0.0357491044933416, 1.0727471882686805, -16.838321109855077, 4.803722009578856, 0.42733246088027954, -1.8324271440505981, -2.0671825408935547, -0.7992282509803772, 1.5423448085784912, 1.4091174602508545
0.7060581819279641, 0.12311603045187149, 0.26508248618172586, -0.894802596295655, 2.9939201387357905, -0.035842923053891695, 1.087415429110589, -16.31877997486572, 5.540480638910136, 0.4230695068836212, -1.8324719667434692, -2.0672268867492676, -0.7992282509803772, 1.542292833328247, 1.409109115600586
0.7065313801461147, 0.12036427537707516, 0.2650703387815678, -0.8889897384330951, 2.9957309184942926, -0.035844060324643, 1.0982617204184542, -15.726510529280056, 4.683877518912791, 0.4186058044433594, -1.8324791193008423, -2.067190647125244, -0.7992241978645325, 1.5423567295074463, 1.4091215133666992
0.70715280999213, 0.11668803784777457, 0.2651384371798084, -0.8812045472791329, 2.9979613838040198, -0.03586673142969544, 1.624428635577748, -13.987827510919566, 3.8603068967804757, 0.41395053267478943, -1.8324719667434692, -2.0671823024749756, -0.7992003560066223, 1.5423765182495117, 1.4090931415557861
0.7075998822166307, 0.1137962367223907, 0.2650934206718383, -0.875103490748254, 2.9998587317696614, -0.03593913784778484, 1.324587626132384, -13.092206169231495, 3.3562173846093923, 0.4093264937400818, -1.8324238061904907, -2.0672309398651123, -0.7991724610328674, 1.5423645973205566, 1.4091131687164307
0.7081500829435654, 0.11044755175498482, 0.2650700287957627, -0.8680624892444294, 3.002019386982387, -0.035899257602965924, 1.2317717768201015, -13.43180262033381, 2.8398027727912662, 0.405168741941452, -1.8324834108352661, -2.0671823024749756, -0.7992163896560669, 1.542428731918335, 1.409125566482544
0.7086625229152345, 0.10713848516877522, 0.26512019589979885, -0.8609443089159378, 3.004049617146802, -0.03583837015602169, 1.2296537934893177, -14.148785696658063, 3.2113958417174766, 0.40036681294441223, -1.832499623298645, -2.0671989917755127, -0.799204409122467, 1.542459487915039, 1.4090855121612549
0.7090871504926869, 0.1041942544962527, 0.2651118276800381, -0.8547346214925771, 3.0059122060719354, -0.035862110840166835, 0.39282694354227876, -14.279422759089666, 3.4437588489045243, 0.3957383930683136, -1.832419514656067, -2.067190408706665, -0.7992204427719116, 1.5425279140472412, 1.409125566482544
0.7096448694648324, 0.10044854077514734, 0.26508706353764877, -0.8468725591491255, 3.0081808443865152, -0.03590246185393574, 0.3243709964902632, -14.674847116055899, 3.1313183088897354, 0.39102086424827576, -1.8324075937271118, -2.067166805267334, -0.7991805672645569, 1.5424880981445312, 1.4090855121612549
0.7100992037804389, 0.09713050062483064, 0.26512839462440657, -0.8398639345622461, 3.010169281082973, -0.035994072639190376, 1.0539955644389647, -14.266806873241237, 2.779995021605502, 0.3863039016723633, -1.8324476480484009, -2.067218542098999, -0.7992085218429565, 1.5425238609313965, 1.4090735912322998
0.7105069736669333, 0.09422331349315563, 0.2650988351635221, -0.8336266631810676, 3.011966927509189, -0.03604903788459055, 1.0413431665313808, -13.999106943322872, 2.274391166553647, 0.38226208090782166, -1.8324276208877563, -2.067166805267334, -0.7991244792938232, 1.542531967163086, 1.4091136455535889
0.710933701046107, 0.09091639395186897, 0.2651068786268566, -0.8267328172200895, 3.013916402155176, -0.03612688562589688, 1.115179510906146, -14.711582248802722, 2.036432837732516, 0.3776298761367798, -1.8324395418167114, -2.0671823024749756, -0.7991724610328674, 1.5425000190734863, 1.4090538024902344
0.7113459406944939, 0.08763684008274744, 0.2650899221938157, -0.8197554347130193, 3.015936578439502, -0.03610757661053426, 1.8942422262821015, -14.420150329945837, 2.144824814649018, 0.37293604016304016, -1.8324757814407349, -2.0671308040618896, -0.7991884350776672, 1.5424880981445312, 1.4091136455535889
0.7117164658584222, 0.08429307295900988, 0.2650926826293204, -0.812700028060417, 3.017898911811323, -0.03628571853461459, 2.1844640578508794, -14.552889567556955, 2.32064428575818, 0.3684066832065582, -1.8323918581008911, -2.067178249359131, -0.7991724610328674, 1.5425119400024414, 1.4090816974639893
0.7120953666062375, 0.08118186699607595, 0.2650973156927066, -0.8061268881055942, 3.0196957941862492, -0.036250553775573034, 2.719313525213865, -14.819310066350639, 1.9194356797409378, 0.36391377449035645, -1.832443356513977, -2.067166805267334, -0.7991884350776672, 1.5425159931182861, 1.4090816974639893
0.712409693802043, 0.07843042953950045, 0.26512514720409674, -0.8003044094574902, 3.0212134325893767, -0.03633076420555686, 2.6809630895141296, -14.641076363692061, 2.0375030251686814, 0.3594888746738434, -1.832419514656067, -2.0671792030334473, -0.7991605401039124, 1.5425159931182861, 1.4090574979782104
0.7127301636518479, 0.07530632009411353, 0.2651042433960988, -0.7936755880078127, 3.023101278274453, -0.036374219962033355, 2.9266534385127105, -13.916620946968699, 1.7989914832394636, 0.3556827902793884, -1.8324118852615356, -2.0671863555908203, -0.7991805672645569, 1.542504072189331, 1.4090898036956787
0.7130741751745285, 0.07217237209765147, 0.2651000937169158, -0.78709279816574, 3.0248514190210947, -0.03646404211189227, 3.1815036254995612, -14.084701146848797, 1.6176176429369817, 0.3511943817138672, -1.832459568977356, -2.067194700241089, -0.7992163300514221, 1.5425000190734863, 1.4090657234191895
0.7133692470895973, 0.06934779369235664, 0.26514793118431396, -0.780983221113965, 3.0263838471741553, -0.03647872963959086, 3.3972439906988545, -14.890815859455016, 2.3046017179556513, 0.34673872590065, -1.8324156999588013, -2.067138910293579, -0.7991724610328674, 1.5425200462341309, 1.4091055393218994
0.7136584760167456, 0.06621612097704237, 0.26512430875202675, -0.7744168448592545, 3.028161958188038, -0.03650241098501495, 4.1944065877967684, -15.543956806607415, 1.6823391324199957, 0.34234970808029175, -1.8324352502822876, -2.0671584606170654, -0.7991683483123779, 1.542543888092041, 1.4090697765350342
0.7139121124982752, 0.06308100692166511, 0.2651148887681038, -0.7678615039581439, 3.0299447421102865, -0.03662854198275288, 3.5241037251758307, -15.486749989295886, 1.9672638315932574, 0.3379786014556885, -1.8324037790298462, -2.0672061443328857, -0.7992163300514221, 1.542504072189331, 1.409045696258545
0.7142106202550002, 0.06000814414356011, 0.265104087800324, -0.7612554863334996, 3.031628673662244, -0.03669573697098404, 4.660715242408458, -16.05326369529349, 1.6483857943385698, 0.33422884345054626, -1.8323875665664673, -2.067173957824707, -0.7991683483123779, 1.5425124168395996, 1.409097671508789
0.7144434050356531, 0.05695391224077734, 0.2651395384818371, -0.7547652461367441, 3.0332513992955334, -0.036697017964328005, 4.353689276807689, -16.313256072084283, 2.0129140116247095, 0.32990795373916626, -1.8324156999588013, -2.0671627521514893, -0.7992364168167114, 1.542531967163086, 1.4091098308563232
0.7147042424749603, 0.05389674327948058, 0.2651399182730187, -0.7483113277171647, 3.034908883162616, -0.03677034060039647, 3.9126025337719468, -16.251850419307363, 1.4763953934888656, 0.32560303807258606, -1.832419514656067, -2.0671749114990234, -0.7991884350776672, 1.5425119400024414, 1.4090895652770996
0.714920291642949, 0.05074774092847775, 0.2650897335719678, -0.7416409374234617, 3.0366562277275766, -0.036819343599823376, 3.6318885423098375, -16.30565933670659, 1.307881505973964, 0.3212191164493561, -1.8324233293533325, -2.067142963409424, -0.7992445826530457, 1.5425000190734863, 1.4090657234191895
0.7151008619735965, 0.047962113690194486, 0.2651328927301648, -0.7357950619248197, 3.03813488159442, -0.0369121683791651, 4.215879818648427, -16.0496868061762, 1.6476705060702888, 0.31681570410728455, -1.8323994874954224, -2.0671708583831787, -0.7992486953735352, 1.5424878597259521, 1.409057855606079
0.7153259088745787, 0.04476487150076025, 0.2651336034580831, -0.7289772776305556, 3.0397666235170946, -0.036939473014747856, 4.640473544296582, -16.25180552888341, 1.2996177424189785, 0.3128133714199066, -1.8324075937271118, -2.0671181678771973, -0.7991724610328674, 1.5425159931182861, 1.409057855606079
0.7155054623633288, 0.04149877280140553, 0.2651291947540405, -0.7219772255823295, 3.0415134463741405, -0.03689698046573267, 4.363751425799257, -15.636499054619362, 1.4952885671922975, 0.3083226680755615, -1.8324710130691528, -2.0671989917755127, -0.7991719841957092, 1.5425279140472412, 1.409045934677124
0.7156782079964884, 0.03867499245667184, 0.2650690359065956, -0.7159888831501179, 3.043059750866823, -0.03698640966281588, 4.4410111490032405, -16.718168765843927, 1.2506556271418927, 0.3038181662559509, -1.8325039148330688, -2.0671699047088623, -0.7991803288459778, 1.542543888092041, 1.4091178178787231
0.7158421051127467, 0.035046053990022294, 0.26511613965334063, -0.708349178741957, 3.0448424830067857, -0.03705856768078019, 3.844595022116654, -16.513016934389675, 0.9164329004395737, 0.2993388772010803, -1.8324118852615356, -2.067126512527466, -0.7991765141487122, 1.5424799919128418, 1.4090378284454346
0.7160426561899457, 0.0317855190256883, 0.2651432245081361, -0.7013613209594952, 3.046454755380759, -0.03713775988955825, 4.3491789790744635, -16.06921694236466, 0.9890047317899024, 0.2941887378692627, -1.832443356513977, -2.067110061645508, -0.7991805672645569, 1.5425119400024414, 1.4090936183929443
0.7161643573770015, 0.02845650715490752, 0.26512560808156893, -0.6943590325721934, 3.048125161023876, -0.037232990412345165, 4.053576806466227, -16.625484044463903, 0.6211993353794718, 0.2901320457458496, -1.8324156999588013, -2.067166805267334, -0.7991884350776672, 1.5425639152526855, 1.4090816974639893
0.7162815429660712, 0.02512549036328464, 0.2651380371225053, -0.6872300391064349, 3.04983866979373, -0.03718605424464976, 4.2689349093022955, -16.507465083213265, 0.8273805675030121, 0.28548333048820496, -1.8324238061904907, -2.067194700241089, -0.7992204427719116, 1.542531967163086, 1.4090657234191895
0.7164017922530935, 0.021724870617539502, 0.2651412491234588, -0.6800319501890225, 3.0514683497658255, -0.037257461929355466, 4.507358533495123, -16.86910038543273, 0.49929602632306946, 0.2807594835758209, -1.8324557542800903, -2.0671863555908203, -0.7991884350776672, 1.5425680875778198, 1.4089969396591187
0.7164949870923202, 0.018263997223355956, 0.265145504109663, -0.6727736226229397, 3.053168924642246, -0.037393592917953085, 4.6313344046024065, -17.136437985121816, 0.04911156239643616, 0.27596673369407654, -1.8324395418167114, -2.0671544075012207, -0.7991884350776672, 1.5425000190734863, 1.4090778827667236
0.716582239241108, 0.015240886567690891, 0.2651044914156029, -0.6662247428466104, 3.0546656553944533, -0.03745031482237914, 4.403543246014505, -17.169388353691243, 0.3373035374772451, 0.2710975706577301, -1.8324872255325317, -2.067126512527466, -0.7991765141487122, 1.5424919128417969, 1.409085750579834
0.7165987518409317, 0.011812429524327818, 0.26507457656289035, -0.658988897663483, 3.0563983185585735, -0.03745992487812062, 4.98168738472017, -17.563717451758787, 0.2139328143619667, 0.26632553339004517, -1.832459568977356, -2.067207098007202, -0.7992244958877563, 1.5425279140472412, 1.409073829650879
0.7166755265484569, 0.00832293163850639, 0.26515966412061787, -0.6515442598652018, 3.0578784301208026, -0.0375701224743945, 5.330294926412842, -16.423179684859463, 0.8398943413055826, 0.2620644271373749, -1.8324238061904907, -2.0671708583831787, -0.7991884350776672, 1.5425238609313965, 1.4090378284454346
0.7167164733477916, 0.004758082921015563, 0.2651547543934578, -0.6439101215215721, 3.0595583851575956, -0.03755972192462595, 4.742281122536707, -16.082240579714036, 0.8493708827840406, 0.25707995891571045, -1.8324638605117798, -2.0671017169952393, -0.7991884350776672, 1.5425279140472412, 1.4090378284454346
0.7167072367487586, 0.001176184213311293, 0.2651073683798345, -0.6363321951023626, 3.061318699998946, -0.03759653354338176, 4.935251122669965, -16.640793286900525, 1.1355421223421778, 0.25212809443473816, -1.832431435585022, -2.067166805267334, -0.7991884350776672, 1.5425519943237305, 1.4090335369110107
0.7167027705259289, -0.0019856542175647543, 0.2651041405679022, -0.6296645867027447, 3.0627347371371854, -0.03766550761282417, 5.108085634814758, -17.46791605687674, 0.4326436454732774, 0.24706783890724182, -1.8324352502822876, -2.067190647125244, -0.7991925477981567, 1.5425357818603516, 1.4090051651000977
0.7166727459540474, -0.00608131136942848, 0.26513312882159834, -0.6209161723281331, 3.064531632417202, -0.03777058602774688, 4.861875820949478, -17.624069614090576, 0.8063464170244816, 0.24197931587696075, -1.832419514656067, -2.0671863555908203, -0.7992039918899536, 1.5424959659576416, 1.4090662002563477
0.7166653006426951, -0.009245328631337747, 0.26508404517257894, -0.6140662116916366, 3.06603778166393, -0.03781329262567856, 3.974176968887238, -17.962735433319494, 0.6712010922974881, 0.23755154013633728, -1.832459568977356, -2.0671708583831787, -0.7991605401039124, 1.542563796043396, 1.4090501070022583
0.7166117516637361, -0.01292059073103834, 0.26510543366348804, -0.6062849912515993, 3.0675982482265565, -0.03791897296691906, 5.129018398058755, -18.172034697013036, 0.48724686805746054, 0.23247092962265015, -1.8324719667434692, -2.0671348571777344, -0.7991564273834229, 1.542531967163086, 1.4089972972869873
0.7165353317115267, -0.016565898887472397, 0.26512311359929136, -0.5984275433416787, 3.069183467211755, -0.03794395409916816, 4.273385233679622, -18.186300021220116, 0.7394993249768943, 0.2273385226726532, -1.8324476480484009, -2.067110061645508, -0.7991925477981567, 1.5425279140472412, 1.4090418815612793
0.7164493536179665, -0.020355729862560925, 0.26515461736789736, -0.5903275033146522, 3.070764144928522, -0.037994963497136144, 3.8534033684311657, -17.772020783481107, 1.2996776829657073, 0.22209757566452026, -1.8323999643325806, -2.0671627521514893, -0.7991925477981567, 1.542504072189331, 1.409017562866211
0.7163169726113067, -0.024170929636170426, 0.265164443573395, -0.5821451350265238, 3.0723527612513832, -0.03808443284633362, 4.115158025241396, -18.66938193701522, 0.8071042680497202, 0.2161090075969696, -1.8323832750320435, -2.0671584606170654, -0.7991364002227783, 1.5424880981445312, 1.4090542793273926
0.7161933239521922, -0.028489732110327556, 0.2651398067285898, -0.5729369179520714, 3.0742020926825075, -0.03816169800057341, 4.278260708133561, -18.15628677372527, 0.7769710368098584, 0.210748091340065, -1.832431435585022, -2.067122459411621, -0.7991803288459778, 1.5425159931182861, 1.4090014696121216
0.716008640405689, -0.031834447617050406, 0.26512653185800267, -0.5658299908126763, 3.075645586964224, -0.03821118911982033, 4.365245585110105, -18.15419060057131, 0.9309358761471606, 0.20610448718070984, -1.8324719667434692, -2.0671749114990234, -0.7991403937339783, 1.5425240993499756, 1.4090256690979004
0.7158408330671874, -0.03567934658595307, 0.2651100502316409, -0.558019764705335, 3.0771427974640577, -0.03824318108908575, 4.863738607669049, -19.03393978372625, 0.9726481568744572, 0.20071126520633698, -1.832419514656067, -2.0671708583831787, -0.7992122769355774, 1.5424960851669312, 1.4087860584259033
0.7156175871171063, -0.03963045786657646, 0.2651151323722109, -0.5504756471831797, 3.07859976016144, -0.03834305573625292, 4.672071304878518, -18.702103544902307, 1.8314544187036539, 0.19519390165805817, -1.8324791193008423, -2.0671308040618896, -0.7992612719535828, 1.5425281524658203, 1.4081344604492188
0.7154067407124535, -0.04312680051543105, 0.2651093005221339, -0.5437836204558709, 3.079840250323488, -0.038371107302925096, 4.495329895914549, -18.583909251511653, 1.549520221128763, 0.18963296711444855, -1.8324276208877563, -2.067194700241089, -0.7991764545440674, 1.5425081253051758, 1.4075751304626465
0.7151635618754796, -0.04750408045043615, 0.2651806455594681, -0.5345793014937638, 3.081419522685513, -0.03842383351443462, 4.581827730666287, -19.73739013635985, 1.5728453509980531, 0.1841205209493637, -1.8324476480484009, -2.0671181678771973, -0.7992122769355774, 1.5424715280532837, 1.4073638916015625
0.7148942468068484, -0.05104758304232211, 0.2651284441893976, -0.5270308540193546, 3.0828698656705793, -0.03849386712243093, 3.695453685682661, -19.054116709571673, 1.7605581971418498, 0.17855499684810638, -1.8324156999588013, -2.0671708583831787, -0.7991921901702881, 1.5425081253051758, 1.4073835611343384
0.7146212366862077, -0.05507401331128487, 0.2651444319157013, -0.5183202492509895, 3.084346635241868, -0.03854730687997416, 3.711902780799114, -18.70246001044602, 2.3612269479960046, 0.17372450232505798, -1.8324276208877563, -2.0671544075012207, -0.7992282509803772, 1.5424596071243286, 1.407383918762207
0.7142765877082179, -0.05908821591285667, 0.2650803396152363, -0.5096948096301402, 3.0860064640012195, -0.03864856376896821, 2.7539171303959353, -19.10616998017581, 2.8689711166894236, 0.16804811358451843, -1.8324834108352661, -2.0671544075012207, -0.7992039322853088, 1.5424515008926392, 1.4073758125305176
0.7139531011075562, -0.0631677648834726, 0.26514141857792717, -0.5009193224913603, 3.087390120291897, -0.0385905615738005, 2.3794016792323904, -18.454272975632872, 2.7831486539559647, 0.16227199137210846, -1.8324676752090454, -2.067122459411621, -0.7992323637008667, 1.5424755811691284, 1.4073560237884521
0.7135520104140332, -0.06732226255656261, 0.26511248538848087, -0.4918982331738236, 3.0889671418671436, -0.038809251584701145, 1.1996057538780442, -18.677152897396482, 2.68569993275392, 0.15658478438854218, -1.8325115442276, -2.067105770111084, -0.7991843819618225, 1.542492151260376, 1.4074119329452515
0.7131799327395105, -0.07144060345571286, 0.2651483658658025, -0.4829535189761873, 3.0903934039790024, -0.03875780305504269, 1.5450755856820695, -19.585697782239148, 2.758537529810613, 0.15074168145656586, -1.8324638605117798, -2.0671141147613525, -0.7991805672645569, 1.5424596071243286, 1.4073760509490967
0.7127794929849023, -0.07507654181959408, 0.26510924945430747, -0.4751582128544001, 3.0917384925889517, -0.03884929515679878, 2.5867419119249675, -19.186817378811725, 2.854851288429747, 0.14489392936229706, -1.8324514627456665, -2.0671584606170654, -0.7992003560066223, 1.54251229763031, 1.407371997833252
0.7123517088132073, -0.07916479815066259, 0.2651550606780052, -0.46632615354797213, 3.093089325987117, -0.03899249109154621, 1.7054587759672515, -18.660781249447474, 2.7008642821994773, 0.1399039775133133, -1.832459568977356, -2.067150354385376, -0.7992163300514221, 1.542492151260376, 1.4073760509490967
0.7119339014314617, -0.0827492091558451, 0.26512998099934826, -0.45853734751893693, 3.0943576103827377, -0.03894457368808647, 1.4513908512299964, -17.515102823116656, 3.1346145529277623, 0.134120374917984, -1.832431435585022, -2.067142963409424, -0.7992122769355774, 1.542523980140686, 1.4073560237884521
0.7109250679786663, -0.09107122950679783, 0.26510320950566546, -0.44047494849670665, 3.097163402217223, -0.039072149467432, 3.1118704634296086, -17.381715478319705, 2.54711965586527, 0.12321233004331589, -1.8324557542800903, -2.067166805267334, -0.7992204427719116, 1.5425200462341309, 1.4073519706726074
0.7103752567477601, -0.09514859548776723, 0.2651138758176097, -0.4316428281020789, 3.098469835906618, -0.039201159348774405, 4.00020088055536, -17.919990290348764, 2.391577331334325, 0.11742382496595383, -1.832415223121643, -2.0671749114990234, -0.7992733716964722, 1.5425200462341309, 1.4073560237884521
0.7098907250982688, -0.09869427980345875, 0.2650763769089377, -0.42387526011524984, 3.0996855086787094, -0.039199064124793945, 5.861007510929183, -17.315926606043433, 2.188526412040384, 0.11169638484716415, -1.83248770236969, -2.0671627521514893, -0.7992449402809143, 1.5425081253051758, 1.4073524475097656
0.7092972126011238, -0.10275853036492483, 0.26507961947642267, -0.41505338863042773, 3.100934358651, -0.03930891443681432, 7.674301742006806, -16.254124682197148, 2.818726433169812, 0.10683554410934448, -1.8324638605117798, -2.067166805267334, -0.7992365956306458, 1.5425399541854858, 1.4073073863983154
0.7086932484864171, -0.10676882114573746, 0.2650587609582627, -0.4062571748919165, 3.102201318799981, -0.039301683268688034, 7.726855233566885, -16.61068186101876, 2.476111278245072, 0.1009807214140892, -1.832459568977356, -2.067166805267334, -0.7992408275604248, 1.54251229763031, 1.4073238372802734
0.7080611537933726, -0.11089984142743325, 0.2650642725891642, -0.3972064817771636, 3.1034754263708897, -0.03937096815690607, 9.333012408758135, -16.786533615864112, 1.966763479628853, 0.09525090456008911, -1.8324471712112427, -2.067161798477173, -0.7992199659347534, 1.542504072189331, 1.4073036909103394
0.7075170055235724, -0.11443460242649878, 0.2651039541011247, -0.3895282351399403, 3.1044220133431724, -0.03938774619376041, 11.178660786013957, -16.954584898020634, 1.7299515232879406, 0.08948428928852081, -1.8324438333511353, -2.0671699047088623, -0.7992365956306458, 1.5425320863723755, 1.407303810119629
0.706832554909316, -0.11846753376970423, 0.2650844276152454, -0.3806906119537844, 3.105635056709352, -0.039498254187540854, 11.515542650870197, -16.361432738761, 1.664285222635003, 0.0837898999452591, -1.8324395418167114, -2.0672101974487305, -0.7992449402809143, 1.5424963235855103, 1.4073114395141602
0.7061562898874372, -0.1224694707702669, 0.26510999793286544, -0.37180509895641145, 3.1067531619618074, -0.03953678983150292, 11.405827704685802, -15.784690236266881, 1.868485310444436, 0.07812273502349854, -1.8324156999588013, -2.0671896934509277, -0.7992609143257141, 1.5425080060958862, 1.4073684215545654
0.705428035394296, -0.12646975971979335, 0.26506641468995573, -0.3630512944874997, 3.1079415910831147, -0.03961296215579622, 10.943418084988087, -16.345489096953745, 1.4373533915742696, 0.07326678931713104, -1.8324271440505981, -2.067242383956909, -0.7993012070655823, 1.5424675941467285, 1.4073078632354736
0.7047235794476394, -0.13046947676733858, 0.26507970877486475, -0.35425261679987463, 3.1089800702423678, -0.039677447415987915, 10.494235732686109, -16.284058063879566, 1.3030058425312412, 0.0674959346652031, -1.8323551416397095, -2.0672225952148438, -0.7992692589759827, 1.5424963235855103, 1.4073033332824707
0.7040808436013405, -0.13391308392925902, 0.26511875265327367, -0.3465518047281836, 3.1098481284618837, -0.039697287496599024, 10.13665550790759, -16.46109517668141, 1.7550013611785396, 0.06189325824379921, -1.8324114084243774, -2.0671825408935547, -0.7992449402809143, 1.5425080060958862, 1.407400369644165
0.7032213532592408, -0.13835550137821323, 0.2651280187415812, -0.33680979631437385, 3.110940399575619, -0.03976911019894914, 9.007418330847246, -17.35695251445852, 1.6648708123034934, 0.056286245584487915, -1.8324795961380005, -2.0672268867492676, -0.7992649674415588, 1.5424963235855103, 1.4073524475097656
0.7025189627901037, -0.1418390755963504, 0.2650815556841257, -0.3292348134810253, 3.111945499398438, -0.03983314079269186, 8.602816862171442, -16.465322285693908, 2.077256713107241, 0.05062759667634964, -1.8324471712112427, -2.067202091217041, -0.7992609143257141, 1.5424882173538208, 1.4072835445404053
0.7017242794981654, -0.14574984372466596, 0.26512904893474937, -0.3204556230252051, 3.1128518344718366, -0.03988565147019444, 7.822326950492538, -16.766749056982725, 1.3840810643098975, 0.04574184492230415, -1.8324319124221802, -2.0671699047088623, -0.7992408275604248, 1.5424755811691284, 1.4073078632354736
0.7008953186179544, -0.1496773133283478, 0.26510168492217717, -0.3117581651276759, 3.1138511922216168, -0.03994163686097321, 7.371474024342244, -14.85103533148068, 1.2695641039374235, 0.040174875408411026, -1.8324114084243774, -2.0671980381011963, -0.799187958240509, 1.542480230331421, 1.4073565006256104
0.7000278209345215, -0.15360816427271307, 0.26505659603811216, -0.3030730796539613, 3.1148549428175722, -0.039938967061211514, 6.274396069306948, -13.731755830549211, 2.2065355313660815, 0.03451364114880562, -1.8323956727981567, -2.067174196243286, -0.7992039322853088, 1.5425398349761963, 1.4073197841644287
0.6992906351341133, -0.15693872775941717, 0.2650137670894463, -0.2955933897327137, 3.1156668991811953, -0.04002981496768886, 6.865113816478519, -14.341439440370836, 1.6439405645344485, 0.029085980728268623, -1.8325201272964478, -2.0672433376312256, -0.7992199659347534, 1.5424882173538208, 1.4073724746704102
0.6983763680255427, -0.16114072342975996, 0.26509163845629563, -0.2863589116441386, 3.116492518181376, -0.040159836560284164, 8.035818558159889, -14.916206517853043, 1.2265942402678824, 0.023726629093289375, -1.8323956727981567, -2.0671865940093994, -0.7992532253265381, 1.542463779449463, 1.4073238372802734
0.6976400268693147, -0.16424665549030937, 0.26507150356393117, -0.2793735074529637, 3.117222709449759, -0.040084557863914516, 7.979205369270593, -14.046570970128274, 1.5667976305799929, 0.019245974719524384, -1.832375168800354, -2.067178249359131, -0.799248993396759, 1.5425199270248413, 1.4073600769042969
0.6968069095472742, -0.16771811227867559, 0.2650830737839425, -0.27166603669508244, 3.1179564317792847, -0.04013193442045307, 8.793780922495587, -13.878787202540144, 1.2985635836749516, 0.014194611459970474, -1.832459568977356, -2.0672144889831543, -0.7992039918899536, 1.5425080060958862, 1.407299518585205
0.6960784459412439, -0.17074242016229996, 0.2651465574514431, -0.2649083657926901, 3.118480261271712, -0.04019009643131722, 8.50119368737025, -13.608974272136189, 1.3497557611851965, 0.00929613970220089, -1.832391381263733, -2.0671584606170654, -0.7992365956306458, 1.5425159931182861, 1.4072717428207397
0.6951248599161614, -0.17448611414618856, 0.2650958340806805, -0.2565662590391, 3.119350067600481, -0.04020976354981075, 7.422833488505401, -12.961049397295422, 1.3560474983282949, 0.004550453275442123, -1.832403302192688, -2.067194700241089, -0.7992531657218933, 1.542523980140686, 1.4072840213775635
0.6943332586453294, -0.1776807159849635, 0.26510997611806986, -0.24940643965411258, 3.1199244910410258, -0.04035253201286943, 8.712058967442607, -13.571839549094722, 0.940282545738589, -0.00013906160893384367, -1.8324471712112427, -2.0671627521514893, -0.7991956472396851, 1.5425161123275757, 1.407227873802185
0.6935929875115843, -0.18047657449438, 0.26507740523561624, -0.2431192950346859, 3.120541218916646, -0.04038221884022645, 9.290986379213328, -13.326476215900831, 1.2863405653486717, -0.004704777617007494, -1.8324438333511353, -2.0672225952148438, -0.7992241978645325, 1.542467713356018, 1.4072561264038086
0.6927812050864521, -0.18351911571750965, 0.2650557374393702, -0.23626721273331436, 3.1211733518052394, -0.04034014356021201, 9.995669677961981, -12.653026066279653, 1.2760664939963982, -0.008499924093484879, -1.8324075937271118, -2.067178249359131, -0.799220085144043, 1.542475700378418, 1.4072682857513428
0.6920189041806187, -0.18641734389270814, 0.265045892227058, -0.22973141466680708, 3.12170774407987, -0.04042194112062031, 11.46359049837843, -11.713637142723583, 0.786272833868471, -0.012745682150125504, -1.832403302192688, -2.0672101974487305, -0.799248993396759, 1.5424842834472656, 1.4072606563568115
0.6912645541902303, -0.18916880610060383, 0.26508512501844606, -0.22360148334677016, 3.1221611237703213, -0.04045067719220841, 12.7392185134815, -11.160385493051994, 0.5963834432648063, -0.01685887947678566, -1.83248770236969, -2.0672590732574463, -0.7992648482322693, 1.5425477027893066, 1.4072279930114746
0.6906211374144554, -0.19161648926934752, 0.2651116624284938, -0.21804117227061556, 3.122554582677576, -0.04049405769963042, 14.291561785195347, -11.179129389271903, 0.5854377524774215, -0.020803753286600113, -1.832431435585022, -2.0671699047088623, -0.7992449402809143, 1.542492151260376, 1.4072320461273193
0.6898537482573583, -0.19420464799227838, 0.26505338722970634, -0.21222271315690874, 3.1231152574855194, -0.04047555194653002, 15.260169472137084, -12.243711188783047, 0.539558573147812, -0.024558845907449722, -1.8324476480484009, -2.0672547817230225, -0.7992569804191589, 1.5425159931182861, 1.4072120189666748
0.6890146642342823, -0.1971326725509177, 0.26507559273447745, -0.20564883674539186, 3.1236038192788294, -0.040551136658288814, 16.926531504543927, -12.54549639197934, 0.35147792012744017, -0.028337303549051285, -1.832431435585022, -2.0672953128814697, -0.7992728352546692, 1.5424678325653076, 1.4072201251983643
0.6883498499020375, -0.1993283212705219, 0.26502871652116455, -0.20060816719232788, 3.124078908634578, -0.0405512728470469, 18.002516038125382, -13.261472152431717, -0.47284772412731, -0.03157741203904152, -1.8324037790298462, -2.0673141479492188, -0.7993167638778687, 1.5425080060958862, 1.4072279930114746
0.6875052668811277, -0.2018993079583766, 0.26495510145150325, -0.1948285021704009, 3.12475610087589, -0.04052727915227537, 19.065650039290567, -13.476373307544124, -0.49638794676155135, -0.035220447927713394, -1.8323832750320435, -2.0674548149108887, -0.7994205951690674, 1.542492151260376, 1.4071600437164307
0.6866890536139281, -0.20437604212561525, 0.2648373127406536, -0.18925714164555313, 3.1253775606350254, -0.04061895957066456, 19.254010456500335, -13.789692396652061, -0.22307632642209838, -0.038920704275369644, -1.8323832750320435, -2.067598819732666, -0.7994763851165771, 1.542504072189331, 1.4072037935256958
0.6856865753009143, -0.20691448049164737, 0.264624852899021, -0.18343764448936425, 3.1261905956740215, -0.040499916771632914, 20.26550467649422, -14.499051649181201, -0.4298486256067936, -0.04305965080857277, -1.8323789834976196, -2.068086624145508, -0.7995091080665588, 1.5425080060958862, 1.4072000980377197
0.6845996141574227, -0.20946080658862004, 0.2642670627925278, -0.17761873829071181, 3.1272142942284513, -0.04044598315493403, 21.14012352286924, -15.506835121566715, -0.8628378864306893, -0.046307388693094254, -1.8323637247085571, -2.068631649017334, -0.7994447350502014, 1.542492151260376, 1.40720796585083
0.6833087387852576, -0.2120097074968799, 0.2637641526948426, -0.17183178163522816, 3.1285368214085123, -0.040348195216793344, 20.463856147574553, -15.876576361387652, -0.5431361883332573, -0.050055328756570816, -1.832379937171936, -2.069575071334839, -0.7994725108146667, 1.542492151260376, 1.407196044921875
0.6818829776576262, -0.2146099380165609, 0.2631123338128996, -0.1658469136014944, 3.1300993428995327, -0.04011905240905384, 19.85773024554456, -15.770462975781777, -0.5970770977519433, -0.05392676964402199, -1.8324400186538696, -2.07073974609375, -0.7994968295097351, 1.5425081253051758, 1.4072197675704956
0.6802537733175661, -0.21735388208164005, 0.2623237000711536, -0.15957083377373144, 3.1319910084454037, -0.03992692193841725, 18.76734043297131, -14.63963513503317, -0.10928139209989773, -0.05797845497727394, -1.8324400186538696, -2.0721354484558105, -0.7995405197143555, 1.5424797534942627, 1.4071681499481201
0.6787133927374732, -0.21973199817486075, 0.2615869859396344, -0.15401324253613852, 3.133696449867563, -0.03976433130508749, 18.178380862910164, -14.169553916791855, -0.3692645401687229, -0.06207019463181496, -1.83234703540802, -2.073819637298584, -0.7994968295097351, 1.5424878597259521, 1.4072685241699219
0.676828182254028, -0.22253930828606638, 0.2605443149164902, -0.14758735655106345, 3.1360243030816997, -0.03942190217257156, 17.332629065012103, -13.633918175464927, -0.6405065353832262, -0.065846748650074, -1.8323756456375122, -2.075444459915161, -0.79952073097229, 1.5424317121505737, 1.40717613697052
0.6747875755289677, -0.22534277329924488, 0.25943202899985224, 0.14104846399543586, -3.1379616727060133, 0.0390443934571885, 15.685120269504713, -12.881668511936272, -0.5227489533915859, -0.07002861052751541, -1.8324280977249146, -2.077563524246216, -0.7995048761367798, 1.5425045490264893, 1.4072279930114746
0.6729958546958512, -0.22779835584453254, 0.2584423007210255, 0.1351362923786103, -3.1362672076846967, 0.038763492669560126, 15.105563663798181, -12.373443311006621, 0.19899942446365806, -0.07430440932512283, -1.8324114084243774, -2.0796523094177246, -0.79952073097229, 1.5424714088439941, 1.407204031944275
0.6706186299714836, -0.23094179246325197, 0.25714473600633364, 0.12748270441591028, -3.134110085893061, 0.03827562239842192, 15.56519913849535, -12.327562328960536, -0.7832734434570359, -0.07860452681779861, -1.8324238061904907, -2.0819003582000732, -0.7994683980941772, 1.5425560474395752, 1.4072037935256958
0.6687226567520814, -0.23333823932788092, 0.2560792371340713, 0.1216816778330592, -3.1323212839938988, 0.03781388072651194, 14.602178083263976, -12.34264194577133, -0.8237474721974243, -0.08283788710832596, -1.8323994874954224, -2.0841517448425293, -0.7994683980941772, 1.5424964427947998, 1.4071961641311646
0.6666435994858662, -0.23602127568366324, 0.25491420834417744, 0.11508701895022584, -3.130337148632032, 0.03738027006443757, 14.028823473799978, -11.284481001983794, -0.9676824079728598, -0.08641130477190018, -1.8324400186538696, -2.086003303527832, -0.7994803190231323, 1.542492151260376, 1.4072239398956299
0.6645231479530808, -0.23868934636636827, 0.25379026828958073, 0.10852596497969194, -3.1283969862795953, 0.036924267012273214, 14.066915937466044, -10.524651824056814, -1.018528361340819, -0.0906265452504158, -1.8324323892593384, -2.0881433486938477, -0.7994922995567322, 1.5424716472625732, 1.4072524309158325
0.662530856775532, -0.241272022748295, 0.25275562014786584, 0.10222539703150041, -3.126613573561978, 0.03644230244564596, 12.870964490452351, -10.418924089244957, -1.991089863107367, -0.09474260360002518, -1.8323036432266235, -2.0903241634368896, -0.7994447350502014, 1.542492151260376, 1.4071602821350098
0.6608101983376031, -0.24353175980359282, 0.2518901172941329, 0.09659912832863136, -3.125117234431343, 0.03604778168701625, 13.55637363702189, -11.194513098728224, -2.092980709449403, -0.09873516112565994, -1.8323956727981567, -2.0921361446380615, -0.7994566559791565, 1.542483925819397, 1.4072563648223877
0.6589901072606263, -0.24606515872164675, 0.25101470938401127, 0.09041401300296863, -3.12360604239466, 0.035570703945296794, 13.544481388466249, -11.040766444190652, -2.322804660626086, -0.102711983025074, -1.8324238061904907, -2.093771457672119, -0.799468457698822, 1.5425283908843994, 1.407227873802185
0.6572521485078535, -0.24843990366565852, 0.25026465883616467, 0.08460557597791366, -3.1223050208283825, 0.035265543768228075, 13.113557708881975, -11.927577693083265, -3.4937184843279043, -0.10644418746232986, -1.8323317766189575, -2.095338821411133, -0.7994248270988464, 1.542492151260376, 1.4072080850601196
0.6556470220343373, -0.25085446429131286, 0.24956415068644705, 0.07865121658522536, -3.121072915298864, 0.03493065916752255, 14.444392916068612, -11.86767794475666, -2.7458563801640397, -0.10982448607683182, -1.8323394060134888, -2.096515655517578, -0.799484372138977, 1.542459487915039, 1.4071801900863647
0.6541819819924164, -0.25320223550860005, 0.24901268176138835, 0.0729263675326175, -3.1201348334324557, 0.03467198146561409, 15.180067003614091, -11.883637686695648, -3.014912424206992, -0.11351806670427322, -1.832387089729309, -2.097548723220825, -0.7994605898857117, 1.5424880981445312, 1.407227873802185
0.6529959846184413, -0.2552990294429297, 0.24869520757739044, 0.0677834138204065, -3.1196230327397796, 0.03441381246303084, 14.513917258891897, -12.983585679330943, -3.7430145066705114, -0.11718256026506424, -1.832351803779602, -2.0983259677886963, -0.7994288206100464, 1.542504072189331, 1.4072405099868774
0.6516045637081515, -0.258058902710471, 0.24839461469629281, 0.061126187468743626, -3.1191119239486906, 0.03424111476083331, 14.831149334330137, -12.916167559175054, -4.288502724055568, -0.12101680785417557, -1.832351803779602, -2.098813056945801, -0.7994208335876465, 1.5424964427947998, 1.4072080850601196
0.6506011296055476, -0.2601251222214364, 0.24822449964840787, 0.05615442048103832, -3.118859858875827, 0.034100056892402766, 14.22044515220167, -12.843087490609522, -4.1095438911012865, -0.12467081099748611, -1.8323603868484497, -2.099215269088745, -0.7994526028633118, 1.5424880981445312, 1.4072080850601196
0.6495143829669127, -0.26251558240561756, 0.24811766821111114, 0.050393776229848496, -3.1187238442582386, 0.03397646504056773, 14.667958535684921, -13.71678891444294, -4.4086215449291934, -0.12786608934402466, -1.8323837518692017, -2.0994348526000977, -0.799472451210022, 1.5425082445144653, 1.4072602987289429
0.6485085523788553, -0.26490467109469257, 0.24809282964063856, 0.04469069856165297, -3.118720433129618, 0.03392569758863188, 15.600188814780237, -14.85343063934926, -4.713004141717224, -0.13163691759109497, -1.8323394060134888, -2.09946608543396, -0.7994406819343567, 1.5424754619598389, 1.40721595287323
0.6475405274465615, -0.26730446456566426, 0.24808316098374084, 0.03880967144774933, -3.1187556842651243, 0.033834281260631545, 15.926946294069948, -15.89020895665061, -4.860807285543496, -0.13533860445022583, -1.8323603868484497, -2.0994911193847656, -0.7994685173034668, 1.5424880981445312, 1.40721595287323
0.6466400891606009, -0.26944616888805956, 0.24811239317127826, 0.03367161965980723, -3.118813824708498, 0.03382942017848927, 16.781396442466423, -16.566057795388176, -5.201821135454886, -0.13906794786453247, -1.832311749458313, -2.099499225616455, -0.7994326949119568, 1.5424678325653076, 1.407227873802185
0.6454720843271563, -0.27218101961226093, 0.24808046537683415, 0.02707428444329204, -3.1187451566665088, 0.03371947349960229, 16.470342067813778, -16.432541388330897, -4.632043787125165, -0.14283305406570435, -1.832351803779602, -2.0995187759399414, -0.7994327545166016, 1.542463779449463, 1.4072444438934326
0.6445415235772051, -0.274391833763688, 0.24807508351389918, 0.02167748661883758, -3.118763705419314, 0.03361092960071799, 16.231736059208117, -16.681018757099476, -4.020103278479761, -0.14627724885940552, -1.8324004411697388, -2.0994582176208496, -0.7994565367698669, 1.5424678325653076, 1.4072080850601196
0.643402373516466, -0.27707433285886957, 0.24811642282355093, 0.01527680798407825, -3.118836560290212, 0.033589477689071424, 15.574677353651506, -15.48615123294961, -3.563420108267514, -0.15032082796096802, -1.8323642015457153, -2.0995147228240967, -0.7994526028633118, 1.5424476861953735, 1.4072080850601196
0.642287975486881, -0.2796763860319583, 0.24809689330786383, 0.008998663835768937, -3.1187566166570777, 0.03355857553119356, 14.152139152606757, -15.415896412618173, -3.36146265312263, -0.15442878007888794, -1.8323560953140259, -2.099510669708252, -0.7994446754455566, 1.542459487915039, 1.407227873802185
0.6411129825129319, -0.28234559499102324, 0.24812519094089586, 0.002442546415658701, -3.1188172646746493, 0.0334526085466086, 14.234097155046149, -15.687349824752431, -3.5052964910736066, -0.15857964754104614, -1.8323756456375122, -2.0994908809661865, -0.7994248270988464, 1.542459487915039, 1.4071803092956543
0.6400798585202169, -0.28468239919956123, 0.24812213498417546, -0.003217323912138988, -3.1187524389208634, 0.03343221811487271, 14.993595642291908, -15.830459999822425, -4.0365435187721594, -0.16274672746658325, -1.832299828529358, -2.0994951725006104, -0.7994367480278015, 1.5424554347991943, 1.407204031944275
0.6387652282688846, -0.2876744329997112, 0.24809438965281727, -0.010445712606500164, -3.118635377549217, 0.03334623893218566, 15.335809758672237, -17.486162517710664, -4.722679438341997, -0.16686564683914185, -1.8323360681533813, -2.0994908809661865, -0.7994208335876465, 1.5424518585205078, 1.4071803092956543
0.6377092215223025, -0.29003045019984924, 0.24813045742570203, -0.016244919731187003, -3.118640427388297, 0.03328675134104025, 15.277946246956153, -18.180206988688052, -5.800272315607584, -0.17110902070999146, -1.8323322534561157, -2.0994341373443604, -0.7994486093521118, 1.5424559116363525, 1.4071961641311646
0.6363087348766464, -0.2930762181398813, 0.24812293201165336, -0.023729112999400587, -3.118562748474707, 0.03312997510917811, 15.148815358002732, -16.347452852138037, -5.6966857389623815, -0.17534714937210083, -1.8323155641555786, -2.0994465351104736, -0.7994327545166016, 1.5425004959106445, 1.4071842432022095
0.6350205570285944, -0.29581459994512216, 0.2480945274204559, -0.030452188854939676, -3.118403664513705, 0.03310907332192192, 15.22889744205564, -16.11413091178449, -5.715279952207413, -0.17966872453689575, -1.8323603868484497, -2.0994467735290527, -0.7994605302810669, 1.5424718856811523, 1.4072239398956299
0.6339129835725643, -0.298220710363624, 0.2480915254505071, -0.036358826311438004, -3.1183229323317136, 0.0330405735590524, 15.45596187192127, -15.876458867875042, -5.775412946847137, -0.1839936375617981, -1.8323756456375122, -2.09946608543396, -0.7993884086608887, 1.542463779449463, 1.4072120189666748
0.6325727296314195, -0.30105509727358093, 0.24812607807934128, -0.043361142402330036, -3.1182135954234473, 0.032902819185332687, 14.942285633977194, -15.969343353723312, -5.869166624867162, -0.18789511919021606, -1.8323560953140259, -2.099515676498413, -0.7994645237922668, 1.5425246953964233, 1.4072526693344116
0.6312124256700433, -0.30388955862493505, 0.24811902625770088, -0.05035099827130657, -3.118054709645623, 0.032878546979997376, 14.86850651611402, -16.42985641050115, -6.4431985588025675, -0.19238024950027466, -1.8323642015457153, -2.0994629859924316, -0.799472451210022, 1.5424838066101074, 1.4072120189666748
0.6298265859159066, -0.30673213149343, 0.24809476455050478, -0.057377192065220815, -3.1178294464164904, 0.032799322259583256, 15.349168741995342, -15.844627122736684, -5.939362352434033, -0.19691306352615356, -1.8322960138320923, -2.0994505882263184, -0.7994089126586914, 1.5424838066101074, 1.4072320461273193
0.6284362603659038, -0.3095915593858005, 0.2480538929754142, -0.06439662251686366, -3.1175855887491255, 0.03267318831428557, 15.034315770174207, -17.170918868567124, -6.030913671101604, -0.20146113634109497, -1.832323670387268, -2.099510669708252, -0.7994128465652466, 1.5424879789352417, 1.4071760177612305
0.6270176154410312, -0.31241923841111185, 0.24809730787095446, -0.07142212277789511, -3.1174562096520457, 0.03261223373333487, 15.517475416851594, -17.625475413503572, -6.1056279123372, -0.20597678422927856, -1.8323603868484497, -2.0994908809661865, -0.7993963360786438, 1.5424838066101074, 1.4072041511535645
0.6257689630140232, -0.31495843394473666, 0.2481421175015866, -0.07779145029377513, -3.117347019995164, 0.0325848795997019, 16.140261037383084, -17.41988844500335, -6.380310553839391, -0.20994645357131958, -1.832299828529358, -2.099482536315918, -0.7994089126586914, 1.5424318313598633, 1.4072160720825195
0.624256878031031, -0.3178999073171167, 0.248097217790796, -0.08511105566514132, -3.117015510212924, 0.03248300343941587, 15.371746272285101, -16.967268618665187, -6.14622478355544, -0.21465331315994263, -1.832283616065979, -2.0994670391082764, -0.7994247674942017, 1.5425004959106445, 1.4072242975234985
0.6229215344779719, -0.32048253171329927, 0.2480943542329878, -0.0916145207991982, -3.116819997281597, 0.03239221087184201, 14.342403082583163, -17.029643111577656, -6.0304923293713495, -0.2194254994392395, -1.8323317766189575, -2.0995187759399414, -0.7993844151496887, 1.5424678325653076, 1.4072320461273193
0.6212280476021892, -0.3238739988342809, 0.2481482747911996, -0.10003551949278698, -3.1165859720108484, 0.032324152842443644, 13.312049199879485, -16.38539893413995, -6.409924190046082, -0.22421342134475708, -1.8323198556900024, -2.0994744300842285, -0.7994129061698914, 1.542463779449463, 1.4072036743164062
0.6196234819147661, -0.3268725119624424, 0.24812900468629862, -0.1076170262718494, -3.1162581685093573, 0.03219594477416599, 12.740213641894528, -16.290254608756317, -6.279790505480115, -0.2290847897529602, -1.8323479890823364, -2.099454641342163, -0.7994128465652466, 1.5424559116363525, 1.4072160720825195
0.6182393992758014, -0.32945935021686173, 0.2481384130465608, -0.11409519958444611, -3.115995598578754, 0.03213572873974504, 13.241824224134392, -17.125633201088583, -6.1646982535437225, -0.23388558626174927, -1.832295536994934, -2.0994784832000732, -0.7993963360786438, 1.5424754619598389, 1.4072000980377197
0.6166903365927294, -0.3324093511373385, 0.2481510755170539, -0.12149351251539185, -3.1156652356738967, 0.03212408640078941, 13.479721752305599, -17.198190853899675, -6.347262820480186, -0.23802119493484497, -1.832351803779602, -2.0994505882263184, -0.7994128465652466, 1.5424518585205078, 1.4072446823120117
0.6150887815298208, -0.3353525010421693, 0.24811062626525945, -0.1290542055053006, -3.1152559944360347, 0.03194740351622962, 13.131594998423662, -16.805489664125982, -6.381632208334845, -0.2429373860359192, -1.8323241472244263, -2.0994465351104736, -0.799420952796936, 1.5424838066101074, 1.4072000980377197
0.6136254458932523, -0.3379989685073541, 0.24811150093696654, -0.13572851957775847, -3.1149060664217667, 0.03182741891611448, 12.226713391936283, -17.08086830840808, -5.512090149666065, -0.24774819612503052, -1.8323479890823364, -2.0994462966918945, -0.7994645237922668, 1.5424920320510864, 1.4072320461273193
0.6117468495065811, -0.3413613071827927, 0.24808836143439428, -0.14418675253038316, -3.1144344296588615, 0.031770588618561225, 11.679166107146632, -16.162714975024404, -4.9534862921138405, -0.25265198945999146, -1.8323241472244263, -2.0994465351104736, -0.7994168400764465, 1.5424718856811523, 1.4071717262268066
0.6102780698275921, -0.3439721815214677, 0.24808656976898208, -0.15090749789955504, -3.1140849182764407, 0.03175283207581476, 12.167557646623715, -16.31351555520969, -4.941163950232846, -0.25750380754470825, -1.8323560953140259, -2.0994949340820312, -0.7994168400764465, 1.542420506477356, 1.4072279930114746
0.6086485929745052, -0.34689741666814855, 0.24814314141835436, -0.1583780536639971, -3.1137542282591877, 0.031631657672112116, 11.915950827882307, -16.04466109607515, -4.476440845196675, -0.2622993588447571, -1.8323155641555786, -2.0994341373443604, -0.7994368672370911, 1.542459487915039, 1.4072279930114746
0.6069849863270698, -0.34980924154832715, 0.24813116912497102, -0.1658370426577814, -3.1133399005000153, 0.031484744083630375, 12.091601339659647, -16.29987288823779, -4.746013921381299, -0.26652413606643677, -1.8323718309402466, -2.0994505882263184, -0.7994207739830017, 1.5425124168395996, 1.4072405099868774
0.6053020000331325, -0.352696956626117, 0.2481278743717616, -0.17331793149125532, -3.1128456731570875, 0.03140950867338658, 12.619852556780517, -16.257356257691175, -4.704129441539326, -0.27125293016433716, -1.832311749458313, -2.0994505882263184, -0.7994565963745117, 1.5424476861953735, 1.4072239398956299
0.6036132809170274, -0.3555887119211959, 0.24813845077904886, -0.18079148957751573, -3.1123792063622373, 0.0313419007102881, 11.807052530056616, -15.825816780821414, -3.8062656221684934, -0.27611905336380005, -1.8323684930801392, -2.0994341373443604, -0.7994287610054016, 1.542492151260376, 1.4072279930114746
0.6018914346261792, -0.35846136508529863, 0.24815362077062542, -0.1881282315789534, -3.111951279534168, 0.03127161150927564, 11.65470356266375, -16.349459869132716, -3.826781145559705, -0.2807939648628235, -1.832351803779602, -2.099471092224121, -0.7994287610054016, 1.5424559116363525, 1.4072767496109009
0.60042579809608, -0.36091033457404537, 0.24812563921132536, -0.194437765433344, -3.111442282205629, 0.031204597451101178, 12.105568385630919, -16.609498559167548, -3.585605543459688, -0.28485995531082153, -1.832323670387268, -2.099442481994629, -0.7994288206100464, 1.5424476861953735, 1.4072446823120117
0.5987640789832451, -0.36373881241385775, 0.24810527135652222, -0.20176828976638642, -3.1109393571288426, 0.031048808705645047, 11.727428298679632, -16.452873624137293, -4.037033928715935, -0.28960591554641724, -1.8323160409927368, -2.099454641342163, -0.7994247674942017, 1.5424838066101074, 1.4072442054748535
0.5972311409729425, -0.36616159126194625, 0.24809477196148466, -0.2081504204591499, -3.1104075264354294, 0.03106833912347673, 12.083654792524047, -17.499554402430395, -4.148151530810999, -0.2942503094673157, -1.8323479890823364, -2.099482536315918, -0.7994486093521118, 1.5424163341522217, 1.4072802066802979
0.5953374658120356, -0.3692670034131184, 0.2481223523080541, -0.21623594981535535, -3.109845160447669, 0.030978451192705633, 11.591238330337221, -18.640948952864306, -4.128335699287507, -0.29887181520462036, -1.832351803779602, -2.099454641342163, -0.7994406819343567, 1.5425045490264893, 1.4072885513305664
0.5936388097345657, -0.37200913861892143, 0.24814579751145976, -0.22336330561929413, -3.109372858760128, 0.03083074431267001, 12.310780271017567, -19.340718234685003, -3.2118333970593014, -0.3034728169441223, -1.8323684930801392, -2.0994341373443604, -0.7994446754455566, 1.5424164533615112, 1.407252311706543
0.5921076574523422, -0.3744238698182604, 0.2481088440500297, -0.2296533155012912, -3.108780655472005, 0.030716983824301745, 11.973457294534272, -19.18719285877735, -2.2948285547041274, -0.30755454301834106, -1.832424283027649, -2.0995032787323, -0.7994168400764465, 1.5424518585205078, 1.4072601795196533
0.5903146280633126, -0.3772374883874254, 0.24811966323626544, -0.23708339388838517, -3.1082059361493917, 0.03067728537567194, 12.221130662146573, -18.516883704471844, -1.4729932637149372, -0.3122876286506653, -1.8323842287063599, -2.099482536315918, -0.7994207739830017, 1.5424439907073975, 1.4072721004486084
0.5884936391033186, -0.38007415410390044, 0.24809664552385435, -0.24459820935603793, -3.1075306490515158, 0.03059424053187688, 11.338941385424935, -17.32848917784805, -0.7911313947889719, -0.31711655855178833, -1.8323036432266235, -2.0994670391082764, -0.7994486093521118, 1.5424718856811523, 1.4072442054748535
0.5866532802817976, -0.3828459678472451, 0.24808306138857839, -0.25198232060146314, -3.106884500633864, 0.03046799436205806, 9.355280095254964, -15.195154151272392, 0.9361382731063108, -0.3219168782234192, -1.8323675394058228, -2.0994713306427, -0.7994565963745117, 1.5424365997314453, 1.4073320627212524
0.5850615035030198, -0.3853230711370907, 0.24811315826365302, -0.2585264028407851, -3.1063731990689245, 0.03043342908368921, 7.626397448620218, -14.232570465484306, 1.5119571347194853, -0.3266618847846985, -1.8323355913162231, -2.099470376968384, -0.7994167804718018, 1.5424439907073975, 1.4072918891906738
0.5830536633247732, -0.3883514042850663, 0.24809285946231896, -0.26670453221722845, -3.105567853711667, 0.030354495967976538, 7.628899519816234, -13.89687050231499, 2.0974170656312676, -0.33184319734573364, -1.8323594331741333, -2.099470376968384, -0.7994526028633118, 1.5424164533615112, 1.407383918762207
0.5813006008600476, -0.39099288980742014, 0.2480948272080222, -0.273708142635024, -3.104953867529634, 0.030206383328941742, 6.156571921384292, -13.035427444104169, 1.7317246779979292, -0.3363812565803528, -1.8323756456375122, -2.0994505882263184, -0.7994287014007568, 1.5424638986587524, 1.4073560237884521
0.5795366193173084, -0.3936088532308106, 0.24809058737413314, -0.2807537618660831, -3.1042663027334942, 0.030022343495978734, 4.866060714271543, -10.989619546553374, 1.5558949742633112, -0.34035617113113403, -1.8323675394058228, -2.09944224357605, -0.7994685173034668, 1.5424245595932007, 1.4073758125305176
0.5778454921562335, -0.39607271733609895, 0.2481198370141547, -0.28735510648715984, -3.1036476111213864, 0.030029829404146564, 3.9586150679380934, -10.12573246300546, 1.642994776456015, -0.34466296434402466, -1.8323594331741333, -2.0994465351104736, -0.7994526028633118, 1.542475938796997, 1.4073834419250488
0.5764383466840491, -0.3981144723320866, 0.24808371406472748, -0.29291426549343846, -3.1030437001557276, 0.030011880813744302, 2.000689943841372, -8.539615839311882, 1.7870112161297858, -0.3486817479133606, -1.832379937171936, -2.0994629859924316, -0.7994445562362671, 1.5424286127090454, 1.4074405431747437
0.5747680586542159, -0.4005771348402031, 0.24809994938779487, -0.29950263655920123, -3.1024122379937067, 0.029835325015743912, 1.0236342697784846, -4.595214050124433, 2.6200125864921158, -0.352464497089386, -1.8323637247085571, -2.099454641342163, -0.7994527816772461, 1.5424755811691284, 1.407412052154541
0.573577300392853, -0.40227949947144853, 0.24811254681651518, -0.30410040771892016, -3.101974659760429, 0.029886537264903427, 0.22781176738372402, -2.522724614640512, 2.6364600345370617, -0.35590773820877075, -1.8323842287063599, -2.099407196044922, -0.7994207739830017, 1.5424394607543945, 1.407423973083496
0.5723309820709064, -0.4040087587974016, 0.24810447253364282, -0.30880407307410235, -3.101459377109814, 0.02975333824455703, -0.31029950273438756, -1.8594856218849936, 3.259278361977341, -0.3589480519294739, -1.832363247871399, -2.0994462966918945, -0.7994366884231567, 1.5424797534942627, 1.4074199199676514
0.5712422717832697, -0.40556229076333183, 0.2480803298168279, -0.3130867731150647, -3.100992520025338, 0.029722820985894027, -0.23455695848213165, -2.2628903870150046, 3.475245921565457, -0.36133652925491333, -1.832363247871399, -2.099407196044922, -0.7994327545166016, 1.5424275398254395, 1.4074478149414062
0.5702783562246937, -0.40690446942518427, 0.2480982761275205, -0.31678954286111255, -3.100600562294554, 0.029594757881262146, 0.22581359378186433, -2.1319760884728582, 3.4284700691368357, -0.36376553773880005, -1.8323951959609985, -2.099426746368408, -0.7994446754455566, 1.5425045490264893, 1.407463788986206
0.5694854441751451, -0.4080496454184883, 0.24808574414333254, -0.3198354777500349, -3.1002382852505215, 0.029608672736862466, 0.675551446093273, -1.8205900746684074, 3.4108836576217674, -0.36576730012893677, -1.8324238061904907, -2.0994341373443604, -0.7994287014007568, 1.542463779449463, 1.4074876308441162
0.5688276357770774, -0.4089742007738887, 0.24808719502325405, -0.32237987589231204, -3.0999697831860455, 0.02961478602916463, 0.9596531458279849, -0.8954108817379406, 3.1505637667212585, -0.36746054887771606, -1.83240807056427, -2.099426746368408, -0.7994207143783569, 1.542492151260376, 1.4074556827545166
0.5683594715599668, -0.4095970881755233, 0.24806940698813268, -0.32415579498430364, -3.099771071701671, 0.029481009767508986, 1.216977701436356, -1.5983914775349017, 3.247221367610584, -0.3687461018562317, -1.8324280977249146, -2.0994298458099365, -0.7994326949119568, 1.5425240993499756, 1.4075322151184082
0.5679351376156985, -0.41020227645957247, 0.24810320225892693, -0.3257645205983176, -3.0996400006349742, 0.029513154627334604, 1.2813496184476767, -1.0729029732270938, 3.4069053865906236, -0.36970168352127075, -1.8324319124221802, -2.099430799484253, -0.7994286417961121, 1.542492151260376, 1.4074876308441162
0.5676512957380688, -0.41058746188359463, 0.24805072230390657, -0.32671849371795464, -3.099455258341386, 0.029491382492249946, 0.6785727604641375, -1.5102937103068623, 3.2341231613909343, -0.3703845143318176, -1.832379937171936, -2.099407196044922, -0.7994167804718018, 1.542504072189331, 1.4074592590332031
0.567551858512208, -0.4107365496759929, 0.24813550165153808, -0.3272317321032608, -3.0994977639562538, 0.029523392289911063, 1.1069364816540002, -1.280103133355861, 3.2820836306777177, -0.3707316517829895, -1.8323718309402466, -2.099458694458008, -0.7994207739830017, 1.5425004959106445, 1.4074876308441162
0.5675359285607604, -0.41074997589054457, 0.24809821484962127, -0.327296045449972, -3.099452549638538, 0.02945453090231203, 1.2267177535457725, -0.7986704389045807, 3.1740431062973458, -0.37077122926712036, -1.8323994874954224, -2.099407196044922, -0.7994526028633118, 1.5425242185592651, 1.4075322151184082
0.5675630294383208, -0.4107171805836454, 0.24807139119626842, -0.32714401319633923, -3.0994542033270145, 0.02941676868576517, 0.7549317794927386, -0.8459706915111856, 3.0581624061875927, -0.37073594331741333, -1.832419991493225, -2.099426746368408, -0.7994088530540466, 1.542459487915039, 1.4074912071228027
0.5675761137593721, -0.4106934474384182, 0.24807876600304912, -0.3271667704167813, -3.0994244595995513, 0.02948345187204085, 1.2755702278752892, -1.2111855982695467, 3.1381988423288285, -0.3706548810005188, -1.8324037790298462, -2.0994226932525635, -0.799412727355957, 1.5425242185592651, 1.4074876308441162
0.5675639744720982, -0.41070418186308805, 0.2480959811940438, -0.32717789196604763, -3.099460308047823, 0.02950596036462627, 1.3297739508815787, -1.3737300027691952, 3.0198092786711292, -0.3707202076911926, -1.832419991493225, -2.09944224357605, -0.7994526028633118, 1.5424797534942627, 1.407503604888916
0.5675663684407303, -0.41071430449840807, 0.2480830085432133, -0.32713312167312836, -3.099459418141971, 0.029509375554014856, 1.6011409517036657, -0.8701468115655281, 3.2281754859210734, -0.3706715703010559, -1.8324156999588013, -2.099454641342163, -0.799416720867157, 1.5424797534942627, 1.4075119495391846
0.5675572391838535, -0.41065954762600854, 0.2480964860855867, -0.32705250723760554, -3.0994242028991836, 0.029512183394492342, 1.36214074508277, -1.0180203191368093, 3.242681158327062, -0.370683491230011, -1.832387089729309, -2.0994226932525635, -0.7994526028633118, 1.5424838066101074, 1.4074913263320923
0.5675238224665067, -0.4107202736850369, 0.24808539236055094, -0.32728605527421417, -3.0994219675007098, 0.02945526396718304, 0.7227738326300922, -1.1592209784809975, 3.2945090355500746, -0.3707354664802551, -1.8323789834976196, -2.099458694458008, -0.7994526028633118, 1.5425159931182861, 1.4075641632080078
0.567566318733097, -0.4107196441812509, 0.24813736198918185, -0.3272104811966172, -3.0995156951146483, 0.02953097626800975, 0.7857071532841621, -1.0942496266591677, 3.523120004589056, -0.3706715703010559, -1.832363247871399, -2.0994462966918945, -0.7994646430015564, 1.5425081253051758, 1.4075238704681396
0.5675583431644052, -0.41069456044136, 0.2480832008445722, -0.3271759586783053, -3.099447223241978, 0.029448562302156738, 0.9973628551184823, -1.0166223035625794, 3.60464530650643, -0.3706830143928528, -1.8323999643325806, -2.099438190460205, -0.7994406819343567, 1.5425240993499756, 1.4075443744659424
0.5675654898361331, -0.4106934128759685, 0.2481016887479221, -0.32710585309405654, -3.0994446518574077, 0.029542490854592793, 0.29502307577088444, -1.4398736309923996, 3.305528430401219, -0.37066346406936646, -1.8323951959609985, -2.0994503498077393, -0.799432635307312, 1.5424840450286865, 1.4074671268463135
0.5675700271315345, -0.41069814188542775, 0.2480512164392874, -0.3270883117146029, -3.099359311726009, 0.029543318792133424, 1.2185338985187602, -0.9265901262112363, 3.2040831556398195, -0.3706424832344055, -1.8323956727981567, -2.0994462966918945, -0.7994247078895569, 1.542548418045044, 1.407548189163208
0.5675549325711354, -0.410719657668038, 0.24809526099463733, -0.32721112645871686, -3.099468558295201, 0.029491223554336282, 1.07951379592904, -1.1234199843374695, 3.2663773017234705, -0.37067919969558716, -1.8324638605117798, -2.099438190460205, -0.7994844913482666, 1.542463779449463, 1.4075119495391846
0.5675682811530793, -0.4106845012677036, 0.2480662441934939, -0.3270825825090751, -3.0994114672720774, 0.029514238514476095, 0.9200479294445063, -1.0539795461467918, 3.2844143343586865, -0.3706510663032532, -1.8323956727981567, -2.09944224357605, -0.7994247674942017, 1.5424880981445312, 1.4075438976287842
0.5675618937090194, -0.41071341359529473, 0.24809470098983158, -0.32721312551291987, -3.099440044633747, 0.029439600753652765, 0.5725159307114769, -0.8054521631580611, 3.4136214111156886, -0.37070780992507935, -1.8324037790298462, -2.099402904510498, -0.7994765639305115, 1.5425283908843994, 1.4075438976287842
0.5675983889793063, -0.4106805378687818, 0.2481047054896659, -0.3271230541719743, -3.099471980204046, 0.029483385232174343, 0.2270314451269299, -0.7880581710554582, 3.4618662036226646, -0.370683491230011, -1.8324519395828247, -2.0993988513946533, -0.7994765639305115, 1.5425124168395996, 1.4075078964233398
0.5675970493951538, -0.41069426247580537, 0.24809093421502787, -0.3271115145118232, -3.0994882380385333, 0.029489182066554973, 0.7021412794354109, -1.0712460584823087, 3.4754876792569984, -0.37063151597976685, -1.8324319124221802, -2.099438190460205, -0.7994447350502014, 1.542520523071289, 1.4074711799621582
0.567522405792109, -0.41073790111441344, 0.24807503981097215, -0.3272705569371092, -3.099397345644221, 0.029522137066761416, 0.9059767287506525, -0.959214751981289, 3.0758545369939685, -0.37075215578079224, -1.8324037790298462, -2.0994465351104736, -0.7994526028633118, 1.5424673557281494, 1.4075398445129395
0.5675812034381197, -0.41066224318945543, 0.2480701650259312, -0.3270478020532282, -3.099435907267247, 0.029470907445078624, 1.519856270308641, -0.9695193982913016, 3.522962484122972, -0.3706229329109192, -1.8324161767959595, -2.09944224357605, -0.7994406819343567, 1.542504072189331, 1.4075238704681396
0.5675799505294898, -0.41068265589048936, 0.24808482205876153, -0.32710034087692924, -3.09945200666615, 0.02948565855380587, 0.6206336210899683, -1.2585062897728414, 3.3085315744103365, -0.37067586183547974, -1.8324156999588013, -2.09944224357605, -0.7994606494903564, 1.5424633026123047, 1.4075238704681396
0.5675477878627433, -0.4107034286288266, 0.24804908875265577, -0.32716650698156746, -3.099372276751552, 0.029467054700692077, 0.9804504143263735, -0.8789732659351452, 3.089692586497006, -0.37069541215896606, -1.8324400186538696, -2.099447250366211, -0.7994606494903564, 1.542492151260376, 1.4075322151184082
0.5675761411935942, -0.41068902217361875, 0.2480932419173988, -0.32709807310077355, -3.0994406660131877, 0.029546943387699993, 0.9934026570243465, -1.0066488669321256, 3.45188481460138, -0.3706548810005188, -1.8323994874954224, -2.0994153022766113, -0.7994606494903564, 1.542459487915039, 1.4075238704681396
0.567537950426158, -0.4107037231868252, 0.24806502147392945, -0.32716232059259626, -3.0993903662725533, 0.02948764408073217, 0.7038299548988947, -0.939549749492594, 3.4698926884105825, -0.3706997036933899, -1.8324075937271118, -2.099458932876587, -0.7994606494903564, 1.5424840450286865, 1.4075238704681396
0.5675687849327717, -0.41071363495558416, 0.24811154389600945, -0.32717595396135063, -3.099449329899731, 0.029527709271908682, 1.142329934472546, -1.2230124631068748, 3.1896514127786264, -0.3706510663032532, -1.83240807056427, -2.099430799484253, -0.7994766235351562, 1.5424554347991943, 1.4075119495391846
0.5675541304923603, -0.41069839038655215, 0.24804006804776718, -0.32712522560205076, -3.099389848271281, 0.029446815694193818, 0.3382888649912734, -1.2004042739727063, 3.048823080318091, -0.37063151597976685, -1.8323994874954224, -2.099438190460205, -0.7994526028633118, 1.5424880981445312, 1.4075238704681396
0.5675724372748522, -0.41068976217353964, 0.2480645021562659, -0.327118500941469, -3.0993901622062716, 0.029472969126407053, 1.0646347409009587, -1.0346538810750538, 3.2834429647181724, -0.37072449922561646, -1.832415223121643, -2.0994184017181396, -0.7994606494903564, 1.54245924949646, 1.407519817352295
0.5675148487352095, -0.4106952562458984, 0.24802575042616118, -0.3271643453117964, -3.099304026317338, 0.029457398141626234, 1.1771331229475346, -0.7491858749501931, 3.304085283717976, -0.3706510663032532, -1.832379937171936, -2.099403142929077, -0.7994924783706665, 1.542504072189331, 1.4075322151184082
0.5675844374374476, -0.4107048633152149, 0.24810754917836336, -0.3271182517572462, -3.099492692960077, 0.029503327981090895, 0.3397429923350607, -1.14476065150303, 2.969760062222869, -0.37067919969558716, -1.8324037790298462, -2.09938645362854, -0.7994406819343567, 1.5425004959106445, 1.4075078964233398
0.5675461922737937, -0.4107245733629544, 0.2481090584785336, -0.32716087691530227, -3.0994889476421004, 0.02949686423693638, 0.4184965367101675, -1.110139849124636, 3.252453047615261, -0.37070780992507935, -1.8324156999588013, -2.0994226932525635, -0.7994804978370667, 1.5425159931182861, 1.407503604888916
0.5675252115864272, -0.41071627534840804, 0.24805284520897217, -0.32717027046496155, -3.0993474598863107, 0.029462084988713312, 1.4823553046146476, -0.7791740568471119, 3.3872992984285166, -0.3706877827644348, -1.8324400186538696, -2.099482536315918, -0.7994486093521118, 1.542528510093689, 1.4074995517730713
0.5675522810945173, -0.41068845520771713, 0.24805359619700665, -0.32704305916452325, -3.099395416495306, 0.029438124528689776, 1.146795909194517, -0.8017069195401395, 3.0071739885591295, -0.3706672787666321, -1.8323432207107544, -2.0994226932525635, -0.7994565963745117, 1.5424714088439941, 1.4075119495391846
0.567570336669883, -0.4107028372786313, 0.24807906555572157, -0.32710534757474224, -3.0994397425856617, 0.029520381449942533, 0.8320508644313744, -0.9247581583421015, 3.0171081437194616, -0.3706877827644348, -1.8324114084243774, -2.0994505882263184, -0.7994606494903564, 1.5425000190734863, 1.407536268234253
0.5675582464416142, -0.4107081037998889, 0.24807921259626042, -0.32713028521851295, -3.0994364512990527, 0.029459746035349076, 1.0502042279048251, -0.5805098378752809, 3.109159838764437, -0.3706997036933899, -1.8324156999588013, -2.0994226932525635, -0.7994526028633118, 1.5425124168395996, 1.4074995517730713
0.5675575968043559, -0.4107057251257839, 0.24812626164465967, -0.3271263734651834, -3.099552329751234, 0.029445252112432093, 1.2633878840524913, -0.9712621172162181, 3.4911550291105535, -0.37064772844314575, -1.8323789834976196, -2.0994186401367188, -0.7994486093521118, 1.5424798727035522, 1.407495379447937
0.567538393665305, -0.41071022747353814, 0.24806569364688044, -0.32720575161740306, -3.099386163660217, 0.029534555749037517, 0.6477550644535444, -0.9611860126121312, 3.3022690650029594, -0.3706396222114563, -1.83240807056427, -2.0994462966918945, -0.7994647026062012, 1.5424964427947998, 1.4074952602386475
0.5675539838158374, -0.41070304246873107, 0.24810792554267874, -0.32708867887635606, -3.0994622352653254, 0.02950159521884432, 1.0013905944808748, -0.5237770108887176, 3.182255740421731, -0.37061911821365356, -1.8324476480484009, -2.0993988513946533, -0.7994447350502014, 1.542439341545105, 1.4075119495391846
0.5675684450073766, -0.4106726152901584, 0.2481176811712993, -0.3270679209991837, -3.099497123786756, 0.02947171794963012, 1.1742439730056706, -0.8615595365584128, 3.3118847098052777, -0.37064677476882935, -1.83234703540802, -2.099438190460205, -0.7994526028633118, 1.5425200462341309, 1.4075078964233398
0.5675625443723465, -0.4106976762371107, 0.24810193104739303, -0.3271270769864665, -3.099458931314372, 0.029543106206290498, 0.7426242396654243, -1.211995968245747, 3.2222178153598375, -0.3706997036933899, -1.8324400186538696, -2.09944224357605, -0.7994325757026672, 1.542531967163086, 1.407487154006958
0.567529934330762, -0.4107260961794013, 0.2481049027591276, -0.32723764752488815, -3.0994385434933363, 0.029504869122034674, 1.1119399977918378, -0.9604606945774777, 3.3084333242619066, -0.3706877827644348, -1.8324156999588013, -2.0994112491607666, -0.7994845509529114, 1.542483925819397, 1.407548189163208
0.567569695821768, -0.41070722291752904, 0.24804017477338758, -0.3271635175233635, -3.0993933359104724, 0.029450302798898393, 0.9870013679628765, -1.0728742423187048, 3.1594252008532266, -0.3706997036933899, -1.8323789834976196, -2.099426746368408, -0.7994287610054016, 1.5425159931182861, 1.4074952602386475
0.5675690474485304, -0.4107041756803718, 0.24810061561029345, -0.32716732120542485, -3.099477524975427, 0.029486908262503695, 0.8281354623502061, -0.8669978358690242, 3.429277060291345, -0.3706591725349426, -1.8323832750320435, -2.09944224357605, -0.7994285225868225, 1.5424959659576416, 1.4075038433074951
0.5675512420783492, -0.4107001714187091, 0.24807445453784513, -0.3271085444932648, -3.0994251498120597, 0.029467477531461457, 0.8420493051001101, -1.158747424726805, 3.6149663515607933, -0.37067586183547974, -1.8323675394058228, -2.0994226932525635, -0.799476683139801, 1.5425124168395996, 1.4074995517730713
0.5675591625908313, -0.4106891311023252, 0.24804806651267192, -0.3271240413367212, -3.099380543804349, 0.029410057358157566, 0.11439648285661698, -1.0861651009121533, 3.2304008207403605, -0.37067586183547974, -1.8324438333511353, -2.09944224357605, -0.7994685769081116, 1.5425283908843994, 1.4075238704681396
0.5675757815246346, -0.41066574778745935, 0.24810341032542427, -0.327113687752908, -3.0994590532671724, 0.02951718696040527, 0.6060718148640722, -0.9813042164015293, 3.2801137559121707, -0.370627224445343, -1.8323675394058228, -2.099438190460205, -0.7994566559791565, 1.5424838066101074, 1.407559871673584
0.5675520817608849, -0.4107089878063577, 0.24809578683256753, -0.32714269881201635, -3.0994383947750874, 0.029467994189241148, 1.2803648614851786, -0.7756162097501527, 3.3122383048698762, -0.37072449922561646, -1.832379937171936, -2.0994794368743896, -0.7994447350502014, 1.5424631834030151, 1.4075238704681396
0.5675702538354845, -0.41068682473437607, 0.24808769981292111, -0.3270801391898808, -3.0994420310039628, 0.029506804315783664, 1.0747833857786004, -1.0119474362707994, 2.9898188417501443, -0.37064677476882935, -1.8323718309402466, -2.0994341373443604, -0.7994845509529114, 1.5425118207931519, 1.4075162410736084
0.5675959273029493, -0.4106898706044691, 0.2481215845097233, -0.32706810629929184, -3.0995485109582197, 0.029461172588342653, 1.1225719435424604, -1.2238605955412623, 3.2806320572758345, -0.37067919969558716, -1.8324519395828247, -2.0994184017181396, -0.7994765639305115, 1.542483925819397, 1.4075279235839844
0.5675633833430652, -0.41069080328659024, 0.24807155098402517, -0.3271189137413254, -3.099395802407282, 0.029535035704363572, 0.8403798407674388, -1.0220589302866354, 3.24128592354121, -0.3706591725349426, -1.8323551416397095, -2.099454641342163, -0.7994804978370667, 1.5424673557281494, 1.4075038433074951
0.567555047847534, -0.41067277978997513, 0.24805564431758947, -0.32709596897672744, -3.099370343335504, 0.0294116007899993, 1.030300536773476, -0.9331243504034507, 3.183380174564036, -0.37067919969558716, -1.832375168800354, -2.0994503498077393, -0.7994247078895569, 1.5424758195877075, 1.4075279235839844
0.5675818376777292, -0.41067933523721867, 0.24812644354182642, -0.3270297166843121, -3.0995042310469185, 0.02949247621928463, 0.6643598454913435, -1.0197017487423121, 3.329160219184461, -0.37064677476882935, -1.8323551416397095, -2.099407196044922, -0.7994685173034668, 1.5425077676773071, 1.4074831008911133
0.5675606058743596, -0.41070691790592434, 0.24808589374361967, -0.32707876371606903, -3.09943455929647, 0.029469632680803753, 0.6215779223146973, -0.7917734312745381, 3.5228559875854795, -0.37069541215896606, -1.8323842287063599, -2.099390745162964, -0.7994804978370667, 1.5425159931182861, 1.4075238704681396
0.5675716227450666, -0.4106928210643314, 0.24809601698595862, -0.3270562620939635, -3.0994517337379794, 0.029462969480844935, 1.0894042775721084, -0.6514221019661623, 3.1107605679577457, -0.3707159161567688, -1.8324557542800903, -2.099402904510498, -0.7994406819343567, 1.542492151260376, 1.4075161218643188
0.5675592542680776, -0.4107193819111076, 0.24810639001830245, -0.3271793602474397, -3.0994787726963393, 0.029586500547121485, 0.9834458478394991, -1.211263866279103, 3.1772666839714696, -0.3706591725349426, -1.8324156999588013, -2.099407196044922, -0.7994328141212463, 1.5425118207931519, 1.4074995517730713
0.5675626366833343, -0.41065928762811904, 0.248098863974257, -0.3270176476886866, -3.099493628031003, 0.02946807723334109, 0.7909493966728435, -1.2991519926036283, 3.319642861956727, -0.37063151597976685, -1.8323551416397095, -2.099471092224121, -0.7994206547737122, 1.5425200462341309, 1.4074913263320923
0.5675614319914294, -0.4107059570459213, 0.24808569715278223, -0.3271801288365149, -3.0994326330622175, 0.029493953407398556, 0.38750755030559414, -1.225681978178142, 3.212521333607868, -0.3706434369087219, -1.8323956727981567, -2.099419355392456, -0.7994566559791565, 1.5425479412078857, 1.4075438976287842
0.5675823925143506, -0.41069626184046054, 0.24807900092544483, -0.32709604956475463, -3.0994630584418688, 0.02953712965496565, 1.0221185465642426, -1.0798827289537063, 3.1709155875348025, -0.3706672787666321, -1.8323637247085571, -2.09944224357605, -0.7994526028633118, 1.5425360202789307, 1.4074913263320923
0.5675484949170989, -0.41070616997177334, 0.24805210289016616, -0.3271719826266741, -3.0994149414386096, 0.029440472418387893, 1.3192991321402794, -1.160751221790706, 3.3842900087533403, -0.3707035183906555, -1.8324400186538696, -2.0994503498077393, -0.7994207143783569, 1.5425200462341309, 1.4075238704681396
0.5675992675974285, -0.4106904324277613, 0.24812052941869456, -0.3270935818580044, -3.0995320943815123, 0.02951408286351377, 1.1129747224104731, -0.9632399541580041, 3.169520535336507, -0.370683491230011, -1.8323637247085571, -2.099419355392456, -0.799436628818512, 1.542483925819397, 1.4075438976287842
0.5675797413215887, -0.41070620026559274, 0.24811969023224179, -0.32720576941421203, -3.0994883878748696, 0.029506882578578017, 0.6497618146388878, -1.3794631957556236, 3.2802846323786663, -0.3706548810005188, -1.832391381263733, -2.099454641342163, -0.7994607090950012, 1.5425159931182861, 1.4075038433074951
0.5675596367656429, -0.4106901481764915, 0.24809326275203097, -0.32704108501961277, -3.099433997816875, 0.029480552300342664, 1.1579329412206256, -0.940811713127771, 3.5109817822158993, -0.37067538499832153, -1.8323951959609985, -2.0994226932525635, -0.7994604706764221, 1.5425320863723755, 1.4075480699539185
